; generated by PrusaSlicer 2.7.0+win64 on 2024-01-31 at 14:39:45 UTC


;
;
; 

; external perimeters extrusion width = 0.45mm
; perimeters extrusion width = 0.45mm
; infill extrusion width = 0.45mm
; solid infill extrusion width = 0.45mm
; top infill extrusion width = 0.40mm
; first layer extrusion width = 0.42mm

M73 P0 R84
M73 Q0 S85
M201 X1000 Y1000 Z200 E5000 ; sets maximum accelerations, mm/sec^2
M203 X200 Y200 Z12 E120 ; sets maximum feedrates, mm / sec
M204 S1250 T1250 ; sets acceleration (S) and retract acceleration (R), mm/sec^2
M205 X8.00 Y8.00 Z0.40 E4.50 ; sets the jerk limits, mm/sec
M205 S0 T0 ; sets the minimum extruding and travel feed rate, mm/sec

; printing object clips_module_v01.stl id:0 copy 0
; stop printing object clips_module_v01.stl id:0 copy 0
; printing object clips_module_v01.stl id:0 copy 1
; stop printing object clips_module_v01.stl id:0 copy 1
; printing object clips_module_v01.stl id:0 copy 2
; stop printing object clips_module_v01.stl id:0 copy 2
; printing object clips_module_v01.stl id:0 copy 3
; stop printing object clips_module_v01.stl id:0 copy 3
; printing object clips_module_v01.stl id:0 copy 4
; stop printing object clips_module_v01.stl id:0 copy 4
; printing object clips_module_v01.stl id:0 copy 5
; stop printing object clips_module_v01.stl id:0 copy 5
; printing object clips_module_v01.stl id:0 copy 6
; stop printing object clips_module_v01.stl id:0 copy 6
; printing object clips_module_v01.stl id:0 copy 7
; stop printing object clips_module_v01.stl id:0 copy 7

;TYPE:Custom
M862.3 P "MK3S" ; printer model check
M862.1 P0.4 ; nozzle diameter check
M115 U3.13.2 ; tell printer latest fw version
G90 ; use absolute coordinates
M83 ; extruder relative mode
M104 S230 ; set extruder temp
M140 S85 ; set bed temp
M190 S85 ; wait for bed temp
M109 S230 ; wait for extruder temp
G28 W ; home all without mesh bed level
G80 X72.0232 Y51.5289 W107.418 H106.943 ; mesh bed levelling

G1 Z0.2 F720
G1 Y-3 F1000 ; go outside print area
G92 E0
G1 X60 E9 F1000 ; intro line
G1 X100 E12.5 F1000 ; intro line

G92 E0
M221 S95

; Don't change E values below. Excessive value can damage the printer.

M907 E538 ; set extruder motor current
G21 ; set units to millimeters
G90 ; use absolute coordinates
M83 ; use relative distances for extrusion
M900 K0.08 ; Filament gcode LA 1.5
M900 K45 ; Filament gcode LA 1.0

M107
;LAYER_CHANGE
;Z:0.2
;HEIGHT:0.2
;BEFORE_LAYER_CHANGE
G92 E0.0
;0.2


G1 E-1 F2100
M73 Q0 S84
G1 Z.2 F720
;AFTER_LAYER_CHANGE
;0.2
G1 X80.041 Y55.405 F10800
G1 Z.2 F720
G1 E1 F2100
M204 S800
;TYPE:Skirt/Brim
;WIDTH:0.42
G1 F1200
G1 X80.657 Y54.892 E.02513
G1 X85.855 Y52.042 E.18587
G1 X86.453 Y51.805 E.02017
G1 X87.064 Y51.719 E.01935
G1 X169.394 Y51.718 E2.5814
G1 X170.08 Y51.806 E.02169
G1 X170.831 Y52.131 E.02566
G1 X178.156 Y57.365 E.28228
G1 X178.557 Y57.725 E.0169
G1 X178.923 Y58.239 E.01978
G1 X179.158 Y58.822 E.01971
G1 X179.244 Y59.309 E.01551
G1 X179.225 Y152.368 E2.9178
G1 X179.13 Y153.029 E.02094
M73 P0 R83
G1 X178.866 Y153.677 E.02194
G1 X176.244 Y157.4 E.14278
G1 X175.8 Y157.787 E.01847
G1 X175.314 Y158.058 E.01745
G1 X174.764 Y158.231 E.01808
G1 X174.27 Y158.283 E.01557
G1 X89.659 Y158.283 E2.65292
G1 X74.51 Y157.781 E.47525
G1 X73.217 Y157.347 E.04276
G1 X72.375 Y156.272 E.04281
G1 X72.212 Y155.406 E.02763
G1 X72.212 Y99.037 E1.76741
G1 X79.438 Y56.659 E1.34791
G1 X79.689 Y55.918 E.02453
G1 X80.007 Y55.454 E.01764
M204 S1000
; printing object clips_module_v01.stl id:0 copy 6
;WIPE_START
G1 F8640
G1 X80.041 Y55.405 E-.01377
G1 X80.657 Y54.892 E-.1851
G1 X83.699 Y53.224 E-.80113
;WIPE_END
G1 Z.4 F720
G1 X166.357 Y58.54 F10800
G1 Z.2 F720
G1 E1 F2100
M204 S800
;TYPE:Perimeter
;WIDTH:0.419999
G1 F1200
G1 X166.202 Y58.729 E.00766
G1 X166.144 Y58.873 E.00487
G1 X166.111 Y59.313 E.01383
G1 X165.06 Y57.355 E.06968
G1 X169.358 Y55.015 E.15344
G1 X175.988 Y59.743 E.25532
G1 X175.484 Y61.86 E.06823
G1 X175.125 Y63.568 E.05472
G1 X174.808 Y65.257 E.05388
G1 X174.526 Y66.964 E.05425
G1 X174.28 Y68.689 E.05463
G1 X174.073 Y70.408 E.05429
G1 X173.904 Y72.118 E.05388
G1 X173.772 Y73.843 E.05424
G1 X173.663 Y76.024 E.06847
G1 X173.62 Y77.313 E.04044
G1 X173.602 Y79.031 E.05387
G1 X173.621 Y80.774 E.05465
G1 X173.677 Y82.491 E.05386
G1 X173.764 Y84.084 E.05002
G1 X173.904 Y85.957 E.05889
G1 X174.073 Y87.667 E.05388
G1 X174.25 Y89.137 E.04642
G1 X174.526 Y91.11 E.06246
G1 X174.808 Y92.818 E.05428
G1 X175.065 Y94.19 E.04377
G1 X175.484 Y96.215 E.06484
G1 X175.989 Y98.343 E.06857
G1 X173.988 Y101.216 E.10978
G1 X171.956 Y101.222 E.06371
G1 X170.007 Y101.03 E.06141
G1 X168.559 Y100.92 E.04553
G1 X166.947 Y100.826 E.05063
G1 X165.026 Y100.749 E.06028
G1 X163.631 Y100.723 E.04375
G1 X158.033 Y100.722 E.17552
G1 X158.033 Y99.852 E.02728
G1 X163.622 Y99.853 E.17524
G1 X165.598 Y99.894 E.06197
G1 X167.198 Y99.96 E.05021
G1 X169.055 Y100.067 E.05832
G1 X172.338 Y100.348 E.10331
G1 X172.648 Y100.286 E.00991
G1 X173.006 Y100.035 E.01371
G1 X173.13 Y99.859 E.00675
G1 X173.23 Y99.485 E.01214
G1 X173.028 Y97.181 E.07252
G1 X172.895 Y95.116 E.06488
G1 X172.781 Y92.508 E.08185
G1 X172.735 Y90.501 E.06294
G1 X172.731 Y59.08 E.98518
G1 X172.66 Y58.806 E.00887
G1 X172.552 Y58.61 E.00702
G1 X172.386 Y58.424 E.00782
G1 X172.126 Y58.285 E.00924
G1 X171.868 Y58.222 E.00833
G1 X166.959 Y58.223 E.15392
G1 X166.689 Y58.292 E.00874
G1 X166.417 Y58.467 E.01014
G1 X166.395 Y58.494 E.00109
M204 S1000
G1 X166.624 Y58.783 F10800
M204 S800
;TYPE:External perimeter
G1 F1200
G1 X166.494 Y59.014 E.00831
G1 X166.492 Y59.323 E.00969
;WIDTH:0.450176
G1 X166.496 Y59.67 E.01175
;WIDTH:0.480352
G1 X166.5 Y60.016 E.01259
G1 X166.587 Y60.439 E.01571
;WIDTH:0.45397
G1 X166.675 Y60.861 E.01473
;WIDTH:0.427588
G1 X166.675 Y61.575 E.02284
G1 X166.281 Y60.829 E.02698
;WIDTH:0.451496
G1 X166.004 Y59.947 E.03141
G1 X165.775 Y59.493 E.01727
;WIDTH:0.419999
G1 X164.552 Y57.203 E.0814
G1 X169.384 Y54.571 E.17252
G1 X176.414 Y59.583 E.2707
G1 X175.851 Y61.947 E.07619
G1 X175.495 Y63.637 E.05415
G1 X175.179 Y65.326 E.05388
G1 X174.898 Y67.026 E.05403
G1 X174.654 Y68.735 E.05413
G1 X174.448 Y70.445 E.054
G1 X174.279 Y72.155 E.05388
G1 X174.148 Y73.872 E.05399
G1 X174.04 Y76.033 E.06784
G1 X173.998 Y77.313 E.04016
G1 X173.979 Y79.037 E.05406
G1 X173.998 Y80.762 E.05409
G1 X174.054 Y82.479 E.05386
G1 X174.14 Y84.064 E.04977
G1 X174.279 Y85.92 E.05836
G1 X174.448 Y87.63 E.05388
G1 X174.624 Y89.092 E.04617
G1 X174.898 Y91.049 E.06196
G1 X175.179 Y92.748 E.05399
G1 X175.436 Y94.12 E.04377
G1 X175.851 Y96.127 E.06426
G1 X176.395 Y98.42 E.07389
G1 X174.186 Y101.593 E.12122
G1 X171.938 Y101.599 E.07048
G1 X169.975 Y101.406 E.06185
G1 X168.537 Y101.296 E.04522
G1 X166.935 Y101.203 E.05031
G1 X165.018 Y101.126 E.06015
G1 X163.631 Y101.1 E.0435
G1 X157.655 Y101.099 E.18737
G1 X157.655 Y99.475 E.05092
G1 X163.626 Y99.476 E.18722
G1 X165.61 Y99.518 E.06222
G1 X167.217 Y99.583 E.05043
G1 X169.082 Y99.691 E.05857
G1 X172.37 Y99.973 E.10347
G1 X172.639 Y99.865 E.00909
G1 X172.821 Y99.642 E.00903
G1 X172.854 Y99.518 E.00402
G1 X172.652 Y97.209 E.07267
G1 X172.519 Y95.136 E.06513
G1 X172.404 Y92.521 E.08207
G1 X172.358 Y90.505 E.06323
G1 X172.354 Y59.08 E.98531
G1 X172.331 Y58.989 E.00294
G1 X172.167 Y58.731 E.00959
G1 X171.868 Y58.599 E.01025
G1 X166.959 Y58.6 E.15392
G1 X166.676 Y58.754 E.0101
M204 S1000
;WIPE_START
G1 F8640
G1 X166.624 Y58.783 E-.01375
G1 X166.494 Y59.014 E-.0612
G1 X166.492 Y59.323 E-.07135
;WIPE_END
G1 E-.8537 F2100
G1 Z.4 F720
G1 X175.648 Y60.44 F10800
G1 Z.2 F720
G1 E1 F2100
M204 S800
;TYPE:Solid infill
;WIDTH:0.421772
G1 F1200
G1 X173.825 Y58.617 E.08121
G1 X171.958 Y57.286 E.07223
G1 X175.404 Y60.732 E.15352
G1 X175.301 Y61.164 E.01399
G1 X173.027 Y58.89 E.10131
G1 X172.967 Y58.658 E.00755
G1 X172.841 Y58.431 E.00818
G1 X172.59 Y58.151 E.01185
G1 X172.247 Y57.965 E.01229
G1 X172.059 Y57.922 E.00608
G1 X170.092 Y55.955 E.08763
G1 X169.333 Y55.415 E.02934
G1 X169.127 Y55.527 E.00739
G1 X171.484 Y57.883 E.10498
G1 X170.948 Y57.883 E.01688
G1 X168.781 Y55.716 E.09654
G1 X168.434 Y55.905 E.01245
G1 X170.412 Y57.883 E.08812
G1 X169.876 Y57.883 E.01688
G1 X168.087 Y56.094 E.0797
G1 X167.74 Y56.282 E.01243
G1 X169.341 Y57.883 E.07132
G1 X168.805 Y57.883 E.01688
G1 X167.393 Y56.471 E.0629
G1 X167.046 Y56.66 E.01245
G1 X168.269 Y57.884 E.05451
G1 X167.734 Y57.884 E.01685
G1 X166.699 Y56.849 E.04611
G1 X166.352 Y57.038 E.01245
G1 X167.198 Y57.884 E.03769
G1 X166.94 Y57.884 E.00813
G1 X166.719 Y57.94 E.00718
G1 X166.005 Y57.227 E.03179
G1 X165.659 Y57.416 E.01242
G1 X166.35 Y58.107 E.03078
G1 X166.213 Y58.195 E.00513
G1 X166.073 Y58.366 E.00696
G1 X165.472 Y57.765 E.02677
M204 S1000
;WIPE_START
G1 F8640
G1 X166.073 Y58.366 E-.19625
G1 X166.213 Y58.195 E-.05103
G1 X166.35 Y58.107 E-.0376
G1 X165.659 Y57.416 E-.22564
G1 X166.005 Y57.227 E-.09103
G1 X166.719 Y57.94 E-.23299
G1 X166.94 Y57.884 E-.05264
G1 X167.198 Y57.884 E-.05957
G1 X167.035 Y57.721 E-.05325
;WIPE_END
G1 Z.4 F720
G1 X172.901 Y59.301 F10800
G1 Z.2 F720
G1 E1 F2100
M204 S800
G1 F1200
G1 X175.198 Y61.597 E.10231
G1 X175.1 Y62.036 E.01417
G1 X173.071 Y60.006 E.09041
G1 X173.071 Y60.542 E.01688
G1 X175.007 Y62.478 E.08625
G1 X174.914 Y62.921 E.01426
G1 X173.071 Y61.078 E.08211
G1 X173.071 Y61.614 E.01688
G1 X174.821 Y63.364 E.07796
G1 X174.734 Y63.812 E.01438
G1 X173.071 Y62.15 E.07406
G1 X173.071 Y62.685 E.01685
G1 X174.649 Y64.263 E.0703
G1 X174.564 Y64.714 E.01446
G1 X173.071 Y63.221 E.06651
G1 X173.071 Y63.757 E.01688
G1 X174.48 Y65.165 E.06275
G1 X174.403 Y65.625 E.01469
G1 X173.071 Y64.293 E.05934
G1 X173.071 Y64.829 E.01688
G1 X174.327 Y66.084 E.05593
G1 X174.251 Y66.544 E.01469
G1 X173.071 Y65.364 E.05257
G1 X173.072 Y65.9 E.01688
G1 X174.177 Y67.006 E.04925
G1 X174.11 Y67.475 E.01492
G1 X173.072 Y66.436 E.04627
G1 X173.072 Y66.972 E.01688
G1 X174.043 Y67.944 E.04328
G1 X173.976 Y68.412 E.01489
G1 X173.072 Y67.508 E.04027
G1 X173.072 Y68.044 E.01688
G1 X173.914 Y68.886 E.03751
G1 X173.856 Y69.364 E.01517
G1 X173.072 Y68.579 E.03495
G1 X173.072 Y69.115 E.01688
G1 X173.799 Y69.842 E.03239
G1 X173.741 Y70.32 E.01517
G1 X173.072 Y69.651 E.0298
G1 X173.072 Y70.187 E.01688
G1 X173.692 Y70.807 E.02762
G1 X173.644 Y71.295 E.01545
G1 X173.072 Y70.723 E.02548
G1 X173.072 Y71.259 E.01688
G1 X173.596 Y71.783 E.02334
G1 X173.552 Y72.274 E.01553
G1 X173.072 Y71.794 E.02138
G1 X173.072 Y72.33 E.01688
G1 X173.514 Y72.772 E.01969
G1 X173.476 Y73.269 E.0157
G1 X173.072 Y72.866 E.01798
G1 X173.072 Y73.402 E.01688
G1 X173.437 Y73.767 E.01626
G1 X173.411 Y74.276 E.01606
G1 X173.072 Y73.938 E.01508
G1 X173.072 Y74.474 E.01688
G1 X173.385 Y74.786 E.01392
G1 X173.359 Y75.296 E.01609
G1 X173.072 Y75.009 E.01279
G1 X173.072 Y75.545 E.01688
G1 X173.334 Y75.806 E.01165
G1 X173.313 Y76.322 E.01627
G1 X173.073 Y76.081 E.01071
G1 X173.073 Y76.617 E.01688
G1 X173.296 Y76.841 E.00996
G1 X173.281 Y77.361 E.01639
G1 X173.073 Y77.153 E.00927
G1 X173.073 Y77.689 E.01688
G1 X173.275 Y77.891 E.009
G1 X173.269 Y78.421 E.0167
G1 X173.073 Y78.224 E.00875
G1 X173.073 Y78.76 E.01688
G1 X173.263 Y78.951 E.00849
G1 X173.267 Y79.491 E.01701
G1 X173.073 Y79.296 E.00867
G1 X173.073 Y79.832 E.01688
G1 X173.273 Y80.032 E.00891
G1 X173.279 Y80.574 E.01707
G1 X173.073 Y80.368 E.00918
G1 X173.073 Y80.904 E.01688
G1 X173.293 Y81.123 E.00978
G1 X173.311 Y81.677 E.01746
G1 X173.073 Y81.439 E.0106
G1 X173.073 Y81.975 E.01688
G1 X173.329 Y82.231 E.0114
G1 X173.353 Y82.791 E.01766
G1 X173.073 Y82.511 E.01247
G1 X173.073 Y83.047 E.01688
G1 X173.384 Y83.358 E.01386
G1 X173.415 Y83.925 E.01789
G1 X173.073 Y83.583 E.01524
G1 X173.073 Y84.119 E.01688
G1 X173.455 Y84.5 E.017
G1 X173.498 Y85.079 E.01829
G1 X173.073 Y84.654 E.01893
G1 X173.073 Y85.19 E.01688
G1 X173.541 Y85.658 E.02085
G1 X173.591 Y86.244 E.01853
G1 X173.073 Y85.726 E.02308
G1 X173.074 Y86.262 E.01688
G1 X173.65 Y86.838 E.02566
G1 X173.708 Y87.433 E.01883
M73 P1 R83
G1 X173.074 Y86.798 E.02827
M73 Q1 S84
G1 X173.074 Y87.334 E.01688
G1 X173.775 Y88.035 E.03123
G1 X173.848 Y88.644 E.01932
G1 X173.074 Y87.869 E.0345
G1 X173.074 Y88.405 E.01688
G1 X173.924 Y89.255 E.03787
G1 X174.011 Y89.878 E.01982
G1 X173.074 Y88.941 E.04174
G1 X173.074 Y89.477 E.01688
G1 X174.098 Y90.501 E.04562
G1 X174.185 Y91.124 E.01982
G1 X173.074 Y90.013 E.0495
G1 X173.075 Y90.55 E.01692
G1 X174.29 Y91.764 E.05411
G1 X174.396 Y92.406 E.0205
G1 X173.088 Y91.098 E.05827
G1 X173.1 Y91.646 E.01727
G1 X174.507 Y93.053 E.06268
G1 X174.631 Y93.712 E.02112
G1 X173.113 Y92.195 E.0676
G1 X173.131 Y92.749 E.01746
G1 X174.757 Y94.375 E.07244
G1 X174.897 Y95.05 E.02172
G1 X173.156 Y93.309 E.07756
G1 X173.18 Y93.869 E.01766
G1 X175.036 Y95.726 E.08271
G1 X175.18 Y96.405 E.02187
G1 X173.205 Y94.43 E.08799
G1 X173.229 Y94.99 E.01766
G1 X175.347 Y97.108 E.09436
G1 X175.514 Y97.81 E.02273
G1 X173.264 Y95.56 E.10024
G1 X173.3 Y96.133 E.01809
G1 X175.549 Y98.381 E.10017
G1 X175.329 Y98.697 E.01213
G1 X173.337 Y96.705 E.08874
G1 X173.377 Y97.281 E.01819
G1 X175.109 Y99.013 E.07716
G1 X174.889 Y99.329 E.01213
G1 X173.429 Y97.868 E.06507
G1 X173.48 Y98.456 E.01859
G1 X174.669 Y99.645 E.05297
G1 X174.449 Y99.96 E.0121
G1 X173.532 Y99.043 E.04085
G1 X173.57 Y99.482 E.01388
G1 X173.542 Y99.589 E.00348
G1 X174.229 Y100.276 E.03061
G1 X174.009 Y100.592 E.01213
G1 X173.429 Y100.012 E.02584
G1 X173.27 Y100.25 E.00902
G1 X173.195 Y100.314 E.00311
G1 X173.759 Y100.878 E.02513
G1 X173.225 Y100.879 E.01682
G1 X172.889 Y100.543 E.01497
G1 X172.795 Y100.592 E.00334
G1 X172.491 Y100.681 E.00998
G1 X172.691 Y100.881 E.00891
G1 X172.156 Y100.882 E.01685
G1 X171.925 Y100.651 E.01029
G1 X171.34 Y100.601 E.0185
G1 X171.583 Y100.845 E.01085
G1 X170.989 Y100.786 E.0188
G1 X170.754 Y100.552 E.01045
G1 X170.169 Y100.502 E.0185
G1 X170.394 Y100.728 E.01005
G1 X169.806 Y100.675 E.0186
G1 X169.583 Y100.452 E.00993
G1 X168.999 Y100.403 E.01846
G1 X169.225 Y100.63 E.01009
G1 X168.645 Y100.586 E.01832
G1 X168.43 Y100.371 E.00958
G1 X167.862 Y100.338 E.01792
G1 X168.075 Y100.552 E.00951
G1 X167.506 Y100.519 E.01795
G1 X167.293 Y100.305 E.00951
G1 X166.733 Y100.281 E.01766
G1 X166.938 Y100.486 E.00913
G1 X166.38 Y100.464 E.01759
G1 X166.174 Y100.258 E.00918
G1 X165.615 Y100.235 E.01762
G1 X165.822 Y100.441 E.0092
G1 X165.264 Y100.419 E.01759
G1 X165.068 Y100.223 E.00873
G1 X164.52 Y100.211 E.01727
G1 X164.713 Y100.404 E.0086
G1 X164.167 Y100.394 E.0172
G1 X163.973 Y100.2 E.00864
G1 X163.615 Y100.192 E.01128
G1 X163.43 Y100.192 E.00583
G1 X163.621 Y100.384 E.00853
G1 X163.085 Y100.384 E.01688
G1 X162.894 Y100.192 E.00853
G1 X162.358 Y100.192 E.01688
G1 X162.55 Y100.384 E.00855
G1 X162.014 Y100.384 E.01688
G1 X161.822 Y100.192 E.00855
G1 X161.286 Y100.192 E.01688
G1 X161.478 Y100.384 E.00855
G1 X160.942 Y100.383 E.01688
G1 X160.75 Y100.192 E.00853
G1 X160.215 Y100.192 E.01685
G1 X160.406 Y100.383 E.00851
G1 X159.87 Y100.383 E.01688
G1 X159.679 Y100.192 E.00851
G1 X159.143 Y100.192 E.01688
G1 X159.334 Y100.383 E.00851
G1 X158.799 Y100.383 E.01685
G1 X158.437 Y100.022 E.0161
M204 S1000
; stop printing object clips_module_v01.stl id:0 copy 6
; printing object clips_module_v01.stl id:0 copy 3
;WIPE_START
G1 F8640
G1 X158.799 Y100.383 E-.11805
G1 X159.334 Y100.383 E-.12353
G1 X159.143 Y100.192 E-.06237
G1 X159.679 Y100.192 E-.12376
G1 X159.87 Y100.383 E-.06237
G1 X160.406 Y100.383 E-.12376
G1 X160.215 Y100.192 E-.06237
G1 X160.75 Y100.192 E-.12353
G1 X160.942 Y100.383 E-.06253
G1 X161.478 Y100.384 E-.12376
G1 X161.435 Y100.341 E-.01397
;WIPE_END
G1 Z.4 F720
G1 X138.938 Y58.54 F10800
G1 Z.2 F720
G1 E1 F2100
M204 S800
;TYPE:Perimeter
;WIDTH:0.419999
G1 F1200
G1 X138.783 Y58.729 E.00766
G1 X138.725 Y58.873 E.00487
G1 X138.692 Y59.313 E.01383
G1 X137.642 Y57.355 E.06966
G1 X141.939 Y55.015 E.15341
G1 X148.569 Y59.743 E.25532
G1 X148.065 Y61.86 E.06823
G1 X147.706 Y63.568 E.05472
G1 X147.389 Y65.257 E.05388
G1 X147.107 Y66.964 E.05425
G1 X146.861 Y68.689 E.05463
G1 X146.654 Y70.408 E.05429
G1 X146.485 Y72.118 E.05388
G1 X146.353 Y73.843 E.05424
G1 X146.244 Y76.024 E.06847
G1 X146.202 Y77.313 E.04044
G1 X146.183 Y79.031 E.05387
G1 X146.202 Y80.774 E.05465
