; generated by PrusaSlicer 2.7.0+win64 on 2024-02-06 at 11:36:45 UTC


;
;
; 

; external perimeters extrusion width = 0.45mm
; perimeters extrusion width = 0.45mm
; infill extrusion width = 0.45mm
; solid infill extrusion width = 0.45mm
; top infill extrusion width = 0.40mm
; first layer extrusion width = 0.42mm

M73 P0 R21
M73 Q0 S21
M201 X1000 Y1000 Z200 E5000 ; sets maximum accelerations, mm/sec^2
M203 X200 Y200 Z12 E120 ; sets maximum feedrates, mm / sec
M204 S1250 T1250 ; sets acceleration (S) and retract acceleration (R), mm/sec^2
M205 X8.00 Y8.00 Z0.40 E4.50 ; sets the jerk limits, mm/sec
M205 S0 T0 ; sets the minimum extruding and travel feed rate, mm/sec

; printing object clipModuleConcept3.stl id:0 copy 0
; stop printing object clipModuleConcept3.stl id:0 copy 0
; printing object clipModuleConcept3.stl id:0 copy 1
; stop printing object clipModuleConcept3.stl id:0 copy 1

;TYPE:Custom
M862.3 P "MK3S" ; printer model check
M862.1 P0.4 ; nozzle diameter check
M115 U3.13.2 ; tell printer latest fw version
G90 ; use absolute coordinates
M83 ; extruder relative mode
M104 S230 ; set extruder temp
M140 S85 ; set bed temp
M190 S85 ; wait for bed temp
M109 S230 ; wait for extruder temp
G28 W ; home all without mesh bed level
G80 X98.3706 Y79.524 W53.2603 H50.9538 ; mesh bed levelling

G1 Z0.2 F720
G1 Y-3 F1000 ; go outside print area
G92 E0
G1 X60 E9 F1000 ; intro line
G1 X100 E12.5 F1000 ; intro line

G92 E0
M221 S95

; Don't change E values below. Excessive value can damage the printer.

M907 E538 ; set extruder motor current
G21 ; set units to millimeters
G90 ; use absolute coordinates
M83 ; use relative distances for extrusion
M900 K0.08 ; Filament gcode LA 1.5
M900 K45 ; Filament gcode LA 1.0

M107
;LAYER_CHANGE
;Z:0.2
;HEIGHT:0.2
;BEFORE_LAYER_CHANGE
G92 E0.0
;0.2


G1 E-1 F2100
G1 Z.2 F720
;AFTER_LAYER_CHANGE
;0.2
G1 X99.197 Y87.785 F10800
G1 Z.2 F720
G1 E1 F2100
M204 S800
;TYPE:Skirt/Brim
;WIDTH:0.42
G1 F1200
G1 X99.8 Y87.277 E.02472
G1 X105.015 Y84.417 E.18649
G1 X105.61 Y84.181 E.02007
G1 X131.324 Y79.751 E.81812
G1 X131.855 Y79.713 E.01669
G1 X132.617 Y79.844 E.02424
G1 X133.37 Y80.228 E.0265
G1 X139.76 Y85.552 E.26078
G1 X150.696 Y95.912 E.47232
G1 X151.438 Y97.637 E.05888
G1 X151.442 Y112.829 E.47633
G1 X151.259 Y113.746 E.02932
G1 X146.783 Y124.459 E.36404
G1 X146.484 Y124.944 E.01786
G1 X146.045 Y125.382 E.01944
G1 X145.639 Y125.639 E.01507
G1 X144.94 Y125.872 E.0231
G1 X119.455 Y130.252 E.81078
G1 X109.022 Y130.289 E.32712
M73 P1 R21
M73 Q1 S21
G1 X108.517 Y130.239 E.01591
G1 X107.934 Y130.048 E.01924
G1 X107.431 Y129.739 E.01851
G1 X107.004 Y129.316 E.01885
G1 X106.687 Y128.805 E.01885
G1 X106.498 Y128.238 E.01874
G1 X98.611 Y90 E1.22416
G1 X98.595 Y89.051 E.02976
G1 X98.848 Y88.296 E.02497
G1 X99.163 Y87.834 E.01753
M204 S1000
; printing object clipModuleConcept3.stl id:0 copy 0
;WIPE_START
G1 F8640
G1 X99.197 Y87.785 E-.01377
G1 X99.8 Y87.277 E-.18206
G1 X102.854 Y85.602 E-.80417
;WIPE_END
G1 Z.4 F720
G1 X128.746 Y86.535 F10800
G1 Z.2 F720
G1 E1 F2100
M204 S800
;TYPE:Perimeter
;WIDTH:0.419999
G1 F1200
G1 X128.591 Y86.724 E.00766
G1 X128.533 Y86.868 E.00487
G1 X128.499 Y87.308 E.01384
G1 X127.449 Y85.349 E.06969
G1 X131.732 Y83.017 E.15291
G1 X134.562 Y85.372 E.11544
;WIDTH:0.468311
G1 X134.771 Y85.577 E.01036
;WIDTH:0.516622
G1 X134.98 Y85.782 E.01153
;WIDTH:0.564933
G1 X135.188 Y85.987 E.01268
G1 X135.347 Y86.088 E.00818
;WIDTH:0.516622
G1 X135.506 Y86.189 E.00742
;WIDTH:0.468311
G1 X135.665 Y86.29 E.00666
;WIDTH:0.419999
G1 X137.36 Y87.7 E.06913
G1 X137.01 Y89.912 E.07022
G1 X136.772 Y91.601 E.05348
G1 X136.558 Y93.297 E.0536
G1 X136.369 Y94.999 E.05369
G1 X136.204 Y96.715 E.05405
G1 X136.066 Y98.419 E.0536
G1 X135.883 Y101.341 E.0918
;WIDTH:0.465534
G1 X135.855 Y101.437 E.00351
;WIDTH:0.511069
G1 X135.827 Y101.534 E.00393
;WIDTH:0.556604
G1 X135.798 Y101.63 E.00428
;WIDTH:0.602138
G1 X135.77 Y101.727 E.00469
G1 X135.697 Y104.469 E.12755
;WIDTH:0.55305
G1 X135.696 Y104.486 E.00072
;WIDTH:0.552787
G1 X135.687 Y105.778 E.05478
;WIDTH:0.546524
G1 X135.687 Y105.794 E.00067
;WIDTH:0.566105
G1 X135.716 Y108.277 E.10803
;WIDTH:0.566829
G1 X135.717 Y108.305 E.00122
;WIDTH:0.601298
G1 X135.769 Y109.475 E.05438
G1 X135.797 Y109.574 E.00478
;WIDTH:0.555974
G1 X135.826 Y109.672 E.00436
;WIDTH:0.510649
G1 X135.854 Y109.771 E.004
;WIDTH:0.465324
G1 X135.883 Y109.869 E.00359
;WIDTH:0.419999
G1 X135.929 Y110.653 E.02462
G1 X136.036 Y111.823 E.03684
G1 X136.328 Y114.285 E.07774
G1 X137.402 Y121.031 E.21418
G1 X137.534 Y121.35 E.01082
G1 X137.782 Y121.63 E.01173
G1 X138.17 Y121.783 E.01308
G1 X143.844 Y121.783 E.1779
G1 X143.844 Y122.248 E.01458
G1 X143.844 Y122.713 E.01458
G1 X135.12 Y122.709 E.27353
G1 X135.12 Y109.892 E.40187
;WIDTH:0.465324
G1 X135.143 Y109.792 E.0036
;WIDTH:0.510649
G1 X135.165 Y109.692 E.00398
;WIDTH:0.555974
G1 X135.188 Y109.592 E.00438
;WIDTH:0.601298
G1 X135.211 Y109.492 E.00476
G1 X135.193 Y108.32 E.05442
;WIDTH:0.566829
G1 X135.193 Y108.281 E.0017
;WIDTH:0.566105
G1 X135.183 Y105.784 E.10863
;WIDTH:0.552787
G1 X135.186 Y104.483 E.05516
;WIDTH:0.55305
G1 X135.187 Y104.46 E.00098
;WIDTH:0.602138
G1 X135.211 Y101.717 E.12755
G1 X135.188 Y101.617 E.00477
;WIDTH:0.556604
G1 X135.166 Y101.517 E.00437
;WIDTH:0.511069
G1 X135.143 Y101.417 E.00399
;WIDTH:0.465534
G1 X135.12 Y101.317 E.00361
;WIDTH:0.419999
G1 X135.12 Y87.074 E.44658
G1 X135.049 Y86.8 E.00887
;WIDTH:0.468311
G1 X134.984 Y86.663 E.00536
;WIDTH:0.516622
G1 X134.919 Y86.526 E.00597
;WIDTH:0.564933
G1 X134.854 Y86.389 E.00658
;WIDTH:0.571746
G1 X134.765 Y86.323 E.00487
G1 X134.638 Y86.296 E.00571
;WIDTH:0.53381
G1 X134.511 Y86.27 E.00529
;WIDTH:0.495873
G1 X134.384 Y86.243 E.00489
;WIDTH:0.457936
G1 X134.257 Y86.217 E.00447
;WIDTH:0.419999
G1 X129.348 Y86.217 E.15392
G1 X129.078 Y86.286 E.00874
G1 X128.806 Y86.461 E.01014
G1 X128.784 Y86.488 E.00109
M204 S1000
G1 X129.012 Y86.777 F10800
M204 S800
;TYPE:External perimeter
G1 F1200
G1 X128.882 Y87.009 E.00834
G1 X128.881 Y87.317 E.00966
;WIDTH:0.450177
G1 X128.885 Y87.664 E.01175
;WIDTH:0.480355
G1 X128.889 Y88.011 E.01262
G1 X128.976 Y88.433 E.01567
;WIDTH:0.453973
G1 X129.064 Y88.855 E.01473
;WIDTH:0.42759
G1 X129.064 Y89.569 E.02284
G1 X128.669 Y88.823 E.027
M73 P1 R20
;WIDTH:0.451498
G1 X128.392 Y87.941 E.03141
G1 X128.164 Y87.487 E.01726
;WIDTH:0.419999
G1 X126.94 Y85.197 E.08141
G1 X131.777 Y82.564 E.17267
G1 X137.765 Y87.547 E.24425
G1 X137.383 Y89.971 E.07694
G1 X137.145 Y91.654 E.05329
G1 X136.932 Y93.344 E.05341
G1 X136.744 Y95.041 E.05353
G1 X136.58 Y96.743 E.05361
G1 X136.442 Y98.453 E.05379
G1 X136.241 Y101.673 E.10116
G1 X136.14 Y104.485 E.08822
G1 X136.127 Y105.784 E.04073
G1 X136.167 Y108.278 E.07821
G1 X136.305 Y110.619 E.07353
G1 X136.412 Y111.794 E.03699
G1 X136.7 Y114.226 E.07679
G1 X137.775 Y120.972 E.21418
G1 X137.87 Y121.179 E.00714
G1 X138.041 Y121.355 E.00769
G1 X138.17 Y121.406 E.00435
G1 X144.221 Y121.406 E.18972
G1 X144.221 Y122.248 E.0264
G1 X144.221 Y123.091 E.02643
G1 X134.743 Y123.086 E.29718
G1 X134.743 Y87.074 E1.12913
G1 X134.719 Y86.983 E.00295
M73 P2 R20
M73 Q2 S21
G1 X134.567 Y86.734 E.00915
G1 X134.257 Y86.594 E.01067
G1 X129.348 Y86.594 E.15392
G1 X129.065 Y86.749 E.01012
M204 S1000
;WIPE_START
G1 F8640
G1 X129.012 Y86.777 E-.01384
G1 X128.882 Y87.009 E-.06141
G1 X128.881 Y87.317 E-.07112
;WIPE_END
G1 E-.85363 F2100
G1 Z.4 F720
G1 X134.715 Y86.094 F10800
G1 Z.2 F720
G1 E1 F2100
M204 S800
;TYPE:Solid infill
;WIDTH:0.42696
G1 F1200
G1 X133.805 Y85.183 E.04112
G1 X131.692 Y83.425 E.08777
G1 X131.57 Y83.492 E.00444
G1 X133.956 Y85.877 E.10773
G1 X133.413 Y85.877 E.01734
G1 X131.218 Y83.683 E.0991
G1 X130.867 Y83.875 E.01278
G1 X132.87 Y85.877 E.09043
G1 X132.327 Y85.878 E.01734
G1 X130.515 Y84.066 E.08183
G1 X130.164 Y84.258 E.01278
G1 X131.783 Y85.878 E.07314
G1 X131.24 Y85.878 E.01734
G1 X129.812 Y84.449 E.06451
G1 X129.46 Y84.641 E.0128
G1 X130.697 Y85.878 E.05586
G1 X130.154 Y85.878 E.01734
G1 X129.109 Y84.832 E.04721
G1 X128.757 Y85.024 E.0128
G1 X129.611 Y85.878 E.03857
G1 X129.329 Y85.878 E.00901
G1 X129.121 Y85.931 E.00685
G1 X128.405 Y85.215 E.03233
G1 X128.054 Y85.407 E.01278
G1 X128.745 Y86.097 E.03118
G1 X128.601 Y86.19 E.00547
G1 X128.463 Y86.359 E.00697
G1 X127.857 Y85.753 E.02737
M204 S1000
;WIPE_START
G1 F8640
G1 X128.463 Y86.359 E-.19789
G1 X128.601 Y86.19 E-.05038
G1 X128.745 Y86.097 E-.03958
G1 X128.054 Y85.407 E-.22548
G1 X128.405 Y85.215 E-.09238
G1 X129.121 Y85.931 E-.23381
G1 X129.329 Y85.878 E-.04956
G1 X129.611 Y85.878 E-.06511
G1 X129.471 Y85.738 E-.04581
;WIPE_END
G1 Z.4 F720
G1 X135.114 Y86.492 F10800
G1 Z.2 F720
G1 E1 F2100
M204 S800
G1 F1200
G1 X136.921 Y88.3 E.08163
G1 X136.847 Y88.769 E.01516
G1 X135.459 Y87.381 E.06268
G1 X135.459 Y87.924 E.01734
G1 X136.773 Y89.238 E.05934
G1 X136.699 Y89.707 E.01516
G1 X135.459 Y88.467 E.056
G1 X135.459 Y89.01 E.01734
G1 X136.63 Y90.181 E.05288
G1 X136.562 Y90.656 E.01532
G1 X135.459 Y89.554 E.04979
G1 X135.459 Y90.097 E.01734
G1 X136.495 Y91.132 E.04676
G1 X136.429 Y91.609 E.01538
G1 X135.459 Y90.64 E.04378
G1 X135.459 Y91.183 E.01734
G1 X136.368 Y92.091 E.04103
G1 X136.307 Y92.574 E.01555
G1 X135.459 Y91.726 E.0383
G1 X135.459 Y92.269 E.01734
G1 X136.246 Y93.056 E.03554
G1 X136.189 Y93.542 E.01563
G1 X135.459 Y92.812 E.03297
G1 X135.459 Y93.355 E.01734
G1 X136.135 Y94.031 E.03053
G1 X136.081 Y94.52 E.01571
G1 X135.459 Y93.898 E.02809
G1 X135.459 Y94.442 E.01737
G1 X136.027 Y95.009 E.02563
G1 X135.979 Y95.505 E.01591
G1 X135.459 Y94.985 E.02348
G1 X135.459 Y95.528 E.01734
G1 X135.932 Y96 E.02134
G1 X135.884 Y96.496 E.01591
G1 X135.459 Y96.071 E.01919
G1 X135.459 Y96.614 E.01734
G1 X135.841 Y96.996 E.01725
G1 X135.8 Y97.498 E.01608
G1 X135.459 Y97.157 E.0154
G1 X135.459 Y97.7 E.01734
G1 X135.76 Y98.001 E.01359
G1 X135.721 Y98.505 E.01614
G1 X135.459 Y98.243 E.01183
G1 X135.459 Y98.787 E.01737
G1 X135.689 Y99.016 E.01036
G1 X135.657 Y99.527 E.01635
G1 X135.459 Y99.33 E.00892
G1 X135.459 Y99.873 E.01734
G1 X135.625 Y100.038 E.00747
G1 X135.593 Y100.549 E.01635
G1 X135.459 Y100.416 E.00603
G1 X135.459 Y100.959 E.01734
G1 X135.721 Y101.221 E.01183
M204 S1000
;WIPE_START
G1 F8640
G1 X135.459 Y100.959 E-.08556
G1 X135.459 Y100.416 E-.12538
G1 X135.593 Y100.549 E-.04359
G1 X135.625 Y100.038 E-.11822
G1 X135.459 Y99.873 E-.05404
G1 X135.459 Y99.33 E-.12538
G1 X135.657 Y99.527 E-.06449
G1 X135.689 Y99.016 E-.11822
G1 X135.459 Y98.787 E-.07494
G1 X135.459 Y98.243 E-.12561
G1 X135.657 Y98.441 E-.06457
;WIPE_END
G1 Z.4 F720
G1 X135.29 Y110.011 F10800
G1 Z.2 F720
G1 E1 F2100
M204 S800
;WIDTH:0.421041
G1 F1200
G1 X135.568 Y110.288 E.01234
G1 X135.607 Y110.863 E.01812
G1 X135.459 Y110.715 E.00658
G1 X135.459 Y111.25 E.01682
G1 X135.661 Y111.451 E.00896
G1 X135.72 Y112.045 E.01877
G1 X135.459 Y111.784 E.01161
G1 X135.459 Y112.319 E.01682
G1 X135.792 Y112.652 E.01481
G1 X135.864 Y113.259 E.01922
G1 X135.459 Y112.854 E.01801
G1 X135.459 Y113.389 E.01682
G1 X135.936 Y113.865 E.02119
G1 X136.015 Y114.479 E.01946
G1 X135.459 Y113.923 E.02472
G1 X135.459 Y114.458 E.01682
G1 X136.116 Y115.115 E.02921
G1 X136.218 Y115.751 E.02025
G1 X135.459 Y114.993 E.03373
G1 X135.459 Y115.528 E.01682
G1 X136.319 Y116.387 E.03822
G1 X136.42 Y117.023 E.02025
G1 X135.459 Y116.062 E.04273
G1 X135.459 Y116.597 E.01682
G1 X136.522 Y117.659 E.04724
G1 X136.623 Y118.295 E.02025
G1 X135.459 Y117.132 E.05173
G1 X135.459 Y117.667 E.01682
G1 X136.724 Y118.932 E.05625
G1 X136.826 Y119.568 E.02025
G1 X135.459 Y118.201 E.06078
G1 X135.459 Y118.736 E.01682
M73 Q2 S20
G1 X137.131 Y120.408 E.07434
M204 S1000
;WIPE_START
G1 F8640
G1 X135.459 Y118.736 E-.54598
G1 X135.459 Y118.201 E-.12353
G1 X136.471 Y119.213 E-.33049
;WIPE_END
G1 Z.4 F720
G1 X142.954 Y121.953 F10800
G1 Z.2 F720
G1 E1 F2100
M204 S800
G1 F1200
G1 X143.375 Y122.374 E.01872
G1 X142.84 Y122.373 E.01682
G1 X142.589 Y122.123 E.01114
G1 X142.054 Y122.123 E.01682
G1 X142.305 Y122.373 E.01114
G1 X141.77 Y122.373 E.01682
G1 X141.52 Y122.123 E.01112
G1 X140.985 Y122.123 E.01682
G1 X141.235 Y122.373 E.01112
G1 X140.7 Y122.372 E.01682
G1 X140.45 Y122.123 E.01109
G1 X139.915 Y122.123 E.01682
G1 X140.165 Y122.372 E.01109
G1 X139.63 Y122.372 E.01682
G1 X139.381 Y122.123 E.01107
G1 X138.846 Y122.123 E.01682
G1 X139.095 Y122.372 E.01107
G1 X138.56 Y122.371 E.01682
G1 X138.311 Y122.123 E.01105
G1 X138.141 Y122.123 E.00534
G1 X137.571 Y121.896 E.01929
G1 X137.409 Y121.744 E.00698
G1 X137.237 Y121.514 E.00903
G1 X137.107 Y121.244 E.00942
G1 X137.028 Y120.84 E.01294
G1 X135.459 Y119.271 E.06976
G1 X135.459 Y119.806 E.01682
G1 X138.025 Y122.371 E.11407
G1 X137.49 Y122.371 E.01682
G1 X135.459 Y120.34 E.09031
G1 X135.459 Y120.875 E.01682
G1 X136.955 Y122.37 E.0665
G1 X136.42 Y122.37 E.01682
G1 X135.459 Y121.41 E.04271
G1 X135.459 Y121.945 E.01682
G1 X136.054 Y122.54 E.02646
M204 S1000
;WIPE_START
G1 F8640
G1 X135.459 Y121.945 E-.19429
G1 X135.459 Y121.41 E-.12353
G1 X136.42 Y122.37 E-.31365
G1 X136.955 Y122.37 E-.12353
G1 X136.205 Y121.62 E-.245
;WIPE_END
G1 Z.4 F720
G1 X140.196 Y98.178 F10800
G1 Z.2 F720
G1 E1 F2100
M204 S800
;TYPE:Perimeter
;WIDTH:0.419999
G1 F1200
G1 X140.439 Y98.043 E.00872
G1 X141.026 Y97.77 E.0203
G1 X141.622 Y97.548 E.01994
G1 X142.196 Y97.377 E.01878
G1 X142.738 Y97.257 E.01741
G1 X143.255 Y97.173 E.01642
G1 X143.894 Y97.104 E.02015
;WIDTH:0.386135
G1 X144.418 Y97.088 E.01496
;WIDTH:0.406674
G1 X145.057 Y97.134 E.01938
;WIDTH:0.419999
G1 X145.583 Y97.204 E.01664
G1 X146.109 Y97.302 E.01678
G1 X146.628 Y97.433 E.01678
G1 X147.139 Y97.597 E.01683
G1 X147.741 Y97.84 E.02035
G1 X148.278 Y98.103 E.01875
G1 X148.278 Y98.301 E.00621
G1 X148.278 Y112.373 E.44122
G1 X147.582 Y112.708 E.02422
M73 P3 R20
M73 Q3 S20
G1 X147.063 Y112.905 E.01741
G1 X146.427 Y113.097 E.02083
G1 X145.898 Y113.215 E.01699
G1 X145.248 Y113.314 E.02062
G1 X144.711 Y113.356 E.01689
G1 X144.034 Y113.361 E.02123
G1 X143.434 Y113.322 E.01885
G1 X142.932 Y113.255 E.01588
G1 X142.423 Y113.155 E.01626
G1 X141.918 Y113.023 E.01637
G1 X141.332 Y112.828 E.01936
G1 X140.866 Y112.637 E.01579
G1 X140.196 Y112.298 E.02354
G1 X140.196 Y98.238 E.44084
M204 S1000
G1 X139.819 Y97.958 F10800
M204 S800
;TYPE:External perimeter
G1 F1200
G1 X140.598 Y97.552 E.02754
G1 X141.124 Y97.327 E.01794
G1 X141.728 Y97.121 E.02001
G1 X142.298 Y96.965 E.01853
G1 X142.844 Y96.858 E.01745
G1 X143.369 Y96.783 E.01663
G1 X143.885 Y96.744 E.01622
G1 X144.436 Y96.731 E.01728
G1 X145.101 Y96.766 E.02088
G1 X145.651 Y96.833 E.01737
G1 X146.2 Y96.936 E.01751
G1 X146.742 Y97.073 E.01753
G1 X147.275 Y97.245 E.01756
G1 X147.899 Y97.498 E.02111
G1 X148.655 Y97.879 E.02654
G1 X148.655 Y98.301 E.01323
G1 X148.655 Y112.598 E.44827
G1 X148.258 Y112.813 E.01416
G1 X147.761 Y113.043 E.01717
G1 X147.245 Y113.243 E.01735
G1 X146.608 Y113.441 E.02092
G1 X146.069 Y113.569 E.01737
G1 X145.411 Y113.677 E.02091
G1 X144.86 Y113.73 E.01736
G1 X144.194 Y113.746 E.02089
G1 X143.529 Y113.713 E.02088
G1 X142.979 Y113.647 E.01737
G1 X142.433 Y113.546 E.01741
G1 X141.895 Y113.412 E.01738
G1 X141.261 Y113.206 E.0209
G1 X140.747 Y112.999 E.01737
G1 X140.271 Y112.771 E.01655
G1 X139.819 Y112.519 E.01623
G1 X139.819 Y98.018 E.45467
M204 S1000
;WIPE_START
G1 F8640
G1 X139.819 Y97.958 E-.01385
G1 X140.598 Y97.552 E-.20284
G1 X141.124 Y97.327 E-.1321
G1 X141.728 Y97.121 E-.14735
G1 X142.298 Y96.965 E-.13645
G1 X142.844 Y96.858 E-.12847
G1 X143.369 Y96.783 E-.12245
G1 X143.872 Y96.745 E-.11649
;WIPE_END
G1 Z.4 F720
G1 X144.733 Y97.456 F10800
G1 Z.2 F720
G1 E1 F2100
M204 S800
;TYPE:Perimeter
;WIDTH:0.395342
G1 F1200
G1 X144.802 Y97.463 E.00203
;WIDTH:0.419999
G1 X145.231 Y97.591 E.01404
G1 X145.621 Y97.812 E.01405
G1 X145.96 Y98.105 E.01405
G1 X146.288 Y98.556 E.01749
G1 X146.466 Y98.95 E.01356
G1 X146.557 Y99.29 E.01104
G1 X146.591 Y99.737 E.01406
G1 X146.536 Y100.182 E.01406
G1 X146.395 Y100.607 E.01404
G1 X146.175 Y100.997 E.01404
G1 X145.882 Y101.337 E.01407
G1 X145.529 Y101.613 E.01405
G1 X145.129 Y101.814 E.01404
G1 X144.697 Y101.934 E.01406
G1 X144.25 Y101.967 E.01405
G1 X143.805 Y101.912 E.01406
G1 X143.379 Y101.772 E.01406
