; generated by PrusaSlicer 2.7.0+win64 on 2024-02-19 at 16:31:37 UTC


;
;
; 

; external perimeters extrusion width = 0.45mm
; perimeters extrusion width = 0.45mm
; infill extrusion width = 0.45mm
; solid infill extrusion width = 0.45mm
; top infill extrusion width = 0.40mm
; first layer extrusion width = 0.42mm

M73 P0 R15
M73 Q0 S15
M201 X1000 Y1000 Z200 E5000 ; sets maximum accelerations, mm/sec^2
M203 X200 Y200 Z12 E120 ; sets maximum feedrates, mm / sec
M204 S1250 T1250 ; sets acceleration (S) and retract acceleration (R), mm/sec^2
M205 X8.00 Y8.00 Z0.40 E4.50 ; sets the jerk limits, mm/sec
M205 S0 T0 ; sets the minimum extruding and travel feed rate, mm/sec

; printing object clips_module_v04.stl id:0 copy 0
; stop printing object clips_module_v04.stl id:0 copy 0

;TYPE:Custom
M862.3 P "MK3S" ; printer model check
M862.1 P0.4 ; nozzle diameter check
M115 U3.13.2 ; tell printer latest fw version
G90 ; use absolute coordinates
M83 ; extruder relative mode
M104 S230 ; set extruder temp
M140 S85 ; set bed temp
M190 S85 ; wait for bed temp
M109 S230 ; wait for extruder temp
G28 W ; home all without mesh bed level
G80 X110.759 Y80.6026 W28.4819 H48.7956 ; mesh bed levelling

G1 Z0.2 F720
G1 Y-3 F1000 ; go outside print area
G92 E0
G1 X60 E9 F1000 ; intro line
G1 X100 E12.5 F1000 ; intro line

G92 E0
M221 S95

; Don't change E values below. Excessive value can damage the printer.

M907 E538 ; set extruder motor current
G21 ; set units to millimeters
G90 ; use absolute coordinates
M83 ; use relative distances for extrusion
M900 K0.08 ; Filament gcode LA 1.5
M900 K45 ; Filament gcode LA 1.0

M107
;LAYER_CHANGE
;Z:0.2
;HEIGHT:0.2
;BEFORE_LAYER_CHANGE
G92 E0.0
;0.2


G1 E-1 F2100
G1 Z.2 F720
;AFTER_LAYER_CHANGE
;0.2
G1 X111.678 Y84.61 F10800
G1 Z.2 F720
G1 E1 F2100
M204 S800
;TYPE:Skirt/Brim
;WIDTH:0.42
G1 F1200
G1 X112.193 Y84.144 E.02178
G1 X117.737 Y81.088 E.19849
G1 X118.454 Y80.85 E.02369
G1 X119.146 Y80.792 E.02177
G1 X120.014 Y80.942 E.02762
G1 X120.855 Y81.37 E.02959
G1 X127.16 Y86.613 E.25711
G1 X138.182 Y97.481 E.48533
G1 X138.719 Y98.215 E.02852
G1 X138.904 Y98.66 E.01511
G1 X139.044 Y99.377 E.02291
G1 X139.011 Y100.121 E.02335
G1 X134.618 Y126.862 E.84968
M73 Q1 S15
G1 X134.384 Y127.559 E.02305
M73 P1 R14
G1 X133.977 Y128.187 E.02346
G1 X133.23 Y128.815 E.0306
G1 X132.688 Y129.062 E.01868
G1 X131.782 Y129.21 E.02878
G1 X121.43 Y129.189 E.32458
G1 X120.55 Y128.941 E.02867
G1 X119.787 Y128.435 E.02871
G1 X119.323 Y127.895 E.02232
G1 X118.936 Y127.053 E.02906
G1 X111.003 Y87.129 E1.27626
G1 X110.947 Y86.518 E.01924
G1 X111.04 Y85.822 E.02202
G1 X111.288 Y85.177 E.02167
G1 X111.644 Y84.659 E.01971
M204 S1000
G1 X111.952 Y84.871 F10800
M204 S800
G1 F1200
G1 X111.962 Y84.857 E.00054
G1 X112.412 Y84.451 E.019
G1 X117.899 Y81.429 E.19641
G1 X118.526 Y81.22 E.02072
G1 X119.134 Y81.169 E.01913
G1 X119.898 Y81.301 E.02431
G1 X120.646 Y81.684 E.02635
G1 X126.918 Y86.903 E.25583
G1 X137.917 Y97.749 E.48433
G1 X138.383 Y98.386 E.02475
G1 X138.546 Y98.778 E.01331
M73 Q1 S14
G1 X138.668 Y99.408 E.02012
G1 X138.638 Y100.06 E.02046
G1 X134.252 Y126.772 E.84875
G1 X134.043 Y127.397 E.02066
G1 X133.639 Y128 E.02276
G1 X133.146 Y128.424 E.02039
G1 X132.565 Y128.705 E.02024
G1 X131.782 Y128.833 E.02488
G1 X121.474 Y128.814 E.3232
G1 X120.708 Y128.598 E.02495
G1 X120.042 Y128.158 E.02503
G1 X119.636 Y127.685 E.01954
G1 X119.299 Y126.95 E.02535
G1 X111.373 Y87.055 E1.27533
G1 X111.324 Y86.524 E.01672
M73 P2 R14
M73 Q2 S14
G1 X111.405 Y85.914 E.01929
G1 X111.622 Y85.352 E.01889
G1 X111.918 Y84.921 E.01639
M204 S1000
; printing object clips_module_v04.stl id:0 copy 0
;WIPE_START
G1 F8640
G1 X111.952 Y84.871 E-.01396
G1 X111.962 Y84.857 E-.00397
G1 X112.412 Y84.451 E-.13995
G1 X115.607 Y82.691 E-.84212
;WIPE_END
G1 Z.4 F720
G1 X115.98 Y88.013 F10800
G1 Z.2 F720
G1 E1 F2100
M204 S800
;TYPE:Perimeter
;WIDTH:0.419999
G1 F1200
G1 X115.863 Y88.163 E.00596
G1 X115.766 Y88.534 E.01202
G1 X115.776 Y88.75 E.00678
G1 X114.735 Y86.804 E.0692
G1 X119.004 Y84.476 E.15246
G1 X121.855 Y86.847 E.11626
;WIDTH:0.457003
G1 X122.027 Y87.014 E.00825
;WIDTH:0.494007
G1 X122.199 Y87.182 E.00902
;WIDTH:0.533598
G1 X122.412 Y87.384 E.01198
;WIDTH:0.573189
G1 X122.624 Y87.587 E.01294
G1 X122.718 Y87.639 E.00474
;WIDTH:0.532488
G1 X122.812 Y87.69 E.00435
;WIDTH:0.491786
G1 X123.061 Y87.874 E.01156
;WIDTH:0.455893
G1 X123.31 Y88.058 E.01063
;WIDTH:0.419999
G1 X124.628 Y89.154 E.05375
G1 X124.279 Y91.361 E.07006
G1 X124.041 Y93.049 E.05345
G1 X123.826 Y94.752 E.05382
G1 X123.638 Y96.444 E.05338
G1 X123.474 Y98.159 E.05402
G1 X123.336 Y99.862 E.05357
G1 X123.163 Y102.63 E.08696
;WIDTH:0.464696
G1 X123.133 Y102.747 E.00424
;WIDTH:0.509392
G1 X123.103 Y102.864 E.00468
;WIDTH:0.554088
G1 X123.074 Y102.981 E.00512
;WIDTH:0.598784
G1 X123.044 Y103.098 E.00558
G1 X123.006 Y104.543 E.06681
;WIDTH:0.573625
G1 X122.969 Y105.988 E.06379
;WIDTH:0.548466
G1 X122.968 Y106.004 E.00067
;WIDTH:0.548216
G1 X122.959 Y107.381 E.05786
;WIDTH:0.541953
G1 X122.959 Y107.396 E.00062
;WIDTH:0.561513
G1 X122.988 Y110.106 E.11687
;WIDTH:0.561883
G1 X122.989 Y110.124 E.00078
;WIDTH:0.587735
G1 X123.027 Y111.322 E.0543
;WIDTH:0.601208
G1 X123.047 Y111.759 E.02031
G1 X123.076 Y111.857 E.00474
;WIDTH:0.555906
G1 X123.105 Y111.956 E.0044
;WIDTH:0.510604
G1 X123.133 Y112.054 E.00396
;WIDTH:0.465302
G1 X123.162 Y112.152 E.00359
;WIDTH:0.419999
G1 X123.199 Y112.742 E.01854
G1 X123.417 Y115.183 E.07684
G1 X123.593 Y116.761 E.04978
G1 X124.242 Y121.197 E.14057
G1 X124.697 Y124.063 E.09099
G1 X124.949 Y124.467 E.01493
G1 X125.416 Y124.713 E.01655
G1 X131.107 Y124.714 E.17844
G1 X131.107 Y125.173 E.01439
G1 X131.107 Y125.633 E.01442
G1 X122.399 Y125.633 E.27303
G1 X122.399 Y112.176 E.42193
;WIDTH:0.465302
G1 X122.422 Y112.076 E.0036
;WIDTH:0.510604
G1 X122.444 Y111.976 E.00398
;WIDTH:0.555906
G1 X122.467 Y111.876 E.00438
;WIDTH:0.601208
G1 X122.49 Y111.776 E.00476
G1 X122.483 Y111.333 E.02057
;WIDTH:0.587735
G1 X122.47 Y110.135 E.05427
;WIDTH:0.561883
G1 X122.47 Y110.109 E.00112
;WIDTH:0.561513
G1 X122.46 Y107.387 E.11738
;WIDTH:0.548216
G1 X122.463 Y106.002 E.05819
;WIDTH:0.548466
G1 X122.463 Y105.979 E.00097
;WIDTH:0.573625
G1 X122.476 Y104.534 E.06377
;WIDTH:0.598784
G1 X122.488 Y103.088 E.06684
G1 X122.466 Y102.968 E.00564
;WIDTH:0.554088
G1 X122.444 Y102.847 E.00523
;WIDTH:0.509392
G1 X122.421 Y102.727 E.00474
;WIDTH:0.464696
G1 X122.399 Y102.607 E.00428
;WIDTH:0.419999
G1 X122.399 Y88.485 E.44278
;WIDTH:0.455893
G1 X122.362 Y88.312 E.00607
;WIDTH:0.491786
G1 X122.325 Y88.139 E.0066
;WIDTH:0.532488
G1 X122.282 Y88.041 E.00436
;WIDTH:0.573189
G1 X122.238 Y87.943 E.00474
G1 X122.029 Y87.759 E.01228
;WIDTH:0.564205
G1 X121.873 Y87.727 E.0069
;WIDTH:0.516137
G1 X121.716 Y87.696 E.0063
;WIDTH:0.468068
G1 X121.56 Y87.664 E.00563
;WIDTH:0.419999
G1 X116.586 Y87.665 E.15596
G1 X116.315 Y87.734 E.00877
G1 X116.032 Y87.946 E.01109
G1 X116.017 Y87.966 E.00078
M204 S1000
G1 X116.264 Y88.243 F10800
M204 S800
;TYPE:External perimeter
G1 F1200
G1 X116.158 Y88.428 E.00669
G1 X116.155 Y88.761 E.01044
;WIDTH:0.449745
G1 X116.159 Y89.104 E.0116
;WIDTH:0.47949
G1 X116.163 Y89.447 E.01245
G1 X116.25 Y89.869 E.01564
;WIDTH:0.453265
G1 X116.337 Y90.29 E.01467
;WIDTH:0.427039
G1 X116.337 Y91.002 E.02274
G1 X115.944 Y90.26 E.02682
;WIDTH:0.451798
G1 X115.67 Y89.381 E.0313
G1 X115.442 Y88.929 E.01721
;WIDTH:0.419999
G1 X114.226 Y86.652 E.08094
G1 X119.049 Y84.022 E.17224
G1 X125.034 Y89.001 E.2441
G1 X124.652 Y91.42 E.07679
G1 X124.414 Y93.102 E.05326
G1 X124.201 Y94.791 E.05338
G1 X124.013 Y96.486 E.05347
G1 X123.85 Y98.187 E.05358
G1 X123.711 Y99.896 E.05376
G1 X123.51 Y103.114 E.10109
G1 X123.41 Y106.003 E.09064
M73 Q3 S14
G1 X123.397 Y107.387 E.0434
M73 P3 R14
G1 X123.436 Y110.099 E.08504
G1 X123.488 Y111.302 E.03775
G1 X123.574 Y112.708 E.04417
G1 X123.792 Y115.15 E.07687
G1 X123.969 Y116.725 E.04969
G1 X124.615 Y121.143 E.14
G1 X125.045 Y123.906 E.08767
G1 X125.261 Y124.254 E.01284
G1 X125.416 Y124.336 E.0055
G1 X131.484 Y124.337 E.19026
G1 X131.484 Y125.173 E.02621
G1 X131.484 Y126.01 E.02624
G1 X122.022 Y126.01 E.29667
G1 X122.022 Y88.485 E1.17657
G1 X121.988 Y88.376 E.00358
G1 X121.833 Y88.167 E.00816
G1 X121.56 Y88.041 E.00943
G1 X116.586 Y88.042 E.15596
G1 X116.496 Y88.065 E.00291
G1 X116.312 Y88.207 E.00729
M204 S1000
;WIPE_START
G1 F8640
G1 X116.264 Y88.243 E-.01385
G1 X116.158 Y88.428 E-.04923
G1 X116.155 Y88.761 E-.07689
;WIPE_END
G1 E-.86003 F2100
G1 Z.4 F720
G1 X120.225 Y85.712 F10800
G1 Z.2 F720
G1 E1 F2100
M204 S800
;TYPE:Solid infill
;WIDTH:0.442364
G1 F1200
G1 X121.851 Y87.352 E.07671
G1 X121.567 Y87.325 E.00948
G1 X121.273 Y87.325 E.00976
G1 X118.879 Y84.931 E.11245
G1 X118.513 Y85.13 E.01384
G1 X120.708 Y87.325 E.1031
G1 X120.144 Y87.325 E.01873
G1 X118.148 Y85.329 E.09376
G1 X117.782 Y85.529 E.01385
G1 X119.579 Y87.325 E.08438
G1 X119.014 Y87.325 E.01877
G1 X117.417 Y85.728 E.07501
G1 X117.051 Y85.927 E.01384
G1 X118.449 Y87.325 E.06567
G1 X117.884 Y87.325 E.01877
G1 X116.686 Y86.127 E.05627
G1 X116.32 Y86.326 E.01384
G1 X117.32 Y87.326 E.04697
G1 X116.755 Y87.326 E.01877
G1 X115.955 Y86.526 E.03758
G1 X115.589 Y86.725 E.01384
G1 X116.267 Y87.402 E.03182
G1 X116.165 Y87.428 E.0035
G1 X115.91 Y87.611 E.01042
G1 X115.099 Y86.799 E.03812
M204 S1000
;WIPE_START
G1 F8640
G1 X115.91 Y87.611 E-.26499
G1 X116.165 Y87.428 E-.07247
G1 X116.267 Y87.402 E-.02431
G1 X115.589 Y86.725 E-.22123
G1 X115.955 Y86.526 E-.09619
G1 X116.755 Y87.326 E-.26124
G1 X117.013 Y87.326 E-.05957
;WIPE_END
G1 Z.4 F720
G1 X122.483 Y88.039 F10800
G1 Z.2 F720
G1 E1 F2100
M204 S800
;WIDTH:0.422708
G1 F1200
G1 X124.191 Y89.746 E.07626
G1 X124.117 Y90.21 E.01484
G1 X122.738 Y88.831 E.06159
G1 X122.738 Y89.368 E.01696
G1 X124.044 Y90.674 E.05833
G1 X123.971 Y91.138 E.01483
G1 X122.738 Y89.905 E.05507
G1 X122.738 Y90.442 E.01696
G1 X123.902 Y91.606 E.05198
G1 X123.835 Y92.077 E.01502
G1 X122.738 Y90.98 E.04899
G1 X122.738 Y91.517 E.01696
G1 X123.769 Y92.547 E.04602
G1 X123.702 Y93.018 E.01502
G1 X122.738 Y92.054 E.04305
G1 X122.738 Y92.591 E.01696
G1 X123.642 Y93.495 E.04037
G1 X123.582 Y93.972 E.01518
G1 X122.738 Y93.128 E.03769
G1 X122.738 Y93.665 E.01696
G1 X123.522 Y94.449 E.03501
G1 X123.465 Y94.929 E.01526
G1 X122.738 Y94.202 E.03247
G1 X122.738 Y94.739 E.01696
G1 X123.411 Y95.412 E.03006
G1 X123.358 Y95.896 E.01538
G1 X122.738 Y95.276 E.02769
G1 X122.738 Y95.813 E.01696
G1 X123.304 Y96.379 E.02528
G1 X123.257 Y96.869 E.01554
G1 X122.738 Y96.351 E.02316
G1 X122.738 Y96.888 E.01696
G1 X123.21 Y97.359 E.02106
G1 X123.163 Y97.849 E.01554
G1 X122.738 Y97.425 E.01896
G1 X122.738 Y97.962 E.01696
G1 X123.118 Y98.342 E.01697
G1 X123.078 Y98.839 E.01575
G1 X122.738 Y98.499 E.01518
G1 X122.738 Y99.036 E.01696
G1 X123.038 Y99.336 E.0134
G1 X122.998 Y99.833 E.01575
G1 X122.738 Y99.573 E.01161
G1 X122.738 Y100.11 E.01696
G1 X122.966 Y100.338 E.01018
G1 X122.934 Y100.843 E.01598
G1 X122.738 Y100.647 E.00875
G1 X122.738 Y101.184 E.01696
G1 X122.903 Y101.349 E.00737
G1 X122.871 Y101.854 E.01598
G1 X122.738 Y101.722 E.00592
G1 X122.738 Y102.259 E.01696
G1 X122.999 Y102.52 E.01166
M204 S1000
;WIPE_START
G1 F8640
G1 X122.738 Y102.259 E-.08523
G1 X122.738 Y101.722 E-.12399
G1 X122.871 Y101.854 E-.04327
M73 Q4 S14
G1 X122.903 Y101.349 E-.11684
G1 X122.738 Y101.184 E-.05388
G1 X122.738 Y100.647 E-.12399
M73 P4 R14
G1 X122.934 Y100.843 E-.064
G1 X122.966 Y100.338 E-.11684
G1 X122.738 Y100.11 E-.07445
G1 X122.738 Y99.573 E-.12399
G1 X122.963 Y99.798 E-.07352
;WIPE_END
G1 Z.4 F720
G1 X122.569 Y112.301 F10800
G1 Z.2 F720
G1 E1 F2100
M204 S800
;WIDTH:0.423895
G1 F1200
G1 X122.849 Y112.581 E.01254
G1 X122.896 Y113.167 E.01862
G1 X122.738 Y113.01 E.00706
G1 X122.738 Y113.548 E.01704
G1 X122.949 Y113.759 E.00945
G1 X123.002 Y114.351 E.01883
G1 X122.738 Y114.087 E.01183
G1 X122.738 Y114.626 E.01707
G1 X123.055 Y114.942 E.01418
G1 X123.116 Y115.542 E.0191
G1 X122.738 Y115.165 E.01691
G1 X122.738 Y115.704 E.01707
G1 X123.184 Y116.149 E.01996
G1 X123.251 Y116.755 E.01931
G1 X122.738 Y116.242 E.02298
G1 X122.738 Y116.781 E.01707
G1 X123.341 Y117.384 E.02701
G1 X123.433 Y118.015 E.0202
G1 X122.738 Y117.32 E.03114
G1 X122.738 Y117.859 E.01707
G1 X123.526 Y118.646 E.03528
G1 X123.618 Y119.277 E.0202
G1 X122.738 Y118.397 E.03942
G1 X122.738 Y118.936 E.01707
G1 X123.71 Y119.908 E.04355
G1 X123.803 Y120.539 E.0202
G1 X122.738 Y119.475 E.04769
G1 X122.738 Y120.014 E.01707
G1 X123.895 Y121.171 E.05183
G1 X123.993 Y121.808 E.02042
G1 X122.738 Y120.553 E.05622
G1 X122.738 Y121.091 E.01704
G1 X124.093 Y122.446 E.0607
G1 X124.192 Y123.084 E.02045
G1 X122.738 Y121.63 E.06514
G1 X122.738 Y122.169 E.01707
G1 X124.494 Y123.925 E.07867
M204 S1000
;WIPE_START
G1 F8640
G1 X122.738 Y122.169 E-.57341
G1 X122.738 Y121.63 E-.12446
G1 X123.663 Y122.555 E-.30213
;WIPE_END
G1 Z.4 F720
G1 X130.302 Y124.883 F10800
G1 Z.2 F720
G1 E1 F2100
M204 S800
G1 F1200
G1 X130.712 Y125.294 E.01839
G1 X130.173 Y125.294 E.01707
G1 X129.933 Y125.053 E.01077
G1 X129.394 Y125.053 E.01707
G1 X129.635 Y125.294 E.0108
G1 X129.096 Y125.294 E.01707
G1 X128.855 Y125.053 E.0108
G1 X128.316 Y125.053 E.01707
G1 X128.557 Y125.294 E.0108
G1 X128.018 Y125.294 E.01707
G1 X127.777 Y125.053 E.0108
G1 X127.239 Y125.053 E.01704
G1 X127.479 Y125.294 E.01077
G1 X126.941 Y125.294 E.01704
G1 X126.7 Y125.053 E.0108
G1 X126.161 Y125.053 E.01707
G1 X126.402 Y125.294 E.0108
G1 X125.863 Y125.294 E.01707
G1 X125.453 Y124.883 E.01839
M204 S1000
G1 X125.494 Y125.463 F10800
M204 S800
G1 F1200
G1 X122.738 Y122.708 E.12345
G1 X122.738 Y123.246 E.01704
G1 X124.786 Y125.294 E.09175
G1 X124.247 Y125.294 E.01707
G1 X122.738 Y123.785 E.0676
G1 X122.738 Y124.324 E.01707
G1 X123.708 Y125.294 E.04346
G1 X123.169 Y125.294 E.01707
G1 X122.569 Y124.693 E.0269
M204 S1000
;WIPE_START
G1 F8640
G1 X123.169 Y125.294 E-.19609
G1 X123.708 Y125.294 E-.12446
G1 X122.738 Y124.324 E-.31675
G1 X122.738 Y123.785 E-.12446
G1 X123.468 Y124.514 E-.23824
;WIPE_END
G1 Z.4 F720
G1 X129.329 Y100.194 F10800
G1 Z.2 F720
G1 E1 F2100
M204 S800
;TYPE:Perimeter
;WIDTH:0.419999
G1 F1200
G1 X129.197 Y100.595 E.01324
G1 X129.139 Y101.069 E.01497
G1 X129.178 Y101.548 E.01507
G1 X129.264 Y101.875 E.0106
G1 X129.117 Y101.694 E.00731
G1 X128.789 Y101.515 E.01172
G1 X128.096 Y101.399 E.02203
G1 X127.931 Y101.437 E.00531
G1 X127.619 Y99.998 E.04617
G1 X128.003 Y99.789 E.01371
G1 X128.542 Y99.56 E.01836
G1 X129.137 Y99.356 E.01972
G1 X129.672 Y99.213 E.01736
G1 X130.224 Y99.099 E.01767
G1 X129.891 Y99.365 E.01336
G1 X129.658 Y99.631 E.01109
G1 X129.348 Y100.138 E.01863
M204 S1000
;WIPE_START
G1 F8640
G1 X129.329 Y100.194 E-.01365
G1 X129.197 Y100.595 E-.09748
G1 X129.139 Y101.069 E-.11026
G1 X129.178 Y101.548 E-.11097
G1 X129.264 Y101.875 E-.07807
G1 X129.117 Y101.694 E-.05384
G1 X128.789 Y101.515 E-.08628
G1 X128.096 Y101.399 E-.16224
G1 X127.931 Y101.437 E-.0391
G1 X127.704 Y100.387 E-.24811
;WIPE_END
G1 Z.4 F720
G1 X130.687 Y103.445 F10800
G1 Z.2 F720
G1 E1 F2100
M204 S800
;WIDTH:0.522346
G1 F1200
G1 X130.965 Y103.482 E.01118
;WIDTH:0.488231
G1 X131.244 Y103.518 E.01042
;WIDTH:0.454115
G1 X131.522 Y103.555 E.00959
;WIDTH:0.419999
G1 X131.861 Y103.533 E.01065
;WIDTH:0.467313
G1 X132.359 Y103.445 E.01785
G1 X132.717 Y103.265 E.01414
;WIDTH:0.423057
G1 X133.251 Y102.874 E.02092
;WIDTH:0.41956
G1 X133.56 Y102.529 E.0145
;WIDTH:0.419999
G1 X133.8 Y102.103 E.01533
G1 X133.944 Y101.659 E.01464
G1 X134.005 Y101.164 E.01564
G1 X133.97 Y100.71 E.01428
G1 X133.842 Y100.247 E.01506
G1 X133.626 Y99.818 E.01506
G1 X133.328 Y99.438 E.01514
G1 X132.927 Y99.105 E.01634
G1 X133.24 Y99.156 E.00994
G1 X133.794 Y99.289 E.01786
G1 X134.359 Y99.467 E.01857
G1 X134.868 Y99.672 E.01721
G1 X135.399 Y99.92 E.01838
G1 X135.35 Y100.15 E.00737
G1 X135.095 Y101.346 E.03834
G1 X134.926 Y102.03 E.02209
G1 X133.48 Y103.156 E.05746
;WIDTH:0.406955
G1 X133.072 Y103.476 E.0157
;WIDTH:0.434264
G1 X132.831 Y103.643 E.00954
;WIDTH:0.461645
G1 X132.377 Y103.959 E.01926
;WIDTH:0.435821
G1 X132.249 Y104.181 E.00837
;WIDTH:0.419999
G1 X131.969 Y104.449 E.01215
G1 X131.871 Y104.488 E.00331
