; generated by PrusaSlicer 2.6.0+win64 on 2023-12-07 at 09:22:49 UTC


;
;
; 

; external perimeters extrusion width = 0.45mm
; perimeters extrusion width = 0.45mm
; infill extrusion width = 0.45mm
; solid infill extrusion width = 0.45mm
; top infill extrusion width = 0.40mm
; first layer extrusion width = 0.42mm

M73 P0 R22
M73 Q0 S22
M201 X1000 Y1000 Z200 E5000 ; sets maximum accelerations, mm/sec^2
M203 X200 Y200 Z12 E120 ; sets maximum feedrates, mm / sec
M204 S1250 T1250 ; sets acceleration (S) and retract acceleration (R), mm/sec^2
M205 X8.00 Y8.00 Z0.40 E4.50 ; sets the jerk limits, mm/sec
M205 S0 T0 ; sets the minimum extruding and travel feed rate, mm/sec
;TYPE:Custom
M862.3 P "MK3S" ; printer model check
M862.1 P0.4 ; nozzle diameter check
M115 U3.12.2 ; tell printer latest fw version
G90 ; use absolute coordinates
M83 ; extruder relative mode
M104 S240 ; set extruder temp
M140 S85 ; set bed temp
M190 S85 ; wait for bed temp
M109 S240 ; wait for extruder temp
G28 W ; home all without mesh bed level
G80 ; mesh bed leveling

G1 Z0.2 F720
G1 Y-3 F1000 ; go outside print area
G92 E0
G1 X60 E9 F1000 ; intro line
G1 X100 E12.5 F1000 ; intro line

G92 E0
M221 S95

; Don't change E values below. Excessive value can damage the printer.

M907 E538 ; set extruder motor current
G21 ; set units to millimeters
G90 ; use absolute coordinates
M83 ; use relative distances for extrusion
M900 K0.08 ; Filament gcode LA 1.5
M900 K45 ; Filament gcode LA 1.0
M107
;LAYER_CHANGE
;Z:0.2
;HEIGHT:0.2
;BEFORE_LAYER_CHANGE
G92 E0.0
;0.2


G1 E-1 F2100
G1 Z.2 F720
;AFTER_LAYER_CHANGE
;0.2
G1 Z.4
G1 X94.466 Y83.372 F10800
G1 Z.2 F720
G1 E1 F2100
M204 S800
;TYPE:Skirt/Brim
;WIDTH:0.42
G1 F1200
G1 X95.512 Y82.496 E.04278
G1 X96.452 Y82.302 E.03009
G1 X154.364 Y82.302 E1.81579
G1 X155.671 Y82.694 E.04278
G1 X156.547 Y83.74 E.04278
G1 X156.741 Y84.679 E.03006
G1 X156.741 Y90.636 E.18678
G1 X156.137 Y92.219 E.05312
M73 P0 R21
G1 X146.364 Y103.171 E.46023
G1 X145.928 Y103.553 E.01818
G1 X136.855 Y109.733 E.3442
G1 X135.517 Y110.145 E.0439
G1 X115.298 Y110.145 E.63395
G1 X113.96 Y109.733 E.0439
G1 X104.887 Y103.553 E.3442
G1 X104.451 Y103.171 E.01818
M73 P1 R21
M73 Q1 S22
G1 X94.678 Y92.219 E.46023
G1 X94.074 Y90.636 E.05312
G1 X94.074 Y84.679 E.18678
G1 X94.449 Y83.43 E.04089
M204 S1000
; printing object clips_alim_v04.stl id:0 copy 0
;WIPE_START
G1 F8640
G1 X95.512 Y82.496 E-.32674
G1 X96.452 Y82.302 E-.22162
G1 X98.408 Y82.302 E-.45164
;WIPE_END
G1 Z.4 F720
G1 X151.558 Y86.813 F10800
G1 Z.2 F720
G1 E1 F2100
M204 S800
;TYPE:Perimeter
;WIDTH:0.419999
G1 F1200
G1 X151.465 Y86.556 E.00857
G1 X151.016 Y86.35 E.01549
G1 X150.751 Y86.356 E.00831
G1 X152.99 Y85.466 E.07555
G1 X153.576 Y85.466 E.01837
G1 X153.576 Y85.958 E.01543
G1 X153.576 Y90.288 E.13576
G1 X147.571 Y95.757 E.25467
G1 X147.057 Y96.252 E.02237
G1 X145.015 Y99.457 E.11915
G1 X144.584 Y100.172 E.02618
;WIDTH:0.379394
G1 X144.174 Y100.829 E.02167
;WIDTH:0.364417
G1 X143.807 Y100.829 E.00981
G1 X143.946 Y100.588 E.00744
;WIDTH:0.379394
G1 X144.296 Y99.997 E.01922
;WIDTH:0.420097
G1 X144.314 Y99.442 E.01742
G1 X141.151 Y93.963 E.19841
G1 X140.661 Y93.68 E.01775
G1 X134.334 Y93.68 E.19843
;WIDTH:0.425812
G1 X134.236 Y93.686 E.00313
G1 X133.845 Y93.963 E.01526
;WIDTH:0.419999
G1 X130.641 Y99.527 E.20131
G1 X130.616 Y99.83 E.00953
G1 X130.681 Y100.007 E.00591
G1 X133.845 Y105.486 E.19838
G1 X134.034 Y105.682 E.00854
G1 X134.335 Y105.769 E.00982
G1 X136.379 Y105.762 E.06409
G1 X136.726 Y105.737 E.01091
G1 X136.456 Y105.935 E.0105
G1 X135.227 Y106.981 E.0506
G1 X132.279 Y106.981 E.09243
G1 X130.97 Y105.717 E.05705
G1 X130.859 Y105.634 E.00435
G1 X130.577 Y105.558 E.00916
G1 X129.942 Y105.558 E.01991
;WIDTH:0.462632
G1 X129.695 Y105.537 E.00865
;WIDTH:0.505265
G1 X129.448 Y105.516 E.00953
;WIDTH:0.547898
G1 X129.202 Y105.494 E.01037
G1 X128.563 Y105.511 E.02684
;WIDTH:0.515464
G1 X122.252 Y105.511 E.24797
;WIDTH:0.518019
G1 X122.159 Y105.509 E.00367
;WIDTH:0.547942
G1 X121.613 Y105.494 E.02294
G1 X121.497 Y105.513 E.00494
;WIDTH:0.510486
G1 X121.38 Y105.532 E.00461
;WIDTH:0.473029
G1 X121.127 Y105.545 E.00906
;WIDTH:0.446514
G1 X120.873 Y105.558 E.00854
;WIDTH:0.420097
G1 X120.238 Y105.558 E.01992
G1 X120.038 Y105.595 E.00638
G1 X119.845 Y105.717 E.00716
G1 X118.536 Y106.981 E.05707
G1 X115.588 Y106.981 E.09246
G1 X114.369 Y105.944 E.05019
G1 X114.089 Y105.737 E.01092
G1 X114.436 Y105.762 E.01091
G1 X116.479 Y105.769 E.06407
G1 X116.781 Y105.682 E.00986
G1 X116.97 Y105.486 E.00854
G1 X120.134 Y100.007 E.19843
G1 X120.199 Y99.831 E.00588
G1 X120.206 Y99.665 E.00521
G1 X120.134 Y99.442 E.00735
G1 X116.97 Y93.963 E.19843
G1 X116.481 Y93.68 E.01772
G1 X110.154 Y93.68 E.19843
;WIDTH:0.425812
G1 X110.056 Y93.686 E.00313
G1 X109.664 Y93.963 E.01528
;WIDTH:0.419999
G1 X106.501 Y99.442 E.19836
G1 X106.519 Y99.997 E.01741
;WIDTH:0.379395
G1 X107.008 Y100.829 E.027
;WIDTH:0.364418
G1 X106.641 Y100.829 E.00981
G1 X106.594 Y100.755 E.00234
;WIDTH:0.379395
G1 X106.231 Y100.172 E.01921
;WIDTH:0.419999
G1 X105.8 Y99.457 E.02618
G1 X104.129 Y96.834 E.09751
G1 X103.662 Y96.138 E.02628
G1 X97.239 Y90.288 E.2724
G1 X97.239 Y85.466 E.15119
G1 X97.824 Y85.466 E.01834
G1 X100.061 Y86.356 E.07549
G1 X99.799 Y86.35 E.00822
G1 X99.35 Y86.556 E.01549
G1 X99.221 Y86.915 E.01196
G1 X99.22 Y87.688 E.02424
G1 X99.275 Y87.93 E.00778
G1 X99.411 Y88.111 E.0071
G1 X105.111 Y93.161 E.23877
G1 X105.315 Y93.276 E.00734
G1 X105.486 Y93.303 E.00543
G1 X118.223 Y93.303 E.39936
G1 X118.985 Y93.321 E.0239
G1 X119.262 Y94.572 E.04017
G1 X119.422 Y95.087 E.01691
G1 X119.769 Y96.08 E.03298
G1 X120.173 Y97.078 E.03376
G1 X120.625 Y98.05 E.03361
G1 X121.301 Y99.246 E.04308
M73 Q1 S21
G1 X121.72 Y99.827 E.02246
G1 X121.768 Y100.041 E.00688
G1 X121.699 Y100.205 E.00558
G1 X120.472 Y101.539 E.05683
G1 X120.368 Y101.7 E.00601
G1 X120.1 Y102.372 E.02268
G1 X120.015 Y102.887 E.01637
G1 X120.082 Y103.54 E.02058
G1 X120.146 Y103.732 E.00635
G1 X120.373 Y104.146 E.0148
G1 X120.506 Y104.308 E.00657
G1 X121.032 Y104.709 E.02074
;WIDTH:0.462647
G1 X121.235 Y104.803 E.00781
;WIDTH:0.505295
G1 X121.438 Y104.897 E.0086
;WIDTH:0.547942
G1 X121.641 Y104.991 E.00939
G1 X122.252 Y105.038 E.02573
;WIDTH:0.515464
G1 X128.563 Y105.038 E.24797
;WIDTH:0.518015
G1 X128.631 Y105.036 E.00269
;WIDTH:0.547898
G1 X129.174 Y104.991 E.02288
G1 X129.249 Y104.959 E.00342
;WIDTH:0.520649
G1 X129.323 Y104.927 E.0032
;WIDTH:0.493399
G1 X129.632 Y104.771 E.01297
;WIDTH:0.456699
G1 X129.942 Y104.616 E.01192
;WIDTH:0.419999
G1 X130.392 Y104.223 E.01873
G1 X130.557 Y103.937 E.01035
G1 X130.733 Y103.54 E.01362
G1 X130.8 Y102.887 E.02058
G1 X130.677 Y102.241 E.02062
G1 X130.447 Y101.7 E.01843
G1 X130.344 Y101.54 E.00597
G1 X129.158 Y100.243 E.05511
G1 X129.053 Y100.07 E.00635
G1 X129.071 Y99.898 E.00542
G1 X129.727 Y98.887 E.03779
G1 X129.991 Y98.433 E.01647
G1 X130.642 Y97.078 E.04713
G1 X131.046 Y96.08 E.03376
G1 X131.4 Y95.067 E.03365
G1 X131.553 Y94.572 E.01624
G1 X131.843 Y93.303 E.04081
G1 X145.424 Y93.295 E.42582
G1 X145.704 Y93.161 E.00973
G1 X151.404 Y88.111 E.23877
G1 X151.54 Y87.93 E.0071
M73 Q2 S21
G1 X151.595 Y87.688 E.00778
G1 X151.594 Y86.915 E.02424
G1 X151.578 Y86.87 E.0015
M204 S1000
G1 X151.217 Y86.916 F10800
M204 S800
;TYPE:External perimeter
G1 F1200
G1 X151.174 Y86.796 E.004
G1 X151.024 Y86.727 E.00518
M73 P2 R21
G1 X150.338 Y86.743 E.02151
;WIDTH:0.462205
G1 X149.831 Y86.747 E.01768
G1 X149.153 Y86.861 E.02397
;WIDTH:0.435503
G1 X148.653 Y86.78 E.01653
G1 X148.642 Y86.667 E.00371
G1 X148.798 Y86.553 E.00631
G1 X149.08 Y86.476 E.00954
;WIDTH:0.46472
G1 X149.774 Y86.331 E.02487
G1 X150.246 Y86.151 E.01772
;WIDTH:0.419999
G1 X152.918 Y85.089 E.09015
G1 X153.954 Y85.089 E.03248
G1 X153.954 Y85.958 E.02725
G1 X153.954 Y90.455 E.141
G1 X147.375 Y96.455 E.27918
G1 X144.365 Y101.179 E.17563
G1 X143.202 Y101.179 E.03646
G1 X143.987 Y99.819 E.04924
G1 X143.987 Y99.63 E.00593
G1 X140.824 Y94.151 E.19836
G1 X140.661 Y94.057 E.0059
G1 X134.334 Y94.057 E.19838
G1 X134.171 Y94.151 E.0059
G1 X130.995 Y99.659 E.19935
G1 X131.008 Y99.819 E.00503
G1 X134.049 Y105.087 E.19072
G1 X134.234 Y105.363 E.01042
G1 X134.335 Y105.392 E.00329
G1 X136.381 Y105.385 E.06415
G1 X136.887 Y105.346 E.01591
G1 X137.817 Y105.194 E.02955
G1 X138.2 Y105.192 E.01201
G1 X137.908 Y105.439 E.01199
G1 X137.108 Y105.925 E.02935
G1 X136.701 Y106.223 E.01582
G1 X135.366 Y107.358 E.05494
G1 X132.126 Y107.358 E.10159
G1 X130.708 Y105.988 E.06182
G1 X130.577 Y105.935 E.00443
G1 X120.238 Y105.935 E.32417
G1 X120.107 Y105.988 E.00443
G1 X118.689 Y107.358 E.06182
G1 X115.45 Y107.358 E.10156
G1 X114.114 Y106.223 E.05496
G1 X113.703 Y105.923 E.01595
G1 X112.907 Y105.439 E.02921
G1 X112.615 Y105.192 E.01199
G1 X112.987 Y105.192 E.01166
G1 X113.928 Y105.346 E.0299
G1 X114.438 Y105.385 E.01604
G1 X116.513 Y105.389 E.06506
G1 X116.644 Y105.298 E.005
G1 X119.829 Y99.76 E.20031
G1 X119.808 Y99.632 E.00407
G1 X116.644 Y94.151 E.19843
G1 X116.481 Y94.057 E.0059
G1 X110.154 Y94.057 E.19838
G1 X109.991 Y94.151 E.0059
G1 X106.828 Y99.63 E.19836
G1 X106.828 Y99.819 E.00593
G1 X107.613 Y101.179 E.04924
G1 X106.45 Y101.179 E.03646
G1 X103.408 Y96.417 E.17717
G1 X96.862 Y90.455 E.27761
G1 X96.862 Y85.089 E.16825
G1 X97.897 Y85.089 E.03245
G1 X100.554 Y86.146 E.08966
;WIDTH:0.463606
G1 X101.032 Y86.329 E.0179
G1 X101.924 Y86.52 E.03191
;WIDTH:0.435188
G1 X102.161 Y86.676 E.00925
G1 X102.154 Y86.781 E.00343
G1 X101.662 Y86.861 E.01626
;WIDTH:0.463606
G1 X100.954 Y86.742 E.02511
G1 X100.449 Y86.742 E.01766
;WIDTH:0.419999
G1 X99.791 Y86.727 E.02064
G1 X99.641 Y86.796 E.00518
G1 X99.598 Y86.916 E.004
G1 X99.598 Y87.688 E.02421
G1 X99.661 Y87.829 E.00484
G1 X105.361 Y92.878 E.23875
G1 X105.486 Y92.926 E.0042
G1 X118.223 Y92.926 E.39936
G1 X119.13 Y92.951 E.02845
G1 X119.338 Y93.17 E.00947
G1 X119.623 Y94.461 E.04145
G1 X119.778 Y94.962 E.01644
G1 X120.128 Y95.964 E.03328
G1 X120.526 Y96.946 E.03322
G1 X120.954 Y97.865 E.03179
G1 X121.606 Y99.025 E.04172
G1 X122.003 Y99.575 E.02127
G1 X122.129 Y99.817 E.00855
G1 X122.149 Y100.088 E.00852
G1 X122.104 Y100.225 E.00452
G1 X121.99 Y100.445 E.00777
G1 X120.715 Y101.848 E.05944
G1 X120.472 Y102.433 E.01986
G1 X120.387 Y103.004 E.0181
G1 X120.477 Y103.551 E.01738
G1 X120.748 Y104.019 E.01696
G1 X121.168 Y104.358 E.01692
G1 X121.689 Y104.552 E.01743
G1 X122.252 Y104.613 E.01776
G1 X128.584 Y104.612 E.19854
G1 X129.174 Y104.541 E.01863
G1 X129.7 Y104.326 E.01782
G1 X130.111 Y103.965 E.01715
G1 X130.36 Y103.487 E.0169
G1 X130.428 Y102.948 E.01703
G1 X130.331 Y102.389 E.01779
G1 X130.066 Y101.795 E.02039
G1 X128.785 Y100.394 E.05952
G1 X128.677 Y100.155 E.00822
G1 X128.671 Y99.886 E.00844
G1 X128.725 Y99.747 E.00468
G1 X129.307 Y98.859 E.03329
G1 X129.651 Y98.27 E.02139
G1 X130.293 Y96.937 E.04639
G1 X130.69 Y95.955 E.03321
G1 X131.04 Y94.956 E.03319
G1 X131.196 Y94.446 E.01672
G1 X131.46 Y93.248 E.03846
G1 X131.571 Y93.027 E.00775
G1 X131.799 Y92.926 E.00782
G1 X145.329 Y92.926 E.42422
G1 X145.454 Y92.878 E.0042
G1 X151.154 Y87.829 E.23875
G1 X151.218 Y87.688 E.00486
G1 X151.217 Y86.976 E.02232
M204 S1000
G1 X151.312 Y86.83 F10800
;WIPE_START
G1 F8640
G1 X151.174 Y86.796 E-.04273
G1 X151.024 Y86.727 E-.03812
G1 X150.338 Y86.743 E-.15844
G1 X149.831 Y86.747 E-.11707
G1 X149.153 Y86.861 E-.15875
G1 X148.653 Y86.78 E-.11696
G1 X148.642 Y86.667 E-.02622
G1 X148.798 Y86.553 E-.04461
G1 X149.08 Y86.476 E-.0675
G1 X149.774 Y86.331 E-.16371
G1 X150.041 Y86.229 E-.06589
;WIPE_END
G1 Z.4 F720
G1 X152.747 Y85.746 F10800
G1 Z.2 F720
G1 E1 F2100
M204 S800
;TYPE:Solid infill
;WIDTH:0.423017
G1 F1200
G1 X153.237 Y86.235 E.02188
G1 X153.237 Y86.773 E.017
G1 X152.493 Y86.029 E.03325
G1 X152.109 Y86.182 E.01306
G1 X153.237 Y87.31 E.05042
G1 X153.237 Y87.848 E.017
G1 X151.736 Y86.347 E.06709
G1 X151.927 Y86.782 E.01502
G1 X151.926 Y87.074 E.00923
G1 X153.237 Y88.385 E.0586
G1 X153.237 Y88.923 E.017
G1 X151.924 Y87.609 E.05871
G1 X151.923 Y87.842 E.00736
G1 X151.849 Y88.072 E.00764
G1 X153.237 Y89.46 E.06204
G1 X153.237 Y89.998 E.017
G1 X151.616 Y88.377 E.07245
G1 X151.331 Y88.629 E.01202
G1 X153.03 Y90.328 E.07594
G1 X152.748 Y90.584 E.01204
G1 X151.045 Y88.881 E.07612
G1 X150.76 Y89.133 E.01202
M73 Q3 S21
G1 X152.467 Y90.841 E.07632
M73 P3 R21
G1 X152.186 Y91.097 E.01201
G1 X150.474 Y89.385 E.07652
G1 X150.189 Y89.638 E.01204
G1 X151.905 Y91.354 E.0767
G1 X151.624 Y91.61 E.01201
G1 X149.904 Y89.89 E.07688
G1 X149.618 Y90.142 E.01205
G1 X151.343 Y91.866 E.07708
G1 X151.062 Y92.123 E.01204
G1 X149.333 Y90.394 E.07728
G1 X149.048 Y90.646 E.01202
G1 X150.781 Y92.379 E.07746
G1 X150.499 Y92.636 E.01206
G1 X148.762 Y90.898 E.07766
G1 X148.477 Y91.151 E.01204
G1 X150.218 Y92.892 E.07782
G1 X149.937 Y93.149 E.01204
G1 X148.191 Y91.403 E.07804
G1 X147.906 Y91.655 E.01202
G1 X149.656 Y93.405 E.07822
G1 X149.375 Y93.661 E.01201
G1 X147.621 Y91.907 E.0784
G1 X147.335 Y92.159 E.01205
G1 X149.094 Y93.918 E.07862
G1 X148.813 Y94.174 E.01201
G1 X147.05 Y92.411 E.0788
G1 X146.765 Y92.663 E.01202
G1 X148.532 Y94.431 E.079
G1 X148.251 Y94.687 E.01201
G1 X146.479 Y92.916 E.07918
G1 X146.194 Y93.168 E.01202
G1 X147.969 Y94.943 E.07934
G1 X147.688 Y95.2 E.01204
G1 X145.908 Y93.42 E.07956
G1 X145.816 Y93.502 E.0039
G1 X145.559 Y93.609 E.0088
G1 X147.407 Y95.456 E.08258
G1 X147.126 Y95.713 E.01204
G1 X145.055 Y93.642 E.09257
G1 X144.517 Y93.642 E.017
G1 X146.845 Y95.969 E.10403
G1 X146.633 Y96.295 E.01229
G1 X143.98 Y93.642 E.11858
G1 X143.443 Y93.642 E.01697
G1 X146.424 Y96.623 E.13324
G1 X146.214 Y96.951 E.01231
G1 X142.905 Y93.642 E.1479
G1 X142.368 Y93.642 E.01697
G1 X146.005 Y97.279 E.16256
G1 X145.795 Y97.607 E.01231
G1 X141.83 Y93.642 E.17722
G1 X141.293 Y93.642 E.01697
G1 X145.585 Y97.935 E.19186
G1 X145.376 Y98.263 E.01229
G1 X142.18 Y95.067 E.14285
G1 X142.914 Y96.339 E.04641
G1 X145.166 Y98.591 E.10066
G1 X144.957 Y98.919 E.01229
G1 X143.649 Y97.611 E.05846
G1 X144.383 Y98.882 E.04639
G1 X144.87 Y99.37 E.02179
M204 S1000
;WIPE_START
G1 F8640
G1 X144.383 Y98.882 E-.15919
G1 X143.649 Y97.611 E-.3389
G1 X144.957 Y98.919 E-.42712
G1 X145.131 Y98.646 E-.07479
;WIPE_END
G1 Z.4 F720
G1 X133.171 Y93.472 F10800
G1 Z.2 F720
G1 E1 F2100
M204 S800
;WIDTH:0.42362
G1 F1200
G1 X133.529 Y93.831 E.01605
G1 X133.332 Y94.172 E.01247
G1 X132.802 Y93.642 E.02373
G1 X132.264 Y93.642 E.01703
G1 X133.135 Y94.513 E.03899
G1 X132.938 Y94.854 E.01247
G1 X132.038 Y93.955 E.04027
G1 X131.941 Y94.396 E.01429
G1 X132.741 Y95.196 E.03581
G1 X132.544 Y95.537 E.01247
G1 X131.829 Y94.822 E.03201
G1 X131.701 Y95.233 E.01363
G1 X132.347 Y95.878 E.0289
G1 X132.15 Y96.22 E.01249
G1 X131.562 Y95.632 E.02632
G1 X131.422 Y96.031 E.01339
G1 X131.953 Y96.561 E.02375
G1 X131.756 Y96.902 E.01247
G1 X131.274 Y96.421 E.02156
G1 X131.119 Y96.804 E.01308
G1 X131.559 Y97.244 E.0197
G1 X131.362 Y97.585 E.01247
G1 X130.964 Y97.188 E.0178
G1 X130.79 Y97.552 E.01277
G1 X131.164 Y97.926 E.01674
G1 X130.967 Y98.268 E.01249
G1 X130.615 Y97.915 E.01578
G1 X130.44 Y98.279 E.01279
G1 X130.77 Y98.609 E.01477
G1 X130.573 Y98.95 E.01247
G1 X130.264 Y98.642 E.01381
G1 X130.066 Y98.981 E.01243
G1 X130.377 Y99.293 E.01395
G1 X130.282 Y99.546 E.00855
G1 X130.28 Y99.734 E.00595
G1 X129.867 Y99.321 E.01849
G1 X129.647 Y99.639 E.01224
G1 X130.665 Y100.657 E.04557
G1 X131.4 Y101.931 E.04656
G1 X129.422 Y99.953 E.08855
G1 X129.397 Y99.995 E.00155
G1 X130.6 Y101.317 E.05658
G1 X130.711 Y101.469 E.00596
G1 X130.949 Y102.018 E.01894
G1 X132.599 Y103.668 E.07387
M204 S1000
;WIPE_START
G1 F8640
G1 X130.949 Y102.018 E-.5388
G1 X130.711 Y101.469 E-.13816
G1 X130.6 Y101.317 E-.04346
G1 X129.785 Y100.421 E-.27958
;WIPE_END
G1 Z.4 F720
G1 X135.404 Y105.935 F10800
G1 Z.2 F720
G1 E1 F2100
M204 S800
G1 F1200
G1 X135.647 Y106.178 E.01088
G1 X135.356 Y106.425 E.01208
G1 X134.868 Y105.937 E.02185
M204 S1000
G1 X135.186 Y106.793 F10800
M204 S800
G1 F1200
G1 X134.5 Y106.108 E.03069
G1 X134.313 Y106.108 E.00592
G1 X133.853 Y105.976 E.01515
G1 X133.56 Y105.672 E.01337
G1 X132.871 Y104.479 E.04361
G1 X131.114 Y102.722 E.07866
G1 X131.137 Y102.841 E.00384
G1 X131.139 Y103.094 E.00801
