; generated by PrusaSlicer 2.7.0+win64 on 2024-02-23 at 11:03:00 UTC


;
;
; 

; external perimeters extrusion width = 0.45mm
; perimeters extrusion width = 0.45mm
; infill extrusion width = 0.45mm
; solid infill extrusion width = 0.45mm
; top infill extrusion width = 0.40mm
; first layer extrusion width = 0.42mm

M73 P0 R17
M73 Q0 S17
M201 X1000 Y1000 Z200 E5000 ; sets maximum accelerations, mm/sec^2
M203 X200 Y200 Z12 E120 ; sets maximum feedrates, mm / sec
M204 S1250 T1250 ; sets acceleration (S) and retract acceleration (R), mm/sec^2
M205 X8.00 Y8.00 Z0.40 E4.50 ; sets the jerk limits, mm/sec
M205 S0 T0 ; sets the minimum extruding and travel feed rate, mm/sec

; printing object clips_module_v05.stl id:0 copy 0
; stop printing object clips_module_v05.stl id:0 copy 0

;TYPE:Custom
M862.3 P "MK3S" ; printer model check
M862.1 P0.4 ; nozzle diameter check
M115 U3.13.2 ; tell printer latest fw version
G90 ; use absolute coordinates
M83 ; extruder relative mode
M104 S215 ; set extruder temp
M140 S75 ; set bed temp
M190 S75 ; wait for bed temp
M109 S215 ; wait for extruder temp
G28 W ; home all without mesh bed level
G80 X110.75 Y81.0047 W28.4987 H47.9925 ; mesh bed levelling

G1 Z0.2 F720
G1 Y-3 F1000 ; go outside print area
G92 E0
G1 X60 E9 F1000 ; intro line
G1 X100 E12.5 F1000 ; intro line

G92 E0
M221 S95

; Don't change E values below. Excessive value can damage the printer.

M907 E538 ; set extruder motor current
G21 ; set units to millimeters
G90 ; use absolute coordinates
M83 ; use relative distances for extrusion
M900 K0.08 ; Filament gcode LA 1.5
M900 K45 ; Filament gcode LA 1.0

M107
;LAYER_CHANGE
;Z:0.2
;HEIGHT:0.2
;BEFORE_LAYER_CHANGE
G92 E0.0
;0.2


G1 E-.8 F2100
G1 Z.2 F720
;AFTER_LAYER_CHANGE
;0.2
G1 X111.67 Y85.012 F10800
G1 Z.2 F720
G1 E.8 F2100
M204 S800
;TYPE:Skirt/Brim
;WIDTH:0.42
G1 F1200
G1 X112.185 Y84.548 E.02173
G1 X117.733 Y81.49 E.19863
G1 X118.449 Y81.252 E.02366
G1 X119.138 Y81.194 E.02168
G1 X120.004 Y81.343 E.02755
G1 X120.85 Y81.772 E.02974
G1 X127.159 Y87.019 E.25729
G1 X138.19 Y97.895 E.48571
G1 X138.726 Y98.627 E.02845
G1 X138.912 Y99.075 E.01521
G1 X139.052 Y99.793 E.02294
G1 X139.016 Y100.549 E.02373
G1 X134.623 Y126.459 E.82398
G1 X134.388 Y127.157 E.02309
G1 X133.981 Y127.785 E.02346
G1 X133.232 Y128.416 E.03071
G1 X132.69 Y128.661 E.01865
G1 X131.786 Y128.809 E.02872
G1 X121.428 Y128.788 E.32477
M73 Q1 S17
G1 X120.544 Y128.539 E.0288
M73 P1 R17
G1 X119.786 Y128.036 E.02852
G1 X119.319 Y127.493 E.02246
G1 X118.936 Y126.665 E.0286
G1 X110.996 Y87.544 E1.25162
G1 X110.938 Y86.923 E.01956
G1 X111.027 Y86.239 E.02163
G1 X111.279 Y85.581 E.02209
G1 X111.636 Y85.062 E.01975
M204 S1000
G1 X111.945 Y85.274 F10800
M204 S800
G1 F1200
G1 X111.955 Y85.26 E.00054
G1 X112.404 Y84.855 E.01896
G1 X117.895 Y81.831 E.19655
G1 X118.521 Y81.622 E.02069
G1 X119.126 Y81.571 E.01904
G1 X119.889 Y81.702 E.02427
G1 X120.641 Y82.086 E.02647
G1 X126.918 Y87.309 E.25603
G1 X137.925 Y98.163 E.48469
G1 X138.39 Y98.798 E.02468
G1 X138.554 Y99.193 E.01341
G1 X138.676 Y99.822 E.02009
G1 X138.644 Y100.486 E.02084
G1 X134.253 Y126.385 E.82363
G1 X134.048 Y126.995 E.02018
G1 X133.642 Y127.601 E.02287
G1 X133.148 Y128.025 E.02041
G1 X132.569 Y128.304 E.02015
G1 X131.786 Y128.432 E.02488
G1 X121.471 Y128.413 E.32342
G1 X120.703 Y128.196 E.02502
G1 X120.04 Y127.758 E.02491
G1 X119.633 Y127.283 E.01961
G1 X119.299 Y126.562 E.02491
G1 X111.365 Y87.469 E1.25072
G1 X111.315 Y86.929 E.017
G1 X111.393 Y86.332 E.01888
G1 X111.613 Y85.756 E.01933
G1 X111.911 Y85.323 E.01648
M204 S1000
; printing object clips_module_v05.stl id:0 copy 0
;WIPE_START
G1 F8640
G1 X111.945 Y85.274 E-.01377
G1 X111.955 Y85.26 E-.00397
G1 X112.404 Y84.855 E-.13962
G1 X114.842 Y83.512 E-.64264
;WIPE_END
G1 Z.6 F720
G1 X115.974 Y88.418 F10800
G1 Z.2 F720
G1 E.8 F2100
M204 S800
;TYPE:Perimeter
;WIDTH:0.419999
G1 F1200
G1 X115.857 Y88.568 E.00596
G1 X115.759 Y88.94 E.01206
G1 X115.769 Y89.156 E.00678
G1 X114.726 Y87.209 E.06925
G1 X118.999 Y84.878 E.15262
G1 X121.852 Y87.252 E.11637
;WIDTH:0.457241
G1 X122.025 Y87.419 E.00828
;WIDTH:0.494483
G1 X122.197 Y87.587 E.00903
;WIDTH:0.534269
G1 X122.41 Y87.79 E.01202
;WIDTH:0.574054
G1 X122.623 Y87.992 E.01296
G1 X122.716 Y88.044 E.00471
;WIDTH:0.533197
G1 X122.81 Y88.096 E.00438
;WIDTH:0.49234
G1 X123.059 Y88.279 E.01155
;WIDTH:0.45617
G1 X123.308 Y88.463 E.01064
;WIDTH:0.419999
G1 X124.627 Y89.56 E.05379
G1 X124.278 Y91.769 E.07012
G1 X124.04 Y93.458 E.05348
G1 X123.825 Y95.162 E.05385
G1 X123.637 Y96.856 E.05344
G1 X123.473 Y98.564 E.0538
G1 X123.334 Y100.277 E.05389
G1 X123.159 Y103.072 E.08781
M73 Q2 S17
;WIDTH:0.464901
G1 X123.13 Y103.183 E.00403
;WIDTH:0.509802
G1 X123.101 Y103.293 E.00442
;WIDTH:0.554704
G1 X123.071 Y103.403 E.00485
;WIDTH:0.599605
G1 X123.042 Y103.513 E.00527
G1 X123.004 Y104.931 E.06566
;WIDTH:0.574428
G1 X122.967 Y106.348 E.06265
M73 P2 R17
;WIDTH:0.549251
G1 X122.966 Y106.365 E.00072
;WIDTH:0.548991
G1 X122.957 Y107.69 E.05576
;WIDTH:0.542723
G1 X122.957 Y107.705 E.00062
;WIDTH:0.562298
G1 X122.986 Y110.28 E.11121
;WIDTH:0.562716
G1 X122.987 Y110.3 E.00087
;WIDTH:0.588603
G1 X123.025 Y111.431 E.05135
;WIDTH:0.601065
G1 X123.044 Y111.812 E.0177
G1 X123.073 Y111.91 E.00474
;WIDTH:0.555799
G1 X123.102 Y112.008 E.00436
;WIDTH:0.510532
G1 X123.131 Y112.107 E.00401
;WIDTH:0.465266
G1 X123.16 Y112.205 E.00359
;WIDTH:0.419999
G1 X123.197 Y112.773 E.01785
G1 X123.416 Y115.085 E.07282
G1 X123.595 Y116.613 E.04824
G1 X124.672 Y123.561 E.22045
G1 X124.696 Y123.66 E.00319
G1 X124.949 Y124.064 E.01495
G1 X125.416 Y124.311 E.01656
G1 X131.111 Y124.311 E.17856
G1 X131.111 Y124.771 E.01442
G1 X131.111 Y125.232 E.01445
G1 X122.396 Y125.232 E.27325
G1 X122.396 Y112.23 E.40767
;WIDTH:0.465266
G1 X122.418 Y112.13 E.0036
;WIDTH:0.510532
G1 X122.441 Y112.03 E.00399
;WIDTH:0.555799
G1 X122.464 Y111.93 E.00438
;WIDTH:0.601065
G1 X122.486 Y111.83 E.00475
G1 X122.48 Y111.444 E.01792
;WIDTH:0.588603
G1 X122.467 Y110.312 E.05137
;WIDTH:0.562716
G1 X122.467 Y110.284 E.00121
;WIDTH:0.562298
G1 X122.457 Y107.696 E.11177
;WIDTH:0.548991
G1 X122.46 Y106.362 E.05613
;WIDTH:0.549251
G1 X122.46 Y106.339 E.00097
;WIDTH:0.574428
G1 X122.473 Y104.921 E.06267
;WIDTH:0.599605
G1 X122.486 Y103.503 E.06564
G1 X122.463 Y103.39 E.00534
;WIDTH:0.554704
G1 X122.441 Y103.276 E.00494
;WIDTH:0.509802
G1 X122.418 Y103.162 E.00451
;WIDTH:0.464901
G1 X122.396 Y103.048 E.00407
;WIDTH:0.419999
G1 X122.396 Y88.891 E.44388
;WIDTH:0.45617
G1 X122.359 Y88.718 E.00608
;WIDTH:0.49234
G1 X122.323 Y88.545 E.0066
;WIDTH:0.533197
G1 X122.279 Y88.447 E.00438
;WIDTH:0.574054
G1 X122.235 Y88.349 E.00474
G1 X122.027 Y88.165 E.01226
;WIDTH:0.564983
G1 X121.87 Y88.133 E.00696
;WIDTH:0.516655
G1 X121.713 Y88.101 E.00631
;WIDTH:0.468327
G1 X121.557 Y88.07 E.00563
;WIDTH:0.419999
G1 X116.579 Y88.071 E.15608
G1 X116.308 Y88.14 E.00877
G1 X116.026 Y88.351 E.01104
G1 X116.011 Y88.37 E.00076
M204 S1000
G1 X116.258 Y88.648 F10800
M204 S800
;TYPE:External perimeter
G1 F1200
G1 X116.151 Y88.834 E.00673
G1 X116.148 Y89.166 E.01041
;WIDTH:0.449854
G1 X116.152 Y89.51 E.01164
;WIDTH:0.479708
G1 X116.156 Y89.854 E.01249
G1 X116.243 Y90.275 E.01561
;WIDTH:0.453445
G1 X116.33 Y90.697 E.01471
;WIDTH:0.427181
G1 X116.33 Y91.41 E.02278
G1 X115.937 Y90.667 E.02686
;WIDTH:0.451862
G1 X115.663 Y89.788 E.03131
G1 X115.434 Y89.335 E.01726
;WIDTH:0.419999
G1 X114.217 Y87.057 E.08098
G1 X119.044 Y84.424 E.1724
G1 X125.033 Y89.407 E.24428
G1 X124.65 Y91.831 E.07695
G1 X124.413 Y93.514 E.05329
G1 X124.2 Y95.204 E.05341
G1 X124.012 Y96.9 E.0535
G1 X123.848 Y98.603 E.05364
G1 X123.71 Y100.31 E.0537
G1 X123.509 Y103.53 E.10116
G1 X123.408 Y106.364 E.08891
G1 X123.395 Y107.696 E.04177
G1 X123.434 Y110.274 E.08084
G1 X123.486 Y111.41 E.03566
G1 X123.573 Y112.738 E.04173
G1 X123.791 Y115.049 E.07278
G1 X123.968 Y116.556 E.04758
G1 X125.044 Y123.503 E.22042
G1 X125.26 Y123.851 E.01284
G1 X125.416 Y123.934 E.00554
G1 X131.488 Y123.934 E.19038
G1 X131.488 Y124.771 E.02624
G1 X131.488 Y125.609 E.02627
G1 X122.019 Y125.609 E.29689
G1 X122.019 Y88.891 E1.15127
G1 X121.984 Y88.782 E.00359
G1 X121.83 Y88.573 E.00814
G1 X121.557 Y88.447 E.00943
G1 X116.579 Y88.448 E.15608
G1 X116.489 Y88.471 E.00291
G1 X116.305 Y88.612 E.00727
M204 S1000
;WIPE_START
G1 F8640
G1 X116.258 Y88.648 E-.01367
G1 X116.151 Y88.834 E-.04955
G1 X116.148 Y89.166 E-.07666
;WIPE_END
G1 E-.66012 F2100
G1 Z.6 F720
G1 X120.221 Y86.115 F10800
G1 Z.2 F720
G1 E.8 F2100
M204 S800
;TYPE:Solid infill
;WIDTH:0.442767
G1 F1200
G1 X121.849 Y87.758 E.0769
G1 X121.564 Y87.73 E.00952
G1 X121.271 Y87.73 E.00974
M73 Q3 S17
G1 X118.874 Y85.333 E.1127
G1 X118.508 Y85.533 E.01387
M73 P3 R17
G1 X120.706 Y87.731 E.10335
G1 X120.14 Y87.731 E.01882
G1 X118.142 Y85.732 E.09397
G1 X117.776 Y85.932 E.01387
G1 X119.575 Y87.731 E.08459
G1 X119.01 Y87.731 E.01878
G1 X117.41 Y86.131 E.07523
G1 X117.044 Y86.331 E.01387
G1 X118.444 Y87.731 E.06583
G1 X117.879 Y87.731 E.01878
G1 X116.678 Y86.53 E.05647
G1 X116.312 Y86.73 E.01387
G1 X117.314 Y87.731 E.04709
G1 X116.748 Y87.731 E.01882
G1 X115.946 Y86.93 E.03769
G1 X115.581 Y87.129 E.01382
G1 X116.259 Y87.808 E.0319
G1 X116.158 Y87.834 E.00347
G1 X115.903 Y88.017 E.01044
G1 X115.09 Y87.204 E.03823
M204 S1000
;WIPE_START
G1 F8640
G1 X115.903 Y88.017 E-.26548
G1 X116.158 Y87.834 E-.07247
G1 X116.259 Y87.808 E-.02408
G1 X115.581 Y87.129 E-.22156
G1 X115.946 Y86.93 E-.09599
G1 X116.315 Y87.299 E-.12042
;WIPE_END
G1 Z.6 F720
G1 X122.481 Y88.445 F10800
G1 Z.2 F720
G1 E.8 F2100
M204 S800
;WIDTH:0.423648
G1 F1200
G1 X124.19 Y90.154 E.07651
G1 X124.116 Y90.619 E.01491
G1 X122.735 Y89.238 E.06183
G1 X122.735 Y89.776 E.01703
G1 X124.043 Y91.084 E.05856
G1 X123.97 Y91.549 E.0149
G1 X122.735 Y90.315 E.05527
G1 X122.735 Y90.853 E.01703
G1 X123.9 Y92.018 E.05216
G1 X123.834 Y92.49 E.01509
G1 X122.735 Y91.391 E.0492
G1 X122.735 Y91.93 E.01706
G1 X123.767 Y92.962 E.0462
G1 X123.701 Y93.434 E.01509
G1 X122.735 Y92.468 E.04325
G1 X122.735 Y93.007 E.01706
G1 X123.64 Y93.912 E.04052
G1 X123.58 Y94.39 E.01525
G1 X122.735 Y93.545 E.03783
G1 X122.735 Y94.084 E.01706
G1 X123.52 Y94.868 E.03512
G1 X123.463 Y95.35 E.01537
G1 X122.735 Y94.622 E.03259
G1 X122.735 Y95.16 E.01703
G1 X123.409 Y95.834 E.03018
G1 X123.355 Y96.319 E.01545
G1 X122.735 Y95.699 E.02776
G1 X122.735 Y96.237 E.01703
G1 X123.301 Y96.804 E.02536
G1 X123.254 Y97.295 E.01561
G1 X122.735 Y96.776 E.02324
G1 X122.735 Y97.314 E.01703
G1 X123.207 Y97.786 E.02113
G1 X123.16 Y98.277 E.01561
G1 X122.735 Y97.853 E.01901
G1 X122.735 Y98.391 E.01703
G1 X123.116 Y98.772 E.01706
G1 X123.075 Y99.27 E.01582
G1 X122.735 Y98.929 E.01524
G1 X122.735 Y99.468 E.01706
G1 X123.035 Y99.768 E.01343
G1 X122.995 Y100.266 E.01582
G1 X122.735 Y100.006 E.01164
G1 X122.735 Y100.545 E.01706
G1 X122.963 Y100.773 E.01021
G1 X122.932 Y101.28 E.01608
G1 X122.735 Y101.083 E.00882
G1 X122.735 Y101.622 E.01706
G1 X122.9 Y101.786 E.00736
G1 X122.868 Y102.293 E.01608
G1 X122.735 Y102.16 E.00595
G1 X122.735 Y102.698 E.01703
G1 X122.996 Y102.96 E.01171
M204 S1000
;WIPE_START
G1 F8640
G1 X122.735 Y102.698 E-.08539
G1 X122.735 Y102.16 E-.12423
G1 X122.868 Y102.293 E-.04343
G1 X122.9 Y101.786 E-.1173
G1 X122.735 Y101.622 E-.05372
G1 X122.735 Y101.083 E-.12446
G1 X122.932 Y101.28 E-.06433
G1 X122.963 Y100.773 E-.11729
G1 X122.749 Y100.559 E-.06985
;WIPE_END
G1 Z.6 F720
G1 X123.032 Y112.827 F10800
G1 Z.2 F720
G1 E.8 F2100
M204 S800
;WIDTH:0.426237
G1 F1200
G1 X122.735 Y112.53 E.01339
G1 X122.735 Y113.072 E.01728
G1 X122.9 Y113.238 E.00746
G1 X122.957 Y113.836 E.01915
G1 X122.735 Y113.615 E.00998
G1 X122.735 Y114.157 E.01728
G1 X123.014 Y114.435 E.01255
G1 X123.07 Y115.034 E.01918
G1 X122.735 Y114.699 E.0151
G1 X122.735 Y115.241 E.01728
G1 X123.14 Y115.646 E.01826
G1 X123.212 Y116.26 E.0197
G1 X122.735 Y115.783 E.0215
G1 X122.735 Y116.325 E.01728
G1 X123.294 Y116.884 E.0252
G1 X123.393 Y117.525 E.02067
G1 X122.735 Y116.867 E.02966
G1 X122.735 Y117.409 E.01728
G1 X123.492 Y118.167 E.03414
G1 X123.592 Y118.808 E.02068
G1 X122.735 Y117.951 E.03863
G1 X122.735 Y118.493 E.01728
G1 X123.691 Y119.449 E.04309
G1 X123.791 Y120.091 E.02071
G1 X122.735 Y119.035 E.0476
G1 X122.735 Y119.578 E.01731
G1 X123.89 Y120.732 E.05204
G1 X123.989 Y121.374 E.0207
G1 X122.735 Y120.12 E.05652
G1 X122.735 Y120.662 E.01728
G1 X124.089 Y122.015 E.06101
G1 X124.188 Y122.657 E.0207
G1 X122.735 Y121.204 E.06549
G1 X122.735 Y121.746 E.01728
G1 X124.491 Y123.502 E.07915
M204 S1000
;WIPE_START
G1 F8640
G1 X122.735 Y121.746 E-.57341
G1 X122.735 Y121.204 E-.12515
G1 X123.046 Y121.515 E-.10144
;WIPE_END
G1 Z.6 F720
G1 X130.348 Y124.48 F10800
G1 Z.2 F720
G1 E.8 F2100
M204 S800
G1 F1200
G1 X130.761 Y124.893 E.01862
G1 X130.218 Y124.893 E.01731
G1 X129.976 Y124.65 E.01093
G1 X129.434 Y124.65 E.01728
G1 X129.676 Y124.893 E.01093
G1 X129.134 Y124.893 E.01728
G1 X128.892 Y124.65 E.01093
G1 X128.35 Y124.65 E.01728
G1 X128.592 Y124.893 E.01093
G1 X128.05 Y124.893 E.01728
G1 X127.808 Y124.65 E.01093
M73 P3 R16
G1 X127.265 Y124.65 E.01731
G1 X127.508 Y124.892 E.01093
G1 X126.966 Y124.892 E.01728
G1 X126.723 Y124.65 E.01093
G1 X126.181 Y124.65 E.01728
G1 X126.424 Y124.892 E.01093
G1 X125.882 Y124.892 E.01728
G1 X125.469 Y124.48 E.01859
M204 S1000
G1 X125.509 Y125.062 F10800
M204 S800
G1 F1200
G1 X122.735 Y122.288 E.12504
G1 X122.735 Y122.83 E.01728
G1 X124.797 Y124.892 E.09294
G1 X124.255 Y124.892 E.01728
G1 X122.735 Y123.372 E.06851
G1 X122.735 Y123.914 E.01728
G1 X123.713 Y124.892 E.04408
G1 X123.171 Y124.892 E.01728
G1 X122.565 Y124.287 E.02729
M204 S1000
;WIPE_START
G1 F8640
G1 X123.171 Y124.892 E-.19772
G1 X123.713 Y124.892 E-.12515
G1 X122.735 Y123.914 E-.31936
G1 X122.735 Y123.372 E-.12515
G1 X122.835 Y123.472 E-.03262
;WIPE_END
G1 Z.6 F720
G1 X127.608 Y100.418 F10800
G1 Z.2 F720
G1 E.8 F2100
M204 S800
;TYPE:Perimeter
;WIDTH:0.419999
G1 F1200
G1 X128.005 Y100.203 E.01416
G1 X128.544 Y99.974 E.01836
G1 X129.139 Y99.77 E.01972
G1 X129.674 Y99.626 E.01737
G1 X130.229 Y99.512 E.01776
G1 X129.894 Y99.779 E.01343
G1 X129.661 Y100.046 E.01111
G1 X129.349 Y100.556 E.01875
G1 X129.2 Y101.01 E.01498
G1 X129.142 Y101.484 E.01497
G1 X129.181 Y101.963 E.01507
G1 X129.304 Y102.415 E.01469
G1 X129.522 Y102.846 E.01514
G1 X129.816 Y103.221 E.01494
G1 X130.18 Y103.533 E.01503
G1 X130.591 Y103.766 E.01481
G1 X131.047 Y103.917 E.01506
G1 X131.526 Y103.971 E.01511
G1 X131.992 Y103.938 E.01465
G1 X132.457 Y103.809 E.01513
G1 X132.882 Y103.594 E.01493
G1 X133.26 Y103.294 E.01513
G1 X133.565 Y102.945 E.01453
G1 X133.805 Y102.518 E.01536
G1 X133.949 Y102.075 E.01461
G1 X134.01 Y101.579 E.01567
G1 X133.976 Y101.125 E.01427
G1 X133.847 Y100.661 E.0151
G1 X133.631 Y100.233 E.01503
G1 X133.333 Y99.853 E.01514
G1 X132.93 Y99.518 E.01643
G1 X133.476 Y99.624 E.01744
G1 X134.015 Y99.77 E.01751
G1 X134.61 Y99.975 E.01973
G1 X135.199 Y100.223 E.02004
G1 X135.417 Y100.34 E.00776
G1 X132.817 Y114.623 E.45519
G1 X132.375 Y114.804 E.01498
M73 P4 R16
M73 Q4 S17
G1 X131.709 Y114.916 E.02118
G1 X131.215 Y114.912 E.01549
G1 X130.696 Y114.812 E.01657
G1 X130.176 Y114.606 E.01754
G1 X127.619 Y100.477 E.4502
M204 S1000
G1 X127.189 Y100.217 F10800
M204 S800
;TYPE:External perimeter
G1 F1200
G1 X127.841 Y99.863 E.02326
G1 X128.541 Y99.565 E.02385
G1 X129.027 Y99.41 E.01599
G1 X129.594 Y99.258 E.01841
G1 X130.122 Y99.145 E.01693
;WIDTH:0.467075
G1 X130.414 Y99.134 E.01031
;WIDTH:0.514151
G1 X130.706 Y99.123 E.01145
G1 X131.216 Y99.063 E.02012
;WIDTH:0.472078
G1 X132.272 Y99.073 E.03768
;WIDTH:0.446039
G1 X132.545 Y99.083 E.00916
;WIDTH:0.419999
G1 X133.051 Y99.155 E.01603
G1 X133.564 Y99.258 E.01641
G1 X134.129 Y99.41 E.01835
G1 X134.755 Y99.627 E.02077
G1 X135.377 Y99.891 E.02119
G1 X135.837 Y100.137 E.01636
G1 X133.152 Y114.89 E.47017
G1 X132.631 Y115.114 E.01778
M73 Q4 S16
G1 X132.127 Y115.253 E.01639
G1 X131.627 Y115.303 E.01576
G1 X131.052 Y115.266 E.01807
G1 X130.331 Y115.091 E.02326
G1 X129.839 Y114.862 E.01702
G1 X127.2 Y100.276 E.46476
M204 S1000
;WIPE_START
G1 F8640
G1 X127.189 Y100.217 E-.01386
G1 X127.841 Y99.863 E-.17131
G1 X128.541 Y99.565 E-.17567
