; generated by PrusaSlicer 2.7.0+win64 on 2024-03-01 at 10:08:47 UTC


;
;
; 

; external perimeters extrusion width = 0.45mm
; perimeters extrusion width = 0.45mm
; infill extrusion width = 0.45mm
; solid infill extrusion width = 0.45mm
; top infill extrusion width = 0.40mm
; first layer extrusion width = 0.42mm

M73 P0 R263
M73 Q0 S265
M201 X1000 Y1000 Z200 E5000 ; sets maximum accelerations, mm/sec^2
M203 X200 Y200 Z12 E120 ; sets maximum feedrates, mm / sec
M204 S1250 T1250 ; sets acceleration (S) and retract acceleration (R), mm/sec^2
M205 X8.00 Y8.00 Z0.40 E4.50 ; sets the jerk limits, mm/sec
M205 S0 T0 ; sets the minimum extruding and travel feed rate, mm/sec

; printing object clips_structure_v01.stl id:0 copy 0
; stop printing object clips_structure_v01.stl id:0 copy 0
; printing object clips_structure_v01.stl id:0 copy 1
; stop printing object clips_structure_v01.stl id:0 copy 1
; printing object clips_structure_v01.stl id:0 copy 2
; stop printing object clips_structure_v01.stl id:0 copy 2
; printing object clips_structure_v01.stl id:0 copy 3
; stop printing object clips_structure_v01.stl id:0 copy 3
; printing object clips_structure_v01.stl id:0 copy 4
; stop printing object clips_structure_v01.stl id:0 copy 4
; printing object clips_structure_v01.stl id:0 copy 5
; stop printing object clips_structure_v01.stl id:0 copy 5

;TYPE:Custom
M862.3 P "MK3S" ; printer model check
M862.1 P0.4 ; nozzle diameter check
M115 U3.13.2 ; tell printer latest fw version
G90 ; use absolute coordinates
M83 ; extruder relative mode
M104 S215 ; set extruder temp
M140 S75 ; set bed temp
M190 S75 ; wait for bed temp
M109 S215 ; wait for extruder temp
G28 W ; home all without mesh bed level
G80 X11.7644 Y22.4336 W226.471 H165.133 ; mesh bed levelling

G1 Z0.2 F720
G1 Y-3 F1000 ; go outside print area
G92 E0
G1 X60 E9 F1000 ; intro line
G1 X100 E12.5 F1000 ; intro line

G92 E0
M221 S95

; Don't change E values below. Excessive value can damage the printer.

M907 E538 ; set extruder motor current
G21 ; set units to millimeters
G90 ; use absolute coordinates
M83 ; use relative distances for extrusion
M900 K0.08 ; Filament gcode LA 1.5
M900 K45 ; Filament gcode LA 1.0

M107
;LAYER_CHANGE
;Z:0.2
;HEIGHT:0.2
;BEFORE_LAYER_CHANGE
G92 E0.0
;0.2


G1 E-.8 F2100
G1 Z.2 F720
;AFTER_LAYER_CHANGE
;0.2
G1 X14.497 Y23.2 F10800
G1 Z.2 F720
G1 E.8 F2100
M204 S800
;TYPE:Skirt/Brim
;WIDTH:0.42
G1 F1200
G1 X15.238 Y22.878 E.02533
G1 X16.015 Y22.685 E.0251
G1 X16.781 Y22.622 E.0241
G1 X233.211 Y22.622 E6.78601
G1 X234.127 Y22.71 E.02885
G1 X235.058 Y22.989 E.03047
G1 X235.908 Y23.444 E.03023
G1 X236.601 Y24.01 E.02805
G1 X237.22 Y24.754 E.03035
G1 X237.648 Y25.534 E.0279
G1 X237.942 Y26.455 E.03031
G1 X238.045 Y27.336 E.02781
G1 X238.047 Y182.582 E4.86763
G1 X237.908 Y183.693 E.03511
G1 X237.545 Y184.687 E.03318
G1 X236.93 Y185.633 E.03538
G1 X236.112 Y186.411 E.0354
G1 X235.5 Y186.802 E.02277
G1 X234.76 Y187.123 E.02529
G1 X233.985 Y187.315 E.02503
G1 X233.211 Y187.378 E.02435
G1 X16.789 Y187.378 E6.78576
G1 X15.713 Y187.257 E.03395
G1 X14.643 Y186.876 E.03561
G1 X13.698 Y186.261 E.03535
G1 X12.922 Y185.446 E.03528
G1 X12.495 Y184.766 E.02518
G1 X12.209 Y184.093 E.02293
G1 X12.017 Y183.322 E.02491
G1 X11.953 Y182.55 E.02429
G1 X11.953 Y27.458 E4.8628
G1 X12.075 Y26.38 E.03402
M73 P0 R262
G1 X12.455 Y25.314 E.03548
G1 X13.065 Y24.373 E.03516
G1 X13.885 Y23.591 E.03553
G1 X14.447 Y23.232 E.02091
M204 S1000
; printing object clips_structure_v01.stl id:0 copy 0
;WIPE_START
G1 F8640
G1 X14.497 Y23.2 E-.01371
G1 X15.238 Y22.878 E-.18656
G1 X16.015 Y22.685 E-.18486
G1 X16.781 Y22.622 E-.17747
G1 X17.809 Y22.622 E-.2374
;WIPE_END
G1 Z.6 F720
G1 X120.162 Y73.402 F10800
G1 Z.2 F720
G1 E.8 F2100
M204 S800
;TYPE:Perimeter
;WIDTH:0.419999
G1 F1200
G1 X119.987 Y73.483 E.00605
G1 X119.497 Y73.534 E.01545
G1 X118.994 Y73.451 E.01598
G1 X118.558 Y73.212 E.01559
G1 X118.198 Y72.864 E.0157
G1 X117.973 Y72.419 E.01563
G1 X117.871 Y71.91 E.01628
G1 X117.869 Y64.456 E.23371
G1 X117.769 Y63.675 E.02469
G1 X117.586 Y63.136 E.01785
G1 X117.325 Y62.661 E.01699
G1 X116.988 Y62.237 E.01698
G1 X116.586 Y61.875 E.01696
G1 X116.129 Y61.584 E.01699
G1 X115.63 Y61.374 E.01697
G1 X115.2 Y61.265 E.01391
G1 X114.671 Y61.214 E.01666
G1 X114.131 Y61.252 E.01697
G1 X113.617 Y61.374 E.01656
G1 X113.094 Y61.6 E.01786
G1 X112.459 Y62.039 E.0242
G1 X112.107 Y62.411 E.01606
G1 X111.808 Y62.846 E.01655
G1 X111.579 Y63.337 E.01699
G1 X111.435 Y63.859 E.01698
G1 X111.379 Y64.368 E.01606
G1 X111.378 Y71.765 E.23193
G1 X111.341 Y72.212 E.01406
G1 X111.151 Y72.708 E.01665
G1 X110.823 Y73.109 E.01624
G1 X110.289 Y73.433 E.01958
G1 X109.842 Y73.526 E.01432
G1 X98.844 Y68.302 E.38176
G1 X97.797 Y67.821 E.03613
M73 Q0 S264
G1 X96.728 Y67.362 E.03648
G1 X95.603 Y66.91 E.03801
G1 X94.563 Y66.52 E.03483
G1 X93.29 Y66.072 E.04231
G1 X92.092 Y65.681 E.03951
G1 X90.867 Y65.31 E.04013
G1 X89.629 Y64.962 E.04032
G1 X88.346 Y64.628 E.04157
G1 X85.731 Y64.026 E.08414
G1 X83.045 Y63.51 E.08576
G1 X80.293 Y63.081 E.08733
G1 X77.489 Y62.74 E.08857
G1 X74.643 Y62.489 E.08958
G1 X71.769 Y62.329 E.09025
G1 X68.879 Y62.261 E.09064
G1 X66.004 Y62.283 E.09015
G1 X63.121 Y62.398 E.09047
G1 X60.26 Y62.604 E.08994
G1 X57.433 Y62.9 E.08912
G1 X54.654 Y63.285 E.08797
G1 X51.933 Y63.758 E.08659
G1 X49.269 Y64.319 E.08536
G1 X47.974 Y64.63 E.04176
G1 X46.712 Y64.959 E.04089
G1 X45.452 Y65.313 E.04104
G1 X44.238 Y65.681 E.03977
G1 X43.04 Y66.072 E.03951
G1 X41.096 Y66.772 E.06478
G1 X39.602 Y67.362 E.05036
G1 X38.533 Y67.821 E.03648
G1 X37.479 Y68.305 E.03637
G1 X26.488 Y73.526 E.38152
G1 X26.253 Y73.492 E.00744
G1 X25.921 Y73.389 E.0109
G1 X25.478 Y73.086 E.01683
G1 X25.164 Y72.675 E.01622
G1 X24.987 Y72.193 E.0161
G1 X24.952 Y71.843 E.01103
G1 X24.951 Y64.368 E.23437
G1 X24.887 Y63.81 E.01761
G1 X24.734 Y63.287 E.01709
G1 X24.515 Y62.832 E.01583
G1 X24.223 Y62.411 E.01606
G1 X23.825 Y62.004 E.01785
G1 X23.186 Y61.57 E.02422
G1 X22.713 Y61.374 E.01605
G1 X22.283 Y61.265 E.01391
G1 X21.754 Y61.214 E.01666
G1 X21.214 Y61.252 E.01697
G1 X20.7 Y61.374 E.01656
G1 X20.201 Y61.584 E.01697
G1 X19.744 Y61.875 E.01699
G1 X19.342 Y62.237 E.01696
G1 X19.005 Y62.661 E.01698
G1 X18.744 Y63.136 E.01699
G1 X18.561 Y63.674 E.01782
G1 X18.461 Y64.456 E.02472
G1 X18.459 Y71.761 E.22904
G1 X18.381 Y72.368 E.01919
G1 X18.194 Y72.771 E.01393
G1 X17.907 Y73.11 E.01393
G1 X17.54 Y73.362 E.01396
G1 X17.121 Y73.507 E.0139
G1 X16.678 Y73.537 E.01392
G1 X16.242 Y73.449 E.01395
G1 X15.846 Y73.248 E.01392
G1 X15.516 Y72.95 E.01394
G1 X15.274 Y72.571 E.0141
G1 X15.153 Y72.203 E.01215
G1 X15.117 Y71.843 E.01134
G1 X15.118 Y27.571 E1.38812
G1 X15.197 Y26.964 E.01919
G1 X15.384 Y26.561 E.01393
G1 X15.668 Y26.226 E.01377
G1 X16.1 Y25.94 E.01624
G1 X16.402 Y25.835 E.01002
G1 X16.89 Y25.801 E.01534
G1 X17.389 Y25.901 E.01596
G1 X17.816 Y26.153 E.01555
G1 X18.13 Y26.464 E.01386
G1 X18.357 Y26.913 E.01577
G1 X18.459 Y27.422 E.01628
G1 X18.461 Y34.877 E.23375
G1 X18.564 Y35.68 E.02538
G1 X18.744 Y36.196 E.01713
G1 X19.005 Y36.671 E.01699
G1 X19.342 Y37.095 E.01698
G1 X19.744 Y37.457 E.01696
G1 X20.201 Y37.748 E.01699
G1 X20.7 Y37.958 E.01697
G1 X21.13 Y38.067 E.01391
G1 X21.659 Y38.118 E.01666
G1 X22.199 Y38.08 E.01697
G1 X22.713 Y37.958 E.01656
G1 X23.235 Y37.732 E.01784
G1 X23.871 Y37.293 E.02423
G1 X24.223 Y36.921 E.01606
G1 X24.522 Y36.486 E.01655
G1 X24.751 Y35.996 E.01696
G1 X24.895 Y35.474 E.01698
G1 X24.951 Y34.964 E.01609
G1 X24.952 Y27.568 E.2319
G1 X24.987 Y27.14 E.01346
G1 X25.237 Y26.539 E.02041
G1 X25.589 Y26.172 E.01594
G1 X25.905 Y25.953 E.01205
G1 X26.469 Y25.797 E.01835
G1 X37.486 Y31.03 E.38242
G1 X38.533 Y31.511 E.03613
G1 X39.602 Y31.971 E.03649
G1 X40.727 Y32.422 E.038
G1 X41.767 Y32.812 E.03483
G1 X43.04 Y33.26 E.04231
G1 X44.238 Y33.651 E.03951
G1 X45.463 Y34.022 E.04013
G1 X46.701 Y34.371 E.04033
G1 X47.984 Y34.705 E.04157
G1 X50.599 Y35.306 E.08413
G1 X53.285 Y35.822 E.08576
G1 X56.037 Y36.251 E.08733
G1 X58.841 Y36.592 E.08857
G1 X61.687 Y36.843 E.08958
G1 X64.561 Y37.003 E.09025
G1 X67.451 Y37.072 E.09064
G1 X70.326 Y37.049 E.09015
G1 X73.209 Y36.934 E.09047
G1 X76.07 Y36.729 E.08993
G1 X78.897 Y36.433 E.08912
G1 X81.676 Y36.047 E.08797
G1 X84.397 Y35.575 E.08659
G1 X87.061 Y35.013 E.08537
G1 X88.356 Y34.702 E.04176
G1 X89.618 Y34.373 E.04089
G1 X90.878 Y34.019 E.04104
G1 X92.092 Y33.651 E.03977
G1 X93.29 Y33.26 E.03951
G1 X94.472 Y32.846 E.03927
G1 X95.603 Y32.422 E.03787
G1 X96.728 Y31.971 E.038
G1 X97.796 Y31.511 E.03646
G1 X98.851 Y31.027 E.03639
G1 X109.837 Y25.808 E.38135
G1 X110.196 Y25.866 E.0114
G1 X110.652 Y26.087 E.01589
G1 X110.871 Y26.285 E.00926
G1 X111.142 Y26.607 E.0132
G1 X111.303 Y26.991 E.01306
G1 X111.378 Y27.489 E.01579
G1 X111.379 Y34.964 E.23437
G1 X111.443 Y35.522 E.01761
G1 X111.596 Y36.045 E.01709
G1 X111.815 Y36.5 E.01583
G1 X112.107 Y36.921 E.01606
G1 X112.506 Y37.328 E.01787
G1 X113.144 Y37.763 E.02421
G1 X113.617 Y37.958 E.01604
G1 X114.047 Y38.067 E.01391
G1 X114.576 Y38.118 E.01666
G1 X115.116 Y38.08 E.01697
G1 X115.63 Y37.958 E.01656
G1 X116.152 Y37.732 E.01784
G1 X116.742 Y37.328 E.02242
G1 X117.14 Y36.921 E.01785
G1 X117.439 Y36.486 E.01655
G1 X117.668 Y35.996 E.01696
G1 X117.812 Y35.474 E.01698
G1 X117.868 Y34.964 E.01609
G1 X117.869 Y27.59 E.23121
G1 X117.92 Y27.063 E.0166
G1 X118.133 Y26.561 E.0171
G1 X118.506 Y26.148 E.01745
G1 X118.993 Y25.881 E.01741
G1 X119.402 Y25.803 E.01306
G1 X119.869 Y25.821 E.01465
G1 X120.316 Y25.986 E.01494
G1 X120.701 Y26.258 E.01478
G1 X120.997 Y26.66 E.01565
G1 X121.164 Y27.066 E.01376
G1 X121.212 Y27.533 E.01472
G1 X121.212 Y71.761 E1.38674
G1 X121.133 Y72.368 E.01919
G1 X120.946 Y72.771 E.01393
G1 X120.662 Y73.106 E.01377
G1 X120.345 Y73.316 E.01192
G1 X120.216 Y73.376 E.00446
M204 S1000
G1 X120.318 Y73.75 F10800
M204 S800
;TYPE:External perimeter
G1 F1200
G1 X120.222 Y73.798 E.00337
G1 X119.678 Y73.917 E.01746
G1 X119.268 Y73.904 E.01286
G1 X118.869 Y73.809 E.01286
G1 X118.498 Y73.636 E.01283
G1 X118.168 Y73.393 E.01285
G1 X117.893 Y73.089 E.01285
G1 X117.684 Y72.736 E.01286
G1 X117.549 Y72.35 E.01282
G1 X117.494 Y71.936 E.01309
G1 X117.492 Y64.456 E.23453
G1 X117.395 Y63.725 E.02312
G1 X117.232 Y63.265 E.0153
G1 X116.997 Y62.848 E.01501
G1 X116.696 Y62.476 E.015
G1 X116.337 Y62.159 E.01502
G1 X115.931 Y61.906 E.015
G1 X115.488 Y61.724 E.01502
G1 X115.113 Y61.632 E.01211
G1 X114.639 Y61.59 E.01492
G1 X114.162 Y61.628 E.015
G1 X113.771 Y61.719 E.01259
G1 X113.308 Y61.911 E.01572
G1 X112.719 Y62.315 E.02239
G1 X112.449 Y62.598 E.01226
G1 X112.162 Y62.986 E.01513
G1 X111.953 Y63.413 E.01491
G1 X111.816 Y63.872 E.01502
G1 X111.756 Y64.368 E.01567
G1 X111.755 Y71.862 E.23497
G1 X111.665 Y72.446 E.01853
G1 X111.471 Y72.912 E.01583
G1 X111.079 Y73.392 E.01943
G1 X110.689 Y73.65 E.01466
G1 X110.364 Y73.807 E.01132
G1 X109.783 Y73.916 E.01853
G1 X98.689 Y68.646 E.3851
G1 X97.65 Y68.168 E.03586
G1 X96.577 Y67.707 E.03662
G1 X95.472 Y67.264 E.03733
G1 X94.431 Y66.873 E.03487
G1 X93.175 Y66.431 E.04175
G1 X91.982 Y66.042 E.03934
G1 X90.769 Y65.674 E.03974
G1 X89.527 Y65.325 E.04045
G1 X88.258 Y64.994 E.04112
G1 X85.66 Y64.397 E.08358
G1 X82.993 Y63.884 E.08515
G1 X80.248 Y63.456 E.08711
G1 X77.455 Y63.116 E.08822
G1 X74.628 Y62.866 E.08898
G1 X71.766 Y62.706 E.08988
G1 X68.882 Y62.638 E.09045
G1 X66.007 Y62.661 E.09015
G1 X63.136 Y62.775 E.09009
G1 X60.287 Y62.98 E.08956
G1 X57.472 Y63.275 E.08875
G1 X54.705 Y63.658 E.08758
G1 X51.998 Y64.129 E.08615
G1 X49.357 Y64.686 E.08463
G1 X48.069 Y64.995 E.04153
G1 X46.807 Y65.324 E.04089
G1 X45.561 Y65.674 E.04058
G1 X44.348 Y66.042 E.03974
G1 X43.157 Y66.43 E.03927
G1 X41.234 Y67.123 E.06409
G1 X39.753 Y67.707 E.04992
G1 X38.68 Y68.168 E.03662
G1 X37.643 Y68.645 E.03579
G1 X26.547 Y73.916 E.38517
G1 X26.08 Y73.848 E.0148
G1 X25.66 Y73.674 E.01425
G1 X25.205 Y73.35 E.01751
G1 X24.829 Y72.858 E.01942
G1 X24.617 Y72.278 E.01936
G1 X24.575 Y71.862 E.01311
G1 X24.574 Y64.368 E.23497
G1 X24.52 Y63.903 E.01468
G1 X24.389 Y63.442 E.01503
G1 X24.183 Y63.012 E.01495
G1 X23.96 Y62.683 E.01246
G1 X23.611 Y62.315 E.0159
G1 X23.022 Y61.911 E.02239
G1 X22.572 Y61.724 E.01528
G1 X22.196 Y61.632 E.01214
G1 X21.722 Y61.59 E.01492
G1 X21.245 Y61.628 E.015
G1 X20.868 Y61.715 E.01213
G1 X20.427 Y61.891 E.01489
G1 X20.018 Y62.14 E.01501
G1 X19.656 Y62.453 E.015
G1 X19.351 Y62.822 E.01501
G1 X19.111 Y63.237 E.01503
G1 X18.935 Y63.725 E.01627
G1 X18.838 Y64.456 E.02312
G1 X18.836 Y71.933 E.23444
G1 X18.744 Y72.481 E.01742
G1 X18.514 Y72.976 E.01711
G1 X18.162 Y73.392 E.01709
G1 X17.712 Y73.701 E.01712
G1 X17.197 Y73.88 E.01709
G1 X16.652 Y73.917 E.01713
G1 X16.117 Y73.808 E.01712
G1 X15.63 Y73.562 E.01711
G1 X15.226 Y73.196 E.01709
G1 X14.931 Y72.734 E.01719
G1 X14.782 Y72.282 E.01492
G1 X14.74 Y71.862 E.01323
G1 X14.741 Y27.399 E1.3941
G1 X14.834 Y26.852 E.0174
G1 X15.063 Y26.357 E.0171
G1 X15.415 Y25.941 E.01709
G1 X15.931 Y25.599 E.01941
G1 X16.314 Y25.466 E.01271
G1 X16.72 Y25.411 E.01285
G1 X17.129 Y25.439 E.01285
G1 X17.525 Y25.547 E.01287
G1 X17.891 Y25.732 E.01286
G1 X18.325 Y26.115 E.01815
G1 X18.646 Y26.596 E.01813
G1 X18.781 Y26.982 E.01282
G1 X18.836 Y27.397 E.01313
G1 X18.838 Y34.876 E.2345
G1 X18.935 Y35.607 E.02312
G1 X19.098 Y36.067 E.0153
G1 X19.333 Y36.484 E.01501
G1 X19.634 Y36.857 E.01503
G1 X19.992 Y37.174 E.01499
G1 X20.399 Y37.427 E.01503
G1 X20.841 Y37.608 E.01498
G1 X21.217 Y37.7 E.01214
G1 X21.691 Y37.742 E.01492
G1 X22.168 Y37.705 E.015
G1 X22.559 Y37.613 E.01259
G1 X23.022 Y37.422 E.0157
G1 X23.611 Y37.017 E.02241
G1 X23.881 Y36.735 E.01224
G1 X24.168 Y36.346 E.01516
G1 X24.377 Y35.919 E.01491
G1 X24.514 Y35.461 E.01499
G1 X24.574 Y34.964 E.0157
G1 X24.575 Y27.568 E.2319
G1 X24.617 Y27.055 E.01614
G1 X24.832 Y26.469 E.01957
G1 X25.013 Y26.194 E.01032
G1 X25.47 Y25.766 E.01963
G1 X25.757 Y25.603 E.01035
G1 X26.311 Y25.442 E.01809
G1 X26.541 Y25.414 E.00726
G1 X37.641 Y30.687 E.38531
G1 X38.68 Y31.164 E.03585
G1 X39.753 Y31.625 E.03662
G1 X40.858 Y32.068 E.03733
G1 X41.899 Y32.459 E.03487
G1 X43.155 Y32.901 E.04175
G1 X44.348 Y33.29 E.03934
G1 X45.561 Y33.658 E.03974
G1 X46.803 Y34.008 E.04046
G1 X48.072 Y34.338 E.04111
G1 X50.67 Y34.936 E.08359
G1 X53.343 Y35.449 E.08534
G1 X56.082 Y35.877 E.08692
G1 X58.868 Y36.216 E.088
G1 X61.702 Y36.466 E.0892
G1 X64.564 Y36.626 E.08988
G1 X67.442 Y36.694 E.09026
G1 X70.323 Y36.672 E.09033
G1 X73.194 Y36.558 E.09009
G1 X76.043 Y36.353 E.08956
G1 X78.858 Y36.058 E.08875
G1 X81.625 Y35.674 E.08759
G1 X84.332 Y35.203 E.08615
G1 X86.973 Y34.646 E.08463
G1 X88.261 Y34.337 E.04153
G1 X89.523 Y34.009 E.04088
G1 X90.769 Y33.658 E.04059
G1 X91.982 Y33.29 E.03974
G1 X93.173 Y32.902 E.03927
G1 X94.34 Y32.493 E.03877
G1 X95.472 Y32.068 E.03791
G1 X96.577 Y31.625 E.03733
G1 X97.65 Y31.164 E.03662
G1 X98.687 Y30.688 E.03578
G1 X109.781 Y25.417 E.38511
G1 X110.31 Y25.503 E.0168
G1 X110.865 Y25.771 E.01932
G1 X111.272 Y26.139 E.0172
G1 X111.468 Y26.414 E.01059
G1 X111.665 Y26.885 E.01601
G1 X111.755 Y27.47 E.01856
G1 X111.756 Y34.964 E.23497
G1 X111.81 Y35.43 E.01471
G1 X111.941 Y35.89 E.015
G1 X112.147 Y36.321 E.01498
G1 X112.374 Y36.654 E.01264
G1 X112.719 Y37.017 E.0157
G1 X113.308 Y37.422 E.02241
G1 X113.758 Y37.608 E.01527
G1 X114.134 Y37.7 E.01214
G1 X114.608 Y37.742 E.01492
G1 X115.085 Y37.705 E.015
G1 X115.462 Y37.617 E.01214
G1 X115.939 Y37.422 E.01616
G1 X116.528 Y37.017 E.02241
G1 X116.865 Y36.664 E.0153
G1 X117.085 Y36.346 E.01212
G1 X117.294 Y35.919 E.01491
G1 X117.431 Y35.461 E.01499
G1 X117.491 Y34.964 E.0157
G1 X117.492 Y27.59 E.23121
G1 X117.528 Y27.166 E.01334
G1 X117.656 Y26.658 E.01643
G1 X117.92 Y26.218 E.01609
G1 X118.272 Y25.851 E.01594
G1 X118.721 Y25.589 E.0163
G1 X119.199 Y25.439 E.01571
G1 X119.779 Y25.431 E.01819
G1 X120.342 Y25.573 E.01821
G1 X120.774 Y25.836 E.01586
G1 X121.097 Y26.142 E.01395
G1 X121.346 Y26.512 E.01398
G1 X121.533 Y26.982 E.01586
G1 X121.589 Y27.533 E.01737
G1 X121.589 Y71.933 E1.39213
G1 X121.496 Y72.481 E.01743
G1 X121.267 Y72.976 E.0171
G1 X120.915 Y73.391 E.01706
G1 X120.554 Y73.631 E.01359
G1 X120.371 Y73.723 E.00642
M204 S1000
