; generated by PrusaSlicer 2.7.0+win64 on 2024-04-16 at 14:55:46 UTC


;
;
; 

; external perimeters extrusion width = 0.45mm
; perimeters extrusion width = 0.45mm
; infill extrusion width = 0.45mm
; solid infill extrusion width = 0.45mm
; top infill extrusion width = 0.40mm
; first layer extrusion width = 0.42mm

; external perimeters extrusion width = 0.45mm
; perimeters extrusion width = 0.45mm
; infill extrusion width = 0.45mm
; solid infill extrusion width = 0.45mm
; top infill extrusion width = 0.40mm
; first layer extrusion width = 0.42mm

; external perimeters extrusion width = 0.45mm
; perimeters extrusion width = 0.45mm
; infill extrusion width = 0.45mm
; solid infill extrusion width = 0.45mm
; top infill extrusion width = 0.40mm
; first layer extrusion width = 0.42mm

; external perimeters extrusion width = 0.45mm
; perimeters extrusion width = 0.45mm
; infill extrusion width = 0.45mm
; solid infill extrusion width = 0.45mm
; top infill extrusion width = 0.40mm
; first layer extrusion width = 0.42mm

; external perimeters extrusion width = 0.45mm
; perimeters extrusion width = 0.45mm
; infill extrusion width = 0.45mm
; solid infill extrusion width = 0.45mm
; top infill extrusion width = 0.40mm
; first layer extrusion width = 0.42mm

; external perimeters extrusion width = 0.45mm
; perimeters extrusion width = 0.45mm
; infill extrusion width = 0.45mm
; solid infill extrusion width = 0.45mm
; top infill extrusion width = 0.40mm
; first layer extrusion width = 0.42mm

M73 P0 R72
M73 Q0 S72
M201 X1000 Y1000 Z200 E5000 ; sets maximum accelerations, mm/sec^2
M203 X200 Y200 Z12 E120 ; sets maximum feedrates, mm / sec
M204 S1250 T1250 ; sets acceleration (S) and retract acceleration (R), mm/sec^2
M205 X8.00 Y8.00 Z0.40 E4.50 ; sets the jerk limits, mm/sec
M205 S0 T0 ; sets the minimum extruding and travel feed rate, mm/sec

; printing object clips_module_v05.stl id:4 copy 0
; stop printing object clips_module_v05.stl id:4 copy 0
; printing object clips_module_v05.stl id:3 copy 0
; stop printing object clips_module_v05.stl id:3 copy 0
; printing object clips_alim_v04.stl id:0 copy 0
; stop printing object clips_alim_v04.stl id:0 copy 0
; printing object clips_module_v05.stl id:2 copy 0
; stop printing object clips_module_v05.stl id:2 copy 0
; printing object clips_alim_v04.stl id:1 copy 0
; stop printing object clips_alim_v04.stl id:1 copy 0
; printing object clips_module_v05.stl id:5 copy 0
; stop printing object clips_module_v05.stl id:5 copy 0

;TYPE:Custom
M862.3 P "MK3S" ; printer model check
M862.1 P0.4 ; nozzle diameter check
M115 U3.13.2 ; tell printer latest fw version
G90 ; use absolute coordinates
M83 ; extruder relative mode
M104 S240 ; set extruder temp
M140 S85 ; set bed temp
M190 S85 ; wait for bed temp
M109 S240 ; wait for extruder temp
G28 W ; home all without mesh bed level
G80 X69.7327 Y35.7937 W88.2604 H100.78 ; mesh bed levelling

G1 Z0.2 F720
G1 Y-3 F1000 ; go outside print area
G92 E0
G1 X60 E9 F1000 ; intro line
G1 X100 E12.5 F1000 ; intro line

G92 E0
M221 S95

; Don't change E values below. Excessive value can damage the printer.

M907 E538 ; set extruder motor current
G21 ; set units to millimeters
G90 ; use absolute coordinates
M83 ; use relative distances for extrusion
M900 K0.08 ; Filament gcode LA 1.5
M900 K45 ; Filament gcode LA 1.0

M107
;LAYER_CHANGE
;Z:0.2
;HEIGHT:0.2
;BEFORE_LAYER_CHANGE
G92 E0.0
;0.2


G1 E-1 F2100
G1 Z.2 F720
;AFTER_LAYER_CHANGE
;0.2
G1 X70.425 Y42.613 F10800
G1 Z.2 F720
G1 E1 F2100
M204 S800
;TYPE:Skirt/Brim
;WIDTH:0.42
G1 F1200
G1 X71.161 Y41.939 E.03129
G1 X76.501 Y39.014 E.1909
G1 X77.393 Y38.766 E.02903
G1 X99.87 Y36.6 E.70802
G1 X119.357 Y35.983 E.61131
G1 X138.197 Y36.157 E.59074
M73 P0 R71
G1 X139.011 Y36.289 E.02586
G1 X139.763 Y36.673 E.02647
G1 X146.188 Y42.031 E.26231
G1 X157.046 Y52.75 E.47839
G1 X157.512 Y53.385 E.0247
G1 X157.752 Y54.071 E.02279
G1 X157.805 Y54.633 E.0177
G1 X156.883 Y116.911 E1.9529
G1 X156.28 Y118.459 E.05209
G1 X146.507 Y129.411 E.46023
G1 X146.071 Y129.794 E.0182
G1 X136.997 Y135.973 E.34421
G1 X135.659 Y136.385 E.0439
G1 X115.441 Y136.385 E.63392
G1 X114.103 Y135.973 E.0439
G1 X105.029 Y129.794 E.34421
G1 X104.594 Y129.411 E.01817
G1 X94.821 Y118.459 E.46023
G1 X94.456 Y117.915 E.02054
G1 X77.961 Y83.918 E1.18479
G1 X69.972 Y44.653 E1.25635
G1 X69.921 Y44.097 E.01751
G1 X69.999 Y43.516 E.01838
G1 X70.399 Y42.667 E.02943
M204 S1000
; printing object clips_module_v05.stl id:5 copy 0
;WIPE_START
G1 F8640
G1 X70.425 Y42.613 E-.01384
G1 X71.161 Y41.939 E-.23044
G1 X74.031 Y40.367 E-.75572
;WIPE_END
G1 Z.4 F720
G1 X74.58 Y45.601 F10800
G1 Z.2 F720
G1 E1 F2100
M204 S800
;TYPE:Perimeter
;WIDTH:0.419999
G1 F1200
G1 X74.463 Y45.752 E.00599
G1 X74.365 Y46.123 E.01203
G1 X74.375 Y46.34 E.00681
G1 X73.332 Y44.392 E.06928
G1 X77.606 Y42.061 E.15264
G1 X80.459 Y44.435 E.11637
;WIDTH:0.457241
G1 X80.631 Y44.603 E.00828
;WIDTH:0.494483
G1 X80.803 Y44.77 E.009
;WIDTH:0.534269
G1 X81.016 Y44.973 E.01202
;WIDTH:0.574054
G1 X81.229 Y45.176 E.01299
G1 X81.323 Y45.228 E.00474
;WIDTH:0.533197
G1 X81.417 Y45.279 E.00436
;WIDTH:0.49234
G1 X81.665 Y45.463 E.01154
;WIDTH:0.45617
G1 X81.914 Y45.646 E.01062
;WIDTH:0.419999
G1 X83.233 Y46.744 E.05381
G1 X82.885 Y48.952 E.07008
G1 X82.646 Y50.642 E.05352
G1 X82.431 Y52.346 E.05385
G1 X82.243 Y54.04 E.05344
G1 X82.079 Y55.748 E.0538
G1 X81.94 Y57.46 E.05386
G1 X81.766 Y60.256 E.08784
;WIDTH:0.464901
G1 X81.736 Y60.366 E.004
;WIDTH:0.509802
G1 X81.707 Y60.476 E.00442
;WIDTH:0.554704
G1 X81.678 Y60.587 E.00488
;WIDTH:0.599605
G1 X81.648 Y60.697 E.00528
G1 X81.61 Y62.115 E.06566
;WIDTH:0.574428
G1 X81.573 Y63.532 E.06265
;WIDTH:0.549251
G1 X81.572 Y63.548 E.00067
;WIDTH:0.548991
G1 X81.563 Y64.874 E.0558
;WIDTH:0.542723
G1 X81.563 Y64.889 E.00062
;WIDTH:0.562298
G1 X81.592 Y67.464 E.11121
;WIDTH:0.562716
G1 X81.593 Y67.483 E.00082
;WIDTH:0.588603
G1 X81.632 Y68.615 E.05139
;WIDTH:0.601065
G1 X81.65 Y68.995 E.01766
G1 X81.679 Y69.094 E.00479
;WIDTH:0.555799
G1 X81.708 Y69.192 E.00436
;WIDTH:0.510532
G1 X81.737 Y69.29 E.00397
;WIDTH:0.465266
G1 X81.766 Y69.389 E.00362
;WIDTH:0.419999
G1 X81.803 Y69.957 E.01785
G1 X82.022 Y72.268 E.07278
G1 X82.201 Y73.797 E.04827
G1 X83.278 Y80.744 E.22042
G1 X83.302 Y80.844 E.00322
G1 X83.555 Y81.248 E.01495
G1 X84.022 Y81.494 E.01655
G1 X89.717 Y81.494 E.17856
G1 X89.717 Y81.955 E.01445
G1 X89.717 Y82.416 E.01445
G1 X81.002 Y82.415 E.27325
G1 X81.002 Y69.413 E.40767
;WIDTH:0.465266
G1 X81.025 Y69.313 E.0036
;WIDTH:0.510532
G1 X81.047 Y69.213 E.00398
;WIDTH:0.555799
G1 X81.07 Y69.113 E.00438
;WIDTH:0.601065
G1 X81.092 Y69.014 E.00471
G1 X81.086 Y68.627 E.01796
;WIDTH:0.588603
G1 X81.073 Y67.495 E.05137
;WIDTH:0.562716
G1 X81.073 Y67.468 E.00117
;WIDTH:0.562298
G1 X81.063 Y64.879 E.11181
;WIDTH:0.548991
G1 X81.066 Y63.546 E.05609
;WIDTH:0.549251
G1 X81.067 Y63.523 E.00097
;WIDTH:0.574428
G1 X81.079 Y62.105 E.06267
;WIDTH:0.599605
G1 X81.092 Y60.687 E.06564
G1 X81.069 Y60.573 E.00538
;WIDTH:0.554704
G1 X81.047 Y60.46 E.0049
;WIDTH:0.509802
G1 X81.024 Y60.346 E.00451
;WIDTH:0.464901
G1 X81.002 Y60.232 E.00407
;WIDTH:0.419999
G1 X81.002 Y46.074 E.44391
;WIDTH:0.45617
G1 X80.965 Y45.901 E.00608
;WIDTH:0.49234
G1 X80.929 Y45.728 E.0066
;WIDTH:0.533197
G1 X80.885 Y45.631 E.00434
;WIDTH:0.574054
G1 X80.841 Y45.533 E.00474
G1 X80.633 Y45.348 E.01229
;WIDTH:0.564983
G1 X80.476 Y45.317 E.00695
;WIDTH:0.516655
G1 X80.319 Y45.285 E.00631
;WIDTH:0.468327
G1 X80.163 Y45.253 E.00563
;WIDTH:0.419999
G1 X75.185 Y45.254 E.15608
G1 X74.915 Y45.323 E.00874
G1 X74.632 Y45.535 E.01109
G1 X74.617 Y45.554 E.00076
M204 S1000
G1 X74.864 Y45.832 F10800
M204 S800
;TYPE:External perimeter
G1 F1200
G1 X74.757 Y46.018 E.00673
G1 X74.755 Y46.35 E.01041
;WIDTH:0.449854
G1 X74.758 Y46.694 E.01164
;WIDTH:0.479708
G1 X74.762 Y47.037 E.01246
G1 X74.849 Y47.459 E.01565
;WIDTH:0.453445
G1 X74.937 Y47.881 E.01471
;WIDTH:0.427181
G1 X74.937 Y48.594 E.02278
G1 X74.543 Y47.851 E.02687
;WIDTH:0.451862
G1 X74.269 Y46.971 E.03134
G1 X74.041 Y46.518 E.01724
;WIDTH:0.419999
G1 X72.823 Y44.24 E.08099
G1 X77.65 Y41.608 E.17238
G1 X83.639 Y46.591 E.24428
G1 X83.257 Y49.014 E.07691
G1 X83.019 Y50.697 E.05329
G1 X82.806 Y52.387 E.05341
G1 X82.618 Y54.084 E.05353
G1 X82.454 Y55.786 E.05361
G1 X82.316 Y57.494 E.05373
G1 X82.115 Y60.714 E.10116
G1 X82.014 Y63.548 E.08891
G1 X82.001 Y64.879 E.04173
G1 X82.041 Y67.457 E.08084
G1 X82.093 Y68.594 E.03569
G1 X82.179 Y69.921 E.04169
G1 X82.397 Y72.233 E.07281
G1 X82.574 Y73.739 E.04754
G1 X83.65 Y80.687 E.22045
G1 X83.866 Y81.035 E.01284
G1 X84.022 Y81.117 E.00553
G1 X90.094 Y81.117 E.19038
G1 X90.094 Y81.955 E.02627
G1 X90.094 Y82.793 E.02627
G1 X80.625 Y82.792 E.29689
G1 X80.625 Y46.074 E1.15127
G1 X80.591 Y45.966 E.00355
G1 X80.436 Y45.757 E.00816
G1 X80.163 Y45.63 E.00944
G1 X75.185 Y45.631 E.15608
G1 X75.095 Y45.654 E.00291
G1 X74.912 Y45.795 E.00724
M204 S1000
;WIPE_START
G1 F8640
G1 X74.864 Y45.832 E-.01399
G1 X74.757 Y46.018 E-.04955
G1 X74.755 Y46.35 E-.07666
;WIPE_END
G1 E-.8598 F2100
G1 Z.4 F720
G1 X78.827 Y43.298 F10800
G1 Z.2 F720
G1 E1 F2100
M204 S800
;TYPE:Solid infill
;WIDTH:0.442767
G1 F1200
G1 X80.455 Y44.941 E.0769
G1 X80.17 Y44.914 E.00952
G1 X79.877 Y44.914 E.00974
G1 X77.48 Y42.517 E.1127
G1 X77.114 Y42.716 E.01385
G1 X79.312 Y44.914 E.10335
G1 X78.747 Y44.914 E.01878
G1 X76.748 Y42.916 E.09397
G1 X76.382 Y43.115 E.01385
G1 X78.181 Y44.914 E.08459
G1 X77.616 Y44.914 E.01878
G1 X76.016 Y43.315 E.07521
G1 X75.65 Y43.514 E.01385
G1 X77.05 Y44.915 E.06585
G1 X76.485 Y44.915 E.01878
G1 X75.284 Y43.714 E.05647
G1 X74.918 Y43.914 E.01387
G1 X75.92 Y44.915 E.04709
G1 X75.354 Y44.915 E.01882
G1 X74.553 Y44.113 E.03769
G1 X74.187 Y44.313 E.01387
G1 X74.866 Y44.992 E.03193
G1 X74.764 Y45.017 E.00349
G1 X74.509 Y45.2 E.01044
G1 X73.696 Y44.387 E.03823
M204 S1000
;WIPE_START
G1 F8640
G1 X74.509 Y45.2 E-.26548
G1 X74.764 Y45.017 E-.07247
G1 X74.866 Y44.992 E-.02425
G1 X74.187 Y44.313 E-.22172
G1 X74.553 Y44.113 E-.09631
G1 X75.354 Y44.915 E-.26173
G1 X75.605 Y44.915 E-.05804
;WIPE_END
G1 Z.4 F720
G1 X81.087 Y45.628 F10800
G1 Z.2 F720
G1 E1 F2100
M204 S800
;WIDTH:0.423648
G1 F1200
G1 X82.796 Y47.338 E.07654
G1 X82.723 Y47.803 E.0149
G1 X81.341 Y46.421 E.06187
G1 X81.341 Y46.96 E.01706
G1 X82.649 Y48.268 E.05856
G1 X82.576 Y48.733 E.0149
G1 X81.341 Y47.498 E.05529
G1 X81.341 Y48.037 E.01706
G1 X82.507 Y49.202 E.05218
G1 X82.44 Y49.674 E.01509
G1 X81.341 Y48.575 E.0492
G1 X81.341 Y49.113 E.01703
G1 X82.373 Y50.145 E.0462
G1 X82.307 Y50.617 E.01509
G1 X81.341 Y49.652 E.04323
G1 X81.341 Y50.19 E.01703
G1 X82.247 Y51.096 E.04056
G1 X82.186 Y51.574 E.01526
G1 X81.341 Y50.729 E.03783
G1 X81.341 Y51.267 E.01703
G1 X82.126 Y52.052 E.03514
G1 X82.069 Y52.533 E.01533
G1 X81.341 Y51.806 E.03257
G1 X81.341 Y52.344 E.01703
G1 X82.015 Y53.018 E.03018
G1 X81.961 Y53.503 E.01545
G1 X81.341 Y52.882 E.02778
G1 X81.341 Y53.421 E.01706
G1 X81.908 Y53.987 E.02536
G1 X81.86 Y54.478 E.01562
G1 X81.341 Y53.959 E.02324
G1 X81.341 Y54.498 E.01706
G1 X81.813 Y54.97 E.02113
G1 X81.766 Y55.461 E.01561
G1 X81.341 Y55.036 E.01903
G1 X81.341 Y55.575 E.01706
G1 X81.722 Y55.955 E.01704
G1 X81.682 Y56.453 E.01582
G1 X81.341 Y56.113 E.01524
G1 X81.341 Y56.652 E.01706
G1 X81.641 Y56.951 E.01341
G1 X81.601 Y57.45 E.01585
G1 X81.341 Y57.19 E.01164
G1 X81.341 Y57.728 E.01703
G1 X81.569 Y57.956 E.01021
G1 X81.538 Y58.463 E.01608
G1 X81.341 Y58.267 E.0088
G1 X81.341 Y58.805 E.01703
G1 X81.506 Y58.97 E.00739
G1 X81.474 Y59.477 E.01608
G1 X81.341 Y59.344 E.00595
G1 X81.341 Y59.882 E.01703
G1 X81.603 Y60.143 E.01171
M204 S1000
;WIPE_START
G1 F8640
G1 X81.341 Y59.882 E-.08539
G1 X81.341 Y59.344 E-.12423
G1 X81.474 Y59.477 E-.04343
G1 X81.506 Y58.97 E-.1173
G1 X81.341 Y58.805 E-.05388
G1 X81.341 Y58.267 E-.12423
G1 X81.538 Y58.463 E-.06417
G1 X81.569 Y57.956 E-.11729
G1 X81.341 Y57.728 E-.07445
G1 X81.341 Y57.19 E-.12423
G1 X81.56 Y57.408 E-.0714
;WIPE_END
G1 Z.4 F720
G1 X81.638 Y70.011 F10800
G1 Z.2 F720
G1 E1 F2100
M204 S800
;WIDTH:0.426237
G1 F1200
G1 X81.341 Y69.714 E.01339
G1 X81.341 Y70.256 E.01728
G1 X81.507 Y70.421 E.00746
G1 X81.563 Y71.02 E.01918
G1 X81.341 Y70.798 E.01001
G1 X81.341 Y71.34 E.01728
G1 X81.62 Y71.619 E.01258
G1 X81.676 Y72.217 E.01914
G1 X81.341 Y71.882 E.0151
G1 X81.341 Y72.424 E.01728
G1 X81.746 Y72.829 E.01826
G1 X81.818 Y73.444 E.01974
G1 X81.341 Y72.967 E.0215
G1 X81.341 Y73.509 E.01728
G1 X81.9 Y74.067 E.02517
G1 X81.999 Y74.709 E.0207
G1 X81.341 Y74.051 E.02966
G1 X81.341 Y74.593 E.01728
G1 X82.099 Y75.35 E.03414
G1 X82.198 Y75.992 E.0207
G1 X81.341 Y75.135 E.03863
G1 X81.341 Y75.677 E.01728
G1 X82.297 Y76.633 E.04309
G1 X82.397 Y77.275 E.02071
G1 X81.341 Y76.219 E.0476
G1 X81.341 Y76.761 E.01728
G1 X82.496 Y77.916 E.05206
G1 X82.596 Y78.558 E.02071
G1 X81.341 Y77.303 E.05657
G1 X81.341 Y77.845 E.01728
G1 X82.695 Y79.199 E.06103
G1 X82.794 Y79.84 E.02067
G1 X81.341 Y78.387 E.06549
G1 X81.341 Y78.93 E.01731
G1 X83.097 Y80.685 E.07913
M204 S1000
;WIPE_START
G1 F8640
G1 X81.341 Y78.93 E-.57325
G1 X81.341 Y78.387 E-.12538
G1 X82.264 Y79.31 E-.30137
;WIPE_END
G1 Z.4 F720
G1 X88.955 Y81.664 F10800
G1 Z.2 F720
G1 E1 F2100
M204 S800
G1 F1200
G1 X89.367 Y82.076 E.01857
G1 X88.825 Y82.076 E.01728
G1 X88.582 Y81.834 E.01093
G1 X88.04 Y81.834 E.01728
G1 X88.283 Y82.076 E.01093
G1 X87.74 Y82.076 E.01731
G1 X87.498 Y81.834 E.01091
G1 X86.956 Y81.834 E.01728
G1 X87.198 Y82.076 E.01091
G1 X86.656 Y82.076 E.01728
G1 X86.414 Y81.834 E.01091
G1 X85.872 Y81.834 E.01728
G1 X86.114 Y82.076 E.01091
G1 X85.572 Y82.076 E.01728
G1 X85.33 Y81.834 E.01091
G1 X84.787 Y81.834 E.01731
G1 X85.03 Y82.076 E.01093
G1 X84.488 Y82.076 E.01728
G1 X84.076 Y81.664 E.01857
M204 S1000
G1 X84.115 Y82.246 F10800
M204 S800
G1 F1200
G1 X81.341 Y79.472 E.12504
G1 X81.341 Y80.014 E.01728
G1 X83.404 Y82.076 E.09297
G1 X82.861 Y82.076 E.01731
G1 X81.341 Y80.556 E.06851
G1 X81.341 Y81.098 E.01728
M73 P1 R71
G1 X82.319 Y82.076 E.04408
G1 X81.777 Y82.076 E.01728
G1 X81.172 Y81.47 E.02729
M204 S1000
;WIPE_START
G1 F8640
G1 X81.777 Y82.076 E-.19772
G1 X82.319 Y82.076 E-.12515
G1 X81.341 Y81.098 E-.31936
G1 X81.341 Y80.556 E-.12515
G1 X82.054 Y81.268 E-.23262
;WIPE_END
G1 Z.4 F720
M73 Q1 S72
G1 X86.215 Y57.602 F10800
G1 Z.2 F720
G1 E1 F2100
M204 S800
;TYPE:Perimeter
;WIDTH:0.419999
G1 F1200
G1 X86.611 Y57.386 E.01414
G1 X87.15 Y57.157 E.01836
G1 X87.745 Y56.953 E.01972
G1 X88.28 Y56.81 E.01736
G1 X88.835 Y56.695 E.01777
G1 X88.5 Y56.963 E.01345
G1 X88.268 Y57.229 E.01107
G1 X87.955 Y57.74 E.01879
G1 X87.806 Y58.193 E.01495
G1 X87.748 Y58.667 E.01497
G1 X87.787 Y59.147 E.0151
G1 X87.91 Y59.599 E.01469
G1 X88.128 Y60.03 E.01514
G1 X88.422 Y60.405 E.01494
G1 X88.786 Y60.716 E.01501
G1 X89.197 Y60.949 E.01481
G1 X89.653 Y61.1 E.01506
G1 X90.132 Y61.155 E.01512
G1 X90.598 Y61.122 E.01465
G1 X91.063 Y60.992 E.01514
G1 X91.489 Y60.778 E.01495
G1 X91.866 Y60.478 E.01511
G1 X92.171 Y60.129 E.01453
G1 X92.411 Y59.702 E.01536
G1 X92.555 Y59.258 E.01464
G1 X92.616 Y58.762 E.01567
G1 X92.582 Y58.308 E.01427
G1 X92.454 Y57.845 E.01506
G1 X92.237 Y57.416 E.01507
G1 X91.939 Y57.036 E.01514
G1 X91.536 Y56.701 E.01643
G1 X92.082 Y56.808 E.01745
G1 X92.621 Y56.953 E.0175
G1 X93.216 Y57.159 E.01974
G1 X93.805 Y57.407 E.02004
G1 X94.023 Y57.523 E.00774
G1 X91.423 Y71.807 E.45522
G1 X90.981 Y71.987 E.01496
G1 X90.315 Y72.099 E.02118
G1 X89.821 Y72.096 E.01549
G1 X89.302 Y71.995 E.01658
G1 X88.783 Y71.79 E.0175
G1 X86.225 Y57.661 E.45021
M204 S1000
G1 X85.795 Y57.401 F10800
M204 S800
;TYPE:External perimeter
G1 F1200
G1 X86.447 Y57.046 E.02328
G1 X87.147 Y56.749 E.02384
G1 X87.633 Y56.593 E.016
G1 X88.2 Y56.441 E.01841
G1 X88.728 Y56.329 E.01692
;WIDTH:0.467075
G1 X89.02 Y56.317 E.01031
;WIDTH:0.514151
G1 X89.312 Y56.306 E.01145
G1 X89.822 Y56.247 E.02012
;WIDTH:0.472078
G1 X90.878 Y56.256 E.03768
;WIDTH:0.446039
G1 X91.151 Y56.266 E.00916
;WIDTH:0.419999
G1 X91.657 Y56.339 E.01603
G1 X92.17 Y56.441 E.0164
G1 X92.735 Y56.594 E.01835
G1 X93.362 Y56.811 E.0208
G1 X93.983 Y57.074 E.02115
G1 X94.443 Y57.32 E.01636
G1 X91.758 Y72.073 E.47017
