; generated by PrusaSlicer 2.7.0+win64 on 2025-03-20 at 11:35:23 UTC


;
;
; 

; external perimeters extrusion width = 0.60mm
; perimeters extrusion width = 0.50mm
; infill extrusion width = 0.50mm
; solid infill extrusion width = 0.50mm
; top infill extrusion width = 0.45mm
; first layer extrusion width = 0.42mm

; external perimeters extrusion width = 0.60mm
; perimeters extrusion width = 0.50mm
; infill extrusion width = 0.50mm
; solid infill extrusion width = 0.50mm
; top infill extrusion width = 0.45mm
; first layer extrusion width = 0.42mm

; external perimeters extrusion width = 0.60mm
; perimeters extrusion width = 0.50mm
; infill extrusion width = 0.50mm
; solid infill extrusion width = 0.50mm
; top infill extrusion width = 0.45mm
; first layer extrusion width = 0.42mm

M73 P0 R66
M73 Q0 S66
M201 X1000 Y1000 Z200 E5000 ; sets maximum accelerations, mm/sec^2
M203 X200 Y200 Z12 E120 ; sets maximum feedrates, mm / sec
M204 S1250 T1250 ; sets acceleration (S) and retract acceleration (R), mm/sec^2
M205 X8.00 Y8.00 Z0.40 E4.50 ; sets the jerk limits, mm/sec
M205 S0 T0 ; sets the minimum extruding and travel feed rate, mm/sec

; printing object clips_module_a_v10.stl id:2 copy 0
; stop printing object clips_module_a_v10.stl id:2 copy 0
; printing object clips_module_a_v10.stl id:1 copy 0
; stop printing object clips_module_a_v10.stl id:1 copy 0
; printing object 13DrumBox.stl id:0 copy 0
; stop printing object 13DrumBox.stl id:0 copy 0

;TYPE:Custom
M862.3 P "MK3S" ; printer model check
M862.1 P0.4 ; nozzle diameter check
M115 U3.13.2 ; tell printer latest fw version
G90 ; use absolute coordinates
M83 ; extruder relative mode
M104 S215 ; set extruder temp
M140 S75 ; set bed temp
M190 S75 ; wait for bed temp
M109 S215 ; wait for extruder temp
G28 W ; home all without mesh bed level
G80 X68.7369 Y73.6145 W150.27 H59.2485 ; mesh bed levelling

G1 Z0.2 F720
G1 Y-3 F1000 ; go outside print area
G92 E0
G1 X60 E9 F1000 ; intro line
G1 X100 E12.5 F1000 ; intro line

G92 E0
M221 S95

; Don't change E values below. Excessive value can damage the printer.

M907 E538 ; set extruder motor current
G21 ; set units to millimeters
G90 ; use absolute coordinates
M83 ; use relative distances for extrusion
M900 K0.08 ; Filament gcode LA 1.5
M900 K45 ; Filament gcode LA 1.0

M107
;LAYER_CHANGE
;Z:0.2
;HEIGHT:0.2
;BEFORE_LAYER_CHANGE
G92 E0.0
;0.2


G1 E-.8 F2100
G1 Z.2 F720
;AFTER_LAYER_CHANGE
;0.2
G1 X70.155 Y78.97 F10800
G1 Z.2 F720
G1 E.8 F2100
M204 S800
;TYPE:Skirt/Brim
;WIDTH:0.42
G1 F1200
G1 X71.026 Y78.356 E.03341
G1 X71.903 Y78.03 E.02934
G1 X72.706 Y77.923 E.0254
G1 X174.728 Y73.805 E3.20143
G1 X182.998 Y73.839 E.2593
G1 X207.703 Y78.164 E.78639
G1 X208.974 Y78.824 E.0449
G1 X210.241 Y80.092 E.0562
G1 X210.882 Y81.26 E.04177
G1 X218.762 Y116.978 E1.14684
G1 X218.818 Y120.505 E.1106
G1 X218.426 Y121.812 E.04278
G1 X216.847 Y122.848 E.05921
G1 X160.016 Y132.665 E1.80829
G1 X72.802 Y132.674 E2.73453
G1 X71.649 Y132.496 E.03658
M73 P0 R65
G1 X70.673 Y132.034 E.03386
G1 X69.974 Y131.445 E.02866
G1 X69.36 Y130.574 E.03341
G1 X69.034 Y129.697 E.02934
G1 X68.925 Y128.798 E.02839
G1 X68.925 Y81.797 E1.47368
G1 X69.104 Y80.645 E.03655
G1 X69.566 Y79.669 E.03386
G1 X70.116 Y79.016 E.02677
M204 S1000
; printing object 13DrumBox.stl id:0 copy 0
;WIPE_START
G1 F8640
G1 X70.155 Y78.97 E-.01393
G1 X71.026 Y78.356 E-.24606
G1 X71.903 Y78.03 E-.21604
G1 X72.706 Y77.923 E-.18705
G1 X73.298 Y77.899 E-.13692
;WIPE_END
G1 Z.6 F720
G1 X160.244 Y81.275 F10800
G1 Z.2 F720
G1 E.8 F2100
M204 S800
;TYPE:Perimeter
;WIDTH:0.419999
G1 F1200
G1 X160.332 Y81.349 E.00361
G1 X160.452 Y81.554 E.00745
G1 X160.516 Y81.867 E.01002
G1 X160.516 Y128.664 E1.46728
G1 X160.462 Y129.046 E.0121
G1 X160.342 Y129.251 E.00745
G1 X160.159 Y129.405 E.0075
G1 X159.769 Y129.51 E.01266
G1 X72.936 Y129.51 E2.72258
G1 X72.554 Y129.456 E.0121
G1 X72.349 Y129.336 E.00745
G1 X72.195 Y129.154 E.00748
G1 X72.09 Y128.763 E.01269
G1 X72.09 Y81.932 E1.46835
G1 X72.144 Y81.55 E.0121
G1 X72.264 Y81.344 E.00747
G1 X72.446 Y81.191 E.00745
G1 X72.837 Y81.085 E.0127
G1 X159.67 Y81.085 E2.72258
G1 X159.884 Y81.11 E.00676
M73 P1 R65
M73 Q1 S65
G1 X160.156 Y81.201 E.00899
G1 X160.198 Y81.236 E.00171
M204 S1000
G1 X160.503 Y80.967 F10800
M204 S800
;TYPE:External perimeter
G1 F1200
G1 X160.741 Y81.249 E.01157
G1 X160.875 Y81.609 E.01204
G1 X160.893 Y81.867 E.00811
G1 X160.893 Y128.664 E1.46728
G1 X160.821 Y129.178 E.01627
G1 X160.634 Y129.498 E.01162
G1 X160.352 Y129.735 E.01155
G1 X160.135 Y129.816 E.00726
G1 X159.786 Y129.887 E.01117
G1 X72.936 Y129.887 E2.72312
G1 X72.422 Y129.815 E.01627
G1 X72.102 Y129.628 E.01162
G1 X71.864 Y129.346 E.01157
G1 X71.784 Y129.129 E.00725
G1 X71.713 Y128.78 E.01117
G1 X71.713 Y81.932 E1.46888
G1 X71.785 Y81.418 E.01627
G1 X71.971 Y81.098 E.01161
G1 X72.254 Y80.86 E.01159
G1 X72.471 Y80.78 E.00725
G1 X72.82 Y80.708 E.01117
G1 X159.67 Y80.708 E2.72312
G1 X160.184 Y80.78 E.01627
G1 X160.452 Y80.937 E.00974
M204 S1000
;WIPE_START
G1 F8640
G1 X160.503 Y80.967 E-.01366
G1 X160.741 Y81.249 E-.08521
G1 X160.875 Y81.609 E-.0887
G1 X160.893 Y81.867 E-.05972
G1 X160.893 Y84.261 E-.55271
;WIPE_END
G1 Z.6 F720
G1 X146.988 Y87.16 F10800
G1 Z.2 F720
G1 E.8 F2100
M204 S800
;TYPE:Perimeter
G1 F1200
G1 X146.957 Y87.143 E.00111
G1 X146.762 Y86.982 E.00793
G1 X146.384 Y86.534 E.01838
G1 X146.144 Y86.051 E.01691
G1 X146.046 Y85.66 E.01264
G1 X146.018 Y85.25 E.01289
G1 X146.064 Y84.842 E.01287
G1 X146.178 Y84.457 E.01259
G1 X146.355 Y84.105 E.01235
G1 X146.622 Y83.759 E.0137
G1 X147.07 Y83.382 E.01836
G1 X147.553 Y83.141 E.01692
G1 X147.944 Y83.043 E.01264
G1 X148.319 Y83.017 E.01179
G1 X148.762 Y83.061 E.01396
G1 X149.147 Y83.176 E.0126
G1 X149.499 Y83.352 E.01234
G1 X149.845 Y83.619 E.0137
G1 X150.222 Y84.067 E.01836
G1 X150.463 Y84.55 E.01692
G1 X150.561 Y84.941 E.01264
G1 X150.588 Y85.351 E.01288
G1 X150.543 Y85.759 E.01287
G1 X150.428 Y86.144 E.0126
G1 X150.252 Y86.496 E.01234
G1 X149.984 Y86.842 E.01372
G1 X149.537 Y87.22 E.01835
G1 X149.084 Y87.451 E.01594
G1 X148.663 Y87.558 E.01362
G1 X148.226 Y87.583 E.01372
G1 X147.866 Y87.545 E.01135
G1 X147.46 Y87.425 E.01327
G1 X147.041 Y87.189 E.01508
M204 S1000
G1 X147.135 Y86.804 F10800
M204 S800
;TYPE:External perimeter
G1 F1200
G1 X147.05 Y86.739 E.00336
G1 X146.673 Y86.291 E.01836
G1 X146.508 Y85.951 E.01185
G1 X146.422 Y85.626 E.01054
G1 X146.394 Y85.284 E.01076
G1 X146.428 Y84.942 E.01078
G1 X146.519 Y84.619 E.01052
G1 X146.663 Y84.323 E.01032
G1 X146.865 Y84.047 E.01072
G1 X147.313 Y83.67 E.01836
G1 X147.653 Y83.505 E.01185
G1 X147.978 Y83.419 E.01054
G1 X148.29 Y83.393 E.00982
G1 X148.662 Y83.425 E.01171
G1 X148.985 Y83.516 E.01052
G1 X149.281 Y83.66 E.01032
G1 X149.557 Y83.862 E.01072
G1 X149.934 Y84.31 E.01836
G1 X150.099 Y84.65 E.01185
G1 X150.185 Y84.975 E.01054
G1 X150.213 Y85.317 E.01076
G1 X150.179 Y85.66 E.01081
G1 X150.088 Y85.982 E.01049
G1 X149.944 Y86.278 E.01032
G1 X149.741 Y86.554 E.01074
G1 X149.294 Y86.931 E.01833
G1 X148.954 Y87.096 E.01185
G1 X148.629 Y87.182 E.01054
G1 X148.26 Y87.208 E.0116
G1 X147.952 Y87.178 E.0097
G1 X147.622 Y87.085 E.01075
G1 X147.184 Y86.84 E.01574
M204 S1000
;WIPE_START
G1 F8640
G1 X147.135 Y86.804 E-.01404
G1 X147.05 Y86.739 E-.02471
G1 X146.673 Y86.291 E-.1352
G1 X146.508 Y85.951 E-.08726
G1 X146.422 Y85.626 E-.07763
G1 X146.394 Y85.284 E-.07923
G1 X146.428 Y84.942 E-.07936
G1 X146.519 Y84.619 E-.07748
G1 X146.663 Y84.323 E-.07601
G1 X146.865 Y84.047 E-.07897
G1 X147.097 Y83.851 E-.07011
;WIPE_END
G1 Z.6 F720
G1 X158.757 Y104.138 F10800
G1 Z.2 F720
G1 E.8 F2100
M204 S800
;TYPE:Perimeter
G1 F1200
G1 X158.961 Y104.549 E.01439
G1 X159.059 Y104.94 E.01264
G1 X159.087 Y105.35 E.01289
G1 X159.041 Y105.758 E.01287
G1 X158.927 Y106.143 E.01259
G1 X158.75 Y106.495 E.01235
G1 X158.483 Y106.842 E.01373
G1 X158.036 Y107.219 E.01833
G1 X157.552 Y107.459 E.01694
G1 X157.161 Y107.557 E.01264
G1 X156.812 Y107.586 E.01098
G1 X154.291 Y107.586 E.07904
G1 X153.842 Y107.539 E.01415
G1 X153.457 Y107.425 E.01259
G1 X152.95 Y107.139 E.01825
G1 X152.758 Y106.981 E.0078
G1 X152.381 Y106.533 E.01836
G1 X152.141 Y106.05 E.01691
G1 X152.043 Y105.659 E.01264
G1 X152.021 Y105.183 E.01494
G1 X152.048 Y104.903 E.00882
G1 X152.175 Y104.456 E.01457
G1 X152.352 Y104.104 E.01235
G1 X152.619 Y103.757 E.01373
G1 X153.067 Y103.38 E.01836
G1 X153.52 Y103.149 E.01594
G1 X153.941 Y103.042 E.01362
G1 X154.291 Y103.013 E.01101
G1 X156.812 Y103.013 E.07904
G1 X157.26 Y103.06 E.01412
G1 X157.645 Y103.174 E.01259
G1 X157.997 Y103.351 E.01235
G1 X158.344 Y103.618 E.01373
G1 X158.721 Y104.066 E.01836
G1 X158.73 Y104.084 E.00063
M204 S1000
G1 X158.48 Y104.407 F10800
M204 S800
;TYPE:External perimeter
G1 F1200
G1 X158.598 Y104.649 E.00844
G1 X158.684 Y104.974 E.01054
G1 X158.711 Y105.316 E.01076
G1 X158.678 Y105.659 E.0108
G1 X158.586 Y105.981 E.0105
G1 X158.442 Y106.278 E.01035
G1 X158.24 Y106.553 E.0107
G1 X157.793 Y106.93 E.01833
G1 X157.452 Y107.095 E.01188
G1 X157.128 Y107.181 E.01051
G1 X156.812 Y107.209 E.00995
G1 X154.291 Y107.209 E.07904
G1 X153.942 Y107.175 E.01099
G1 X153.619 Y107.084 E.01052
G1 X153.168 Y106.831 E.01621
G1 X152.93 Y106.6 E.0104
G1 X152.643 Y106.25 E.01419
G1 X152.484 Y105.875 E.01277
G1 X152.391 Y105.316 E.01777
G1 X152.42 Y104.961 E.01117
G1 X152.516 Y104.618 E.01117
G1 X152.66 Y104.321 E.01035
G1 X152.862 Y104.046 E.0107
G1 X153.31 Y103.669 E.01836
G1 X153.65 Y103.504 E.01185
G1 X153.975 Y103.418 E.01054
G1 X154.291 Y103.39 E.00995
G1 X156.812 Y103.39 E.07904
G1 X157.161 Y103.424 E.01099
G1 X157.483 Y103.515 E.01049
G1 X157.78 Y103.659 E.01035
G1 X158.056 Y103.861 E.01072
G1 X158.433 Y104.309 E.01836
G1 X158.454 Y104.353 E.00153
M204 S1000
;WIPE_START
G1 F8640
G1 X158.48 Y104.407 E-.01384
G1 X158.598 Y104.649 E-.06217
G1 X158.684 Y104.974 E-.07763
G1 X158.711 Y105.316 E-.07921
G1 X158.678 Y105.659 E-.07957
G1 X158.586 Y105.981 E-.07733
G1 X158.442 Y106.278 E-.07621
G1 X158.24 Y106.553 E-.07879
G1 X157.793 Y106.93 E-.13502
G1 X157.452 Y107.095 E-.08747
G1 X157.315 Y107.132 E-.03276
;WIPE_END
G1 Z.6 F720
G1 X143.368 Y122.816 F10800
G1 Z.2 F720
G1 E.8 F2100
M204 S800
;TYPE:Perimeter
G1 F1200
G1 X143.241 Y122.997 E.00693
G1 X142.503 Y123.724 E.03248
G1 X141.782 Y124.233 E.02767
G1 X140.885 Y124.668 E.03126
G1 X139.909 Y124.945 E.03181
G1 X138.871 Y125.047 E.0327
G1 X137.832 Y124.963 E.03268
G1 X136.849 Y124.703 E.03188
G1 X135.943 Y124.282 E.03132
G1 X135.13 Y123.718 E.03102
G1 X134.428 Y123.027 E.03088
G1 X133.88 Y122.267 E.02938
G1 X133.435 Y121.369 E.03142
G1 X133.15 Y120.393 E.03188
G1 X133.04 Y119.355 E.03273
G1 X133.116 Y118.316 E.03266
G1 X133.369 Y117.333 E.03183
G1 X133.781 Y116.427 E.03121
G1 X134.336 Y115.614 E.03086
G1 X135.057 Y114.87 E.03248
G1 X135.782 Y114.347 E.02803
G1 X136.366 Y114.043 E.02064
G1 X136.849 Y113.823 E.01664
G1 X137.733 Y113.58 E.02875
G1 X138.722 Y113.482 E.03116
G1 X139.479 Y113.535 E.02379
G1 X139.908 Y113.58 E.01352
G1 X140.792 Y113.823 E.02875
G1 X141.71 Y114.249 E.03173
G1 X142.585 Y114.87 E.03364
G1 X143.214 Y115.499 E.02789
G1 X143.73 Y116.215 E.02767
G1 X144.053 Y116.833 E.02186
G1 X144.261 Y117.291 E.01577
G1 X144.503 Y118.175 E.02874
G1 X144.589 Y119.033 E.02704
G1 X144.598 Y119.389 E.01117
G1 X144.521 Y120.256 E.02729
G1 X144.226 Y121.327 E.03483
G1 X143.84 Y122.141 E.02825
G1 X143.402 Y122.767 E.02396
M204 S1000
G1 X142.98 Y122.69 F10800
M204 S800
;TYPE:External perimeter
G1 F1200
G1 X142.546 Y123.161 E.02008
G1 X142.285 Y123.416 E.01144
G1 X141.565 Y123.925 E.02765
G1 X140.723 Y124.328 E.02927
G1 X139.809 Y124.582 E.02974
G1 X138.838 Y124.672 E.03058
G1 X137.866 Y124.588 E.03059
G1 X136.949 Y124.339 E.02979
G1 X136.105 Y123.941 E.02926
G1 X135.348 Y123.41 E.02899
G1 X134.694 Y122.76 E.02891
G1 X134.188 Y122.049 E.02736
G1 X133.776 Y121.207 E.02939
G1 X133.513 Y120.293 E.02982
G1 X133.415 Y119.322 E.0306
G1 X133.492 Y118.35 E.03057
G1 X133.733 Y117.433 E.02973
G1 X134.122 Y116.589 E.02914
G1 X134.644 Y115.832 E.02883
G1 X135.323 Y115.136 E.03049
G1 X136 Y114.655 E.02604
G1 X136.528 Y114.383 E.01862
G1 X137.099 Y114.145 E.0194
G1 X137.833 Y113.944 E.02386
G1 X138.756 Y113.858 E.02907
G1 X139.809 Y113.944 E.03313
G1 X140.692 Y114.186 E.02871
G1 X141.541 Y114.586 E.02943
G1 X142.097 Y114.977 E.02131
G1 X142.512 Y115.33 E.01708
G1 X142.947 Y115.765 E.01929
G1 X143.422 Y116.433 E.0257
G1 X143.897 Y117.391 E.03353
G1 X144.14 Y118.275 E.02875
G1 X144.214 Y119.067 E.02494
G1 X144.198 Y119.637 E.01788
G1 X144.145 Y120.219 E.01832
G1 X143.886 Y121.165 E.03075
G1 X143.499 Y121.979 E.02826
G1 X143.066 Y122.597 E.02366
G1 X143.021 Y122.646 E.00209
M204 S1000
;WIPE_START
G1 F8640
G1 X142.98 Y122.69 E-.01389
G1 X142.546 Y123.161 E-.14789
G1 X142.285 Y123.416 E-.08425
G1 X141.565 Y123.925 E-.2036
G1 X140.723 Y124.328 E-.21554
G1 X140.16 Y124.484 E-.13483
;WIPE_END
G1 Z.6 F720
G1 X148.307 Y127.58 F10800
G1 Z.2 F720
G1 E.8 F2100
M204 S800
;TYPE:Perimeter
G1 F1200
G1 X148.253 Y127.584 E.0017
G1 X147.845 Y127.538 E.01287
G1 X147.46 Y127.423 E.0126
G1 X147.108 Y127.247 E.01234
G1 X146.762 Y126.98 E.0137
G1 X146.384 Y126.532 E.01838
G1 X146.144 Y126.049 E.01691
G1 X146.046 Y125.658 E.01264
G1 X146.018 Y125.248 E.01289
G1 X146.101 Y124.705 E.01722
G1 X146.306 Y124.187 E.01747
G1 X146.386 Y124.059 E.00473
G1 X146.622 Y123.757 E.01202
G1 X147.07 Y123.38 E.01836
G1 X147.553 Y123.139 E.01692
G1 X147.944 Y123.041 E.01264
G1 X148.475 Y123.027 E.01665
G1 X148.762 Y123.059 E.00905
G1 X149.147 Y123.174 E.0126
G1 X149.499 Y123.35 E.01234
G1 X149.845 Y123.617 E.0137
G1 X150.222 Y124.065 E.01836
G1 X150.463 Y124.548 E.01692
G1 X150.563 Y124.969 E.01357
G1 X150.588 Y125.349 E.01194
G1 X150.543 Y125.757 E.01287
G1 X150.428 Y126.142 E.0126
G1 X150.252 Y126.494 E.01234
G1 X149.984 Y126.84 E.01372
G1 X149.537 Y127.218 E.01835
G1 X149.054 Y127.458 E.01691
G1 X148.663 Y127.556 E.01264
G1 X148.367 Y127.576 E.0093
M204 S1000
G1 X148.334 Y127.204 F10800
M204 S800
;TYPE:External perimeter
G1 F1200
G1 X148.287 Y127.208 E.00148
G1 X147.944 Y127.174 E.01081
G1 X147.622 Y127.083 E.01049
G1 X147.326 Y126.939 E.01032
G1 X147.05 Y126.737 E.01072
G1 X146.673 Y126.289 E.01836
G1 X146.508 Y125.949 E.01185
G1 X146.422 Y125.624 E.01054
G1 X146.394 Y125.282 E.01076
G1 X146.464 Y124.805 E.01512
G1 X146.694 Y124.277 E.01806
G1 X146.865 Y124.045 E.00904
G1 X147.313 Y123.668 E.01836
G1 X147.653 Y123.503 E.01185
G1 X147.978 Y123.417 E.01054
G1 X148.447 Y123.403 E.01471
G1 X148.954 Y123.503 E.0162
G1 X149.281 Y123.658 E.01135
G1 X149.557 Y123.86 E.01072
G1 X149.934 Y124.308 E.01836
G1 X150.099 Y124.648 E.01185
G1 X150.188 Y125.003 E.01148
G1 X150.213 Y125.315 E.00981
G1 X150.179 Y125.657 E.01078
G1 X150.088 Y125.98 E.01052
G1 X149.944 Y126.276 E.01032
G1 X149.741 Y126.552 E.01074
G1 X149.294 Y126.929 E.01833
G1 X148.954 Y127.094 E.01185
G1 X148.629 Y127.18 E.01054
G1 X148.393 Y127.199 E.00742
M204 S1000
;WIPE_START
G1 F8640
G1 X148.334 Y127.204 E-.01367
G1 X148.287 Y127.208 E-.01089
G1 X147.944 Y127.174 E-.07959
G1 X147.622 Y127.083 E-.07726
G1 X147.326 Y126.939 E-.07601
G1 X147.05 Y126.737 E-.07897
G1 X146.673 Y126.289 E-.1352
G1 X146.508 Y125.949 E-.08726
G1 X146.422 Y125.624 E-.07763
G1 X146.394 Y125.282 E-.07923
G1 X146.447 Y124.921 E-.08429
;WIPE_END
G1 Z.6 F720
G1 X137.477 Y108.825 F10800
G1 Z.2 F720
G1 E.8 F2100
M204 S800
;TYPE:Perimeter
G1 F1200
G1 X136.926 Y108.572 E.01901
G1 X136.459 Y108.253 E.01773
G1 X135.917 Y107.744 E.02331
G1 X135.532 Y107.213 E.02056
G1 X135.263 Y106.667 E.01908
G1 X135.054 Y105.972 E.02276
G1 X134.992 Y105.378 E.01873
G1 X135.036 Y104.596 E.02456
G1 X135.206 Y103.943 E.02116
G1 X135.483 Y103.34 E.02081
G1 X135.855 Y102.799 E.02059
G1 X136.365 Y102.283 E.02275
G1 X136.842 Y101.946 E.01831
G1 X137.436 Y101.655 E.02074
G1 X138.083 Y101.468 E.02112
G1 X138.734 Y101.401 E.02052
G1 X139.33 Y101.44 E.01873
G1 X140.007 Y101.591 E.02175
G1 X140.613 Y101.848 E.02064
G1 X141.256 Y102.269 E.0241
G1 X141.724 Y102.725 E.02049
G1 X142.109 Y103.256 E.02056
G1 X142.401 Y103.85 E.02075
G1 X142.587 Y104.497 E.02111
G1 X142.658 Y105.184 E.02166
G1 X142.605 Y105.873 E.02167
