; generated by PrusaSlicer 2.7.0+win64 on 2025-03-19 at 15:36:33 UTC


;
;
; 

; external perimeters extrusion width = 0.60mm
; perimeters extrusion width = 0.50mm
; infill extrusion width = 0.50mm
; solid infill extrusion width = 0.50mm
; top infill extrusion width = 0.45mm
; first layer extrusion width = 0.42mm

M73 P0 R41
M73 Q0 S41
M201 X1000 Y1000 Z200 E5000 ; sets maximum accelerations, mm/sec^2
M203 X200 Y200 Z12 E120 ; sets maximum feedrates, mm / sec
M204 S1250 T1250 ; sets acceleration (S) and retract acceleration (R), mm/sec^2
M205 X8.00 Y8.00 Z0.40 E4.50 ; sets the jerk limits, mm/sec
M205 S0 T0 ; sets the minimum extruding and travel feed rate, mm/sec

; printing object 13DrumBox.stl id:0 copy 0
; stop printing object 13DrumBox.stl id:0 copy 0

;TYPE:Custom
M862.3 P "MK3S" ; printer model check
M862.1 P0.4 ; nozzle diameter check
M115 U3.13.2 ; tell printer latest fw version
G90 ; use absolute coordinates
M83 ; extruder relative mode
M104 S215 ; set extruder temp
M140 S75 ; set bed temp
M190 S75 ; wait for bed temp
M109 S215 ; wait for extruder temp
G28 W ; home all without mesh bed level
G80 X81.2909 Y84.7864 W95.1319 H55.1304 ; mesh bed levelling

G1 Z0.2 F720
G1 Y-3 F1000 ; go outside print area
G92 E0
G1 X60 E9 F1000 ; intro line
G1 X100 E12.5 F1000 ; intro line

G92 E0
M221 S95

; Don't change E values below. Excessive value can damage the printer.

M907 E538 ; set extruder motor current
G21 ; set units to millimeters
G90 ; use absolute coordinates
M83 ; use relative distances for extrusion
M900 K0.08 ; Filament gcode LA 1.5
M900 K45 ; Filament gcode LA 1.0

M107
;LAYER_CHANGE
;Z:0.2
;HEIGHT:0.2
;BEFORE_LAYER_CHANGE
G92 E0.0
;0.2


G1 E-.8 F2100
G1 Z.2 F720
;AFTER_LAYER_CHANGE
;0.2
G1 X82.709 Y86.024 F10800
G1 Z.2 F720
G1 E.8 F2100
M204 S800
;TYPE:Skirt/Brim
;WIDTH:0.42
G1 F1200
G1 X83.58 Y85.409 E.03343
G1 X84.457 Y85.084 E.02933
G1 X85.356 Y84.975 E.02839
G1 X172.57 Y84.984 E2.73453
G1 X173.257 Y85.084 E.02177
M73 P0 R40
G1 X173.901 Y85.299 E.02129
G1 X174.487 Y85.616 E.02089
G1 X175.185 Y86.205 E.02864
G1 X175.594 Y86.723 E.02069
G1 X175.911 Y87.309 E.02089
G1 X176.125 Y87.953 E.02128
G1 X176.234 Y88.851 E.02836
G1 X176.234 Y135.852 E1.47368
G1 X176.056 Y137.004 E.03655
G1 X175.594 Y137.981 E.03389
G1 X175.005 Y138.679 E.02864
G1 X174.134 Y139.294 E.03343
G1 X173.257 Y139.619 E.02933
G1 X172.358 Y139.728 E.02839
G1 X85.356 Y139.728 E2.72789
G1 X84.203 Y139.55 E.03658
G1 X83.227 Y139.088 E.03386
G1 X82.528 Y138.499 E.02866
G1 X81.914 Y137.628 E.03341
G1 X81.588 Y136.751 E.02934
G1 X81.479 Y135.852 E.02839
G1 X81.479 Y88.851 E1.47368
G1 X81.658 Y87.699 E.03655
M73 Q0 S40
G1 X82.12 Y86.723 E.03386
G1 X82.67 Y86.07 E.02677
M204 S1000
; printing object 13DrumBox.stl id:0 copy 0
;WIPE_START
G1 F8640
G1 X82.709 Y86.024 E-.01393
G1 X83.58 Y85.409 E-.2462
G1 X84.457 Y85.084 E-.21596
G1 X85.356 Y84.975 E-.2091
G1 X85.853 Y84.975 E-.11481
;WIPE_END
G1 Z.6 F720
G1 X172.798 Y88.329 F10800
G1 Z.2 F720
G1 E.8 F2100
M204 S800
;TYPE:Perimeter
;WIDTH:0.419999
G1 F1200
G1 X172.886 Y88.403 E.00361
G1 X173.006 Y88.608 E.00745
G1 X173.07 Y88.921 E.01002
G1 X173.07 Y135.718 E1.46728
G1 X173.016 Y136.1 E.0121
M73 P1 R40
M73 Q1 S40
G1 X172.896 Y136.305 E.00745
G1 X172.713 Y136.459 E.0075
G1 X172.323 Y136.564 E.01266
G1 X85.49 Y136.564 E2.72258
G1 X85.108 Y136.51 E.0121
G1 X84.903 Y136.39 E.00745
G1 X84.749 Y136.207 E.0075
G1 X84.644 Y135.817 E.01266
G1 X84.644 Y88.985 E1.46838
G1 X84.698 Y88.604 E.01207
G1 X84.818 Y88.398 E.00747
G1 X85 Y88.245 E.00745
G1 X85.391 Y88.139 E.0127
G1 X172.224 Y88.139 E2.72258
G1 X172.438 Y88.164 E.00676
G1 X172.71 Y88.255 E.00899
G1 X172.752 Y88.29 E.00171
M204 S1000
G1 X173.057 Y88.021 F10800
M204 S800
;TYPE:External perimeter
G1 F1200
G1 X173.295 Y88.303 E.01157
G1 X173.429 Y88.663 E.01204
G1 X173.447 Y88.921 E.00811
G1 X173.447 Y135.718 E1.46728
G1 X173.375 Y136.232 E.01627
G1 X173.188 Y136.551 E.01159
G1 X172.906 Y136.789 E.01157
G1 X172.689 Y136.87 E.00726
G1 X172.34 Y136.941 E.01117
G1 X85.49 Y136.941 E2.72312
G1 X84.976 Y136.869 E.01627
G1 X84.656 Y136.682 E.01162
G1 X84.418 Y136.4 E.01157
G1 X84.338 Y136.183 E.00725
G1 X84.267 Y135.834 E.01117
G1 X84.267 Y88.985 E1.46892
G1 X84.338 Y88.472 E.01624
G1 X84.525 Y88.152 E.01162
G1 X84.808 Y87.914 E.01159
G1 X85.025 Y87.834 E.00725
G1 X85.374 Y87.762 E.01117
G1 X172.224 Y87.762 E2.72312
G1 X172.738 Y87.834 E.01627
M73 P2 R40
M73 Q2 S40
G1 X173.006 Y87.991 E.00974
M204 S1000
;WIPE_START
G1 F8640
G1 X173.057 Y88.021 E-.01366
G1 X173.295 Y88.303 E-.08521
G1 X173.429 Y88.663 E-.0887
G1 X173.447 Y88.921 E-.05972
G1 X173.447 Y91.315 E-.55271
;WIPE_END
G1 Z.6 F720
G1 X159.542 Y94.214 F10800
G1 Z.2 F720
G1 E.8 F2100
M204 S800
;TYPE:Perimeter
G1 F1200
G1 X159.511 Y94.196 E.00112
G1 X159.316 Y94.036 E.00791
G1 X158.938 Y93.588 E.01838
G1 X158.698 Y93.105 E.01691
G1 X158.6 Y92.714 E.01264
G1 X158.572 Y92.304 E.01289
G1 X158.618 Y91.896 E.01287
G1 X158.732 Y91.511 E.01259
G1 X158.909 Y91.159 E.01235
G1 X159.176 Y90.813 E.0137
G1 X159.624 Y90.435 E.01838
G1 X160.107 Y90.195 E.01691
G1 X160.498 Y90.097 E.01264
G1 X160.873 Y90.071 E.01179
G1 X161.316 Y90.115 E.01396
G1 X161.7 Y90.23 E.01257
G1 X162.053 Y90.406 E.01237
G1 X162.399 Y90.673 E.0137
G1 X162.776 Y91.121 E.01836
G1 X163.017 Y91.604 E.01692
G1 X163.115 Y91.995 E.01264
G1 X163.142 Y92.405 E.01288
G1 X163.097 Y92.813 E.01287
G1 X162.982 Y93.198 E.0126
G1 X162.806 Y93.55 E.01234
G1 X162.538 Y93.896 E.01372
G1 X162.091 Y94.273 E.01833
G1 X161.638 Y94.505 E.01596
G1 X161.217 Y94.612 E.01362
G1 X160.78 Y94.637 E.01372
G1 X160.42 Y94.599 E.01135
G1 X160.014 Y94.479 E.01327
G1 X159.595 Y94.243 E.01508
M204 S1000
G1 X159.689 Y93.858 F10800
M204 S800
;TYPE:External perimeter
G1 F1200
G1 X159.604 Y93.793 E.00336
G1 X159.227 Y93.345 E.01836
G1 X159.062 Y93.005 E.01185
G1 X158.976 Y92.68 E.01054
G1 X158.948 Y92.338 E.01076
G1 X158.982 Y91.996 E.01078
G1 X159.073 Y91.673 E.01052
G1 X159.217 Y91.377 E.01032
G1 X159.419 Y91.101 E.01072
G1 X159.867 Y90.724 E.01836
G1 X160.207 Y90.559 E.01185
G1 X160.531 Y90.473 E.01051
G1 X160.844 Y90.447 E.00985
G1 X161.216 Y90.479 E.01171
G1 X161.539 Y90.57 E.01052
G1 X161.835 Y90.714 E.01032
G1 X162.111 Y90.916 E.01072
G1 X162.488 Y91.364 E.01836
G1 X162.653 Y91.704 E.01185
G1 X162.739 Y92.029 E.01054
G1 X162.767 Y92.371 E.01076
G1 X162.733 Y92.713 E.01078
G1 X162.642 Y93.036 E.01052
G1 X162.498 Y93.332 E.01032
G1 X162.295 Y93.608 E.01074
G1 X161.848 Y93.985 E.01833
G1 X161.508 Y94.15 E.01185
G1 X161.183 Y94.236 E.01054
G1 X160.813 Y94.261 E.01163
G1 X160.506 Y94.232 E.00967
G1 X160.176 Y94.139 E.01075
G1 X159.738 Y93.893 E.01575
M204 S1000
;WIPE_START
G1 F8640
G1 X159.689 Y93.858 E-.0139
G1 X159.604 Y93.793 E-.02471
G1 X159.227 Y93.345 E-.1352
G1 X159.062 Y93.005 E-.08726
G1 X158.976 Y92.68 E-.07763
G1 X158.948 Y92.338 E-.07923
G1 X158.982 Y91.996 E-.07936
G1 X159.073 Y91.673 E-.07748
G1 X159.217 Y91.377 E-.07601
G1 X159.419 Y91.101 E-.07897
G1 X159.652 Y90.905 E-.07025
;WIPE_END
G1 Z.6 F720
G1 X171.311 Y111.192 F10800
G1 Z.2 F720
G1 E.8 F2100
M204 S800
;TYPE:Perimeter
G1 F1200
G1 X171.515 Y111.603 E.01439
G1 X171.613 Y111.994 E.01264
G1 X171.641 Y112.404 E.01289
G1 X171.595 Y112.812 E.01287
G1 X171.481 Y113.197 E.01259
G1 X171.304 Y113.549 E.01235
G1 X171.037 Y113.896 E.01373
G1 X170.59 Y114.273 E.01833
G1 X170.106 Y114.513 E.01694
G1 X169.715 Y114.611 E.01264
G1 X169.366 Y114.64 E.01098
G1 X166.845 Y114.64 E.07904
G1 X166.396 Y114.593 E.01415
G1 X166.011 Y114.479 E.01259
G1 X165.504 Y114.193 E.01825
G1 X165.312 Y114.035 E.0078
G1 X164.935 Y113.587 E.01836
G1 X164.695 Y113.104 E.01691
G1 X164.597 Y112.713 E.01264
G1 X164.575 Y112.237 E.01494
G1 X164.602 Y111.957 E.00882
G1 X164.729 Y111.51 E.01457
G1 X164.906 Y111.158 E.01235
G1 X165.173 Y110.811 E.01373
G1 X165.621 Y110.434 E.01836
G1 X166.074 Y110.203 E.01594
G1 X166.495 Y110.096 E.01362
G1 X166.845 Y110.067 E.01101
G1 X169.366 Y110.067 E.07904
G1 X169.814 Y110.114 E.01412
G1 X170.199 Y110.228 E.01259
G1 X170.551 Y110.405 E.01235
G1 X170.898 Y110.672 E.01373
G1 X171.275 Y111.12 E.01836
G1 X171.284 Y111.138 E.00063
M204 S1000
G1 X171.034 Y111.461 F10800
M204 S800
;TYPE:External perimeter
G1 F1200
G1 X171.152 Y111.703 E.00844
G1 X171.238 Y112.027 E.01051
G1 X171.265 Y112.37 E.01079
G1 X171.232 Y112.712 E.01077
G1 X171.14 Y113.035 E.01053
G1 X170.996 Y113.332 E.01035
G1 X170.794 Y113.607 E.0107
G1 X170.347 Y113.984 E.01833
G1 X170.006 Y114.149 E.01188
G1 X169.682 Y114.235 E.01051
G1 X169.366 Y114.263 E.00995
G1 X166.845 Y114.263 E.07904
G1 X166.496 Y114.229 E.01099
G1 X166.173 Y114.138 E.01052
G1 X165.722 Y113.885 E.01621
G1 X165.484 Y113.653 E.01042
G1 X165.197 Y113.304 E.01417
G1 X165.038 Y112.929 E.01277
G1 X164.945 Y112.37 E.01777
G1 X164.974 Y112.015 E.01117
G1 X165.07 Y111.672 E.01117
G1 X165.214 Y111.375 E.01035
G1 X165.416 Y111.1 E.0107
G1 X165.864 Y110.723 E.01836
G1 X166.204 Y110.558 E.01185
G1 X166.529 Y110.472 E.01054
G1 X166.845 Y110.444 E.00995
G1 X169.366 Y110.444 E.07904
G1 X169.715 Y110.478 E.01099
G1 X170.037 Y110.569 E.01049
G1 X170.334 Y110.713 E.01035
G1 X170.61 Y110.915 E.01072
G1 X170.987 Y111.363 E.01836
G1 X171.008 Y111.407 E.00153
M204 S1000
;WIPE_START
G1 F8640
G1 X171.034 Y111.461 E-.01384
G1 X171.152 Y111.703 E-.06217
G1 X171.238 Y112.027 E-.0774
G1 X171.265 Y112.37 E-.07944
G1 X171.232 Y112.712 E-.07934
G1 X171.14 Y113.035 E-.07755
G1 X170.996 Y113.332 E-.07621
G1 X170.794 Y113.607 E-.07879
G1 X170.347 Y113.984 E-.13502
G1 X170.006 Y114.149 E-.08747
G1 X169.869 Y114.185 E-.03277
;WIPE_END
G1 Z.6 F720
G1 X155.922 Y129.87 F10800
G1 Z.2 F720
G1 E.8 F2100
M204 S800
;TYPE:Perimeter
G1 F1200
G1 X155.795 Y130.051 E.00693
G1 X155.057 Y130.778 E.03248
G1 X154.336 Y131.287 E.02767
G1 X153.439 Y131.722 E.03126
G1 X152.462 Y131.999 E.03184
G1 X151.425 Y132.101 E.03267
G1 X150.386 Y132.017 E.03268
G1 X149.403 Y131.757 E.03188
G1 X148.497 Y131.336 E.03132
G1 X147.684 Y130.772 E.03102
G1 X146.982 Y130.08 E.03091
G1 X146.434 Y129.32 E.02938
G1 X145.989 Y128.423 E.0314
G1 X145.704 Y127.447 E.03188
G1 X145.594 Y126.409 E.03273
G1 X145.67 Y125.37 E.03266
G1 X145.923 Y124.387 E.03183
G1 X146.335 Y123.481 E.03121
G1 X146.89 Y122.668 E.03086
G1 X147.611 Y121.923 E.03251
G1 X148.336 Y121.401 E.02801
G1 X148.92 Y121.097 E.02064
G1 X149.403 Y120.877 E.01664
G1 X150.287 Y120.634 E.02875
G1 X151.276 Y120.536 E.03116
G1 X152.033 Y120.589 E.02379
G1 X152.462 Y120.634 E.01352
G1 X153.346 Y120.877 E.02875
G1 X154.264 Y121.303 E.03173
G1 X155.139 Y121.923 E.03362
G1 X155.768 Y122.553 E.02791
G1 X156.284 Y123.269 E.02767
G1 X156.607 Y123.887 E.02186
G1 X156.815 Y124.345 E.01577
G1 X157.057 Y125.229 E.02874
G1 X157.143 Y126.087 E.02704
G1 X157.152 Y126.442 E.01113
G1 X157.075 Y127.31 E.02732
G1 X156.78 Y128.381 E.03483
G1 X156.394 Y129.194 E.02822
G1 X155.956 Y129.821 E.02398
M204 S1000
G1 X155.534 Y129.744 F10800
M204 S800
;TYPE:External perimeter
G1 F1200
G1 X155.1 Y130.215 E.02008
G1 X154.839 Y130.47 E.01144
G1 X154.119 Y130.979 E.02765
G1 X153.277 Y131.381 E.02925
G1 X152.363 Y131.636 E.02975
G1 X151.391 Y131.726 E.03061
G1 X150.42 Y131.641 E.03056
G1 X149.503 Y131.393 E.02978
G1 X148.659 Y130.995 E.02926
G1 X147.902 Y130.464 E.02899
G1 X147.248 Y129.814 E.02891
G1 X146.742 Y129.103 E.02736
G1 X146.33 Y128.261 E.02939
G1 X146.067 Y127.347 E.02982
G1 X145.969 Y126.376 E.0306
G1 X146.046 Y125.404 E.03057
G1 X146.287 Y124.487 E.02973
G1 X146.676 Y123.643 E.02914
G1 X147.198 Y122.886 E.02883
G1 X147.877 Y122.19 E.03049
G1 X148.554 Y121.709 E.02604
G1 X149.082 Y121.437 E.01862
G1 X149.653 Y121.199 E.0194
G1 X150.387 Y120.998 E.02386
G1 X151.31 Y120.912 E.02907
G1 X152.363 Y120.998 E.03313
G1 X153.246 Y121.24 E.02871
G1 X154.095 Y121.64 E.02943
G1 X154.651 Y122.031 E.02131
G1 X155.066 Y122.384 E.01708
G1 X155.501 Y122.819 E.01929
G1 X155.976 Y123.487 E.0257
G1 X156.451 Y124.445 E.03353
G1 X156.694 Y125.329 E.02875
G1 X156.768 Y126.121 E.02494
G1 X156.752 Y126.691 E.01788
G1 X156.699 Y127.273 E.01832
G1 X156.44 Y128.219 E.03075
G1 X156.053 Y129.033 E.02826
G1 X155.62 Y129.651 E.02366
G1 X155.575 Y129.7 E.00209
M204 S1000
;WIPE_START
G1 F8640
G1 X155.534 Y129.744 E-.01389
G1 X155.1 Y130.215 E-.14789
G1 X154.839 Y130.47 E-.08425
G1 X154.119 Y130.979 E-.2036
G1 X153.277 Y131.381 E-.21544
G1 X152.714 Y131.538 E-.13493
;WIPE_END
G1 Z.6 F720
G1 X160.861 Y134.634 F10800
G1 Z.2 F720
G1 E.8 F2100
M204 S800
;TYPE:Perimeter
G1 F1200
G1 X160.807 Y134.637 E.0017
G1 X160.399 Y134.592 E.01287
G1 X160.014 Y134.477 E.0126
G1 X159.662 Y134.301 E.01234
G1 X159.316 Y134.034 E.0137
G1 X158.938 Y133.586 E.01838
G1 X158.698 Y133.103 E.01691
G1 X158.6 Y132.712 E.01264
G1 X158.572 Y132.302 E.01289
G1 X158.655 Y131.759 E.01722
G1 X158.86 Y131.241 E.01747
G1 X158.94 Y131.113 E.00473
G1 X159.176 Y130.811 E.01202
G1 X159.624 Y130.433 E.01838
G1 X160.107 Y130.193 E.01691
G1 X160.498 Y130.095 E.01264
G1 X161.029 Y130.081 E.01665
G1 X161.316 Y130.113 E.00905
G1 X161.701 Y130.228 E.0126
G1 X162.053 Y130.404 E.01234
G1 X162.399 Y130.671 E.0137
G1 X162.776 Y131.119 E.01836
G1 X163.017 Y131.602 E.01692
G1 X163.117 Y132.023 E.01357
G1 X163.142 Y132.403 E.01194
G1 X163.097 Y132.811 E.01287
G1 X162.982 Y133.196 E.0126
G1 X162.806 Y133.548 E.01234
G1 X162.538 Y133.894 E.01372
G1 X162.091 Y134.271 E.01833
G1 X161.608 Y134.512 E.01692
G1 X161.217 Y134.61 E.01264
G1 X160.921 Y134.63 E.0093
M204 S1000
G1 X160.888 Y134.258 F10800
M204 S800
;TYPE:External perimeter
G1 F1200
G1 X160.841 Y134.262 E.00148
G1 X160.498 Y134.228 E.01081
G1 X160.176 Y134.137 E.01049
G1 X159.88 Y133.993 E.01032
G1 X159.604 Y133.791 E.01072
G1 X159.227 Y133.343 E.01836
G1 X159.062 Y133.003 E.01185
G1 X158.976 Y132.678 E.01054
G1 X158.948 Y132.336 E.01076
G1 X159.018 Y131.859 E.01512
G1 X159.248 Y131.331 E.01806
G1 X159.419 Y131.099 E.00904
G1 X159.867 Y130.722 E.01836
G1 X160.207 Y130.557 E.01185
G1 X160.531 Y130.471 E.01051
G1 X161.001 Y130.457 E.01474
G1 X161.508 Y130.557 E.0162
G1 X161.835 Y130.712 E.01135
G1 X162.111 Y130.914 E.01072
G1 X162.488 Y131.362 E.01836
G1 X162.653 Y131.702 E.01185
G1 X162.742 Y132.057 E.01148
G1 X162.767 Y132.369 E.00981
G1 X162.733 Y132.711 E.01078
G1 X162.642 Y133.034 E.01052
G1 X162.498 Y133.33 E.01032
G1 X162.295 Y133.606 E.01074
G1 X161.848 Y133.983 E.01833
G1 X161.508 Y134.148 E.01185
G1 X161.183 Y134.234 E.01054
G1 X160.947 Y134.253 E.00742
M204 S1000
;WIPE_START
G1 F8640
G1 X160.888 Y134.258 E-.01367
G1 X160.841 Y134.262 E-.01089
G1 X160.498 Y134.228 E-.07959
G1 X160.176 Y134.137 E-.07726
G1 X159.88 Y133.993 E-.07601
G1 X159.604 Y133.791 E-.07897
G1 X159.227 Y133.343 E-.1352
G1 X159.062 Y133.003 E-.08726
G1 X158.976 Y132.678 E-.07763
G1 X158.948 Y132.336 E-.07923
G1 X159.001 Y131.975 E-.08429
;WIPE_END
G1 Z.6 F720
G1 X150.031 Y115.879 F10800
G1 Z.2 F720
G1 E.8 F2100
M204 S800
;TYPE:Perimeter
G1 F1200
G1 X149.48 Y115.626 E.01901
G1 X149.013 Y115.307 E.01773
G1 X148.471 Y114.798 E.02331
G1 X148.086 Y114.267 E.02056
G1 X147.817 Y113.721 E.01908
G1 X147.608 Y113.026 E.02276
G1 X147.546 Y112.432 E.01873
G1 X147.59 Y111.65 E.02456
G1 X147.76 Y110.996 E.02119
G1 X148.037 Y110.393 E.02081
G1 X148.409 Y109.853 E.02056
G1 X148.919 Y109.337 E.02275
G1 X149.396 Y109 E.01831
G1 X149.99 Y108.708 E.02075
G1 X150.637 Y108.522 E.02111
G1 X151.288 Y108.454 E.02052
G1 X151.884 Y108.494 E.01873
G1 X152.561 Y108.645 E.02175
G1 X153.167 Y108.902 E.02064
G1 X153.81 Y109.323 E.0241
G1 X154.278 Y109.779 E.02049
G1 X154.663 Y110.309 E.02054
G1 X154.955 Y110.904 E.02078
G1 X155.141 Y111.551 E.02111
G1 X155.212 Y112.238 E.02166
G1 X155.159 Y112.927 E.02167
G1 X154.989 Y113.58 E.02116
G1 X154.712 Y114.183 E.02081
G1 X154.34 Y114.724 E.02059
G1 X153.884 Y115.192 E.02049
G1 X153.354 Y115.577 E.02054
G1 X152.9 Y115.802 E.01589
G1 X152.462 Y115.959 E.01459
G1 X152.013 Y116.073 E.01452
G1 X151.425 Y116.126 E.01851
G1 X150.736 Y116.073 E.02167
G1 X150.086 Y115.904 E.02106
M204 S1000
G1 X150.194 Y115.542 F10800
M204 S800
;TYPE:External perimeter
G1 F1200
G1 X150.183 Y115.539 E.00036
G1 X149.641 Y115.285 E.01877
G1 X149.231 Y114.999 E.01567
G1 X148.738 Y114.531 E.02131
