; generated by PrusaSlicer 2.7.0+win64 on 2025-03-25 at 09:53:29 UTC


;
;
; 

; external perimeters extrusion width = 0.60mm
; perimeters extrusion width = 0.50mm
; infill extrusion width = 0.50mm
; solid infill extrusion width = 0.50mm
; top infill extrusion width = 0.45mm
; first layer extrusion width = 0.42mm

M73 P0 R229
M73 Q0 S230
M201 X1000 Y1000 Z200 E5000 ; sets maximum accelerations, mm/sec^2
M203 X200 Y200 Z12 E120 ; sets maximum feedrates, mm / sec
M204 S1250 T1250 ; sets acceleration (S) and retract acceleration (R), mm/sec^2
M205 X8.00 Y8.00 Z0.40 E4.50 ; sets the jerk limits, mm/sec
M205 S0 T0 ; sets the minimum extruding and travel feed rate, mm/sec

; printing object newfrontplates.stl id:0 copy 0
; stop printing object newfrontplates.stl id:0 copy 0

;TYPE:Custom
M862.3 P "MK3S" ; printer model check
M862.1 P0.4 ; nozzle diameter check
M115 U3.13.2 ; tell printer latest fw version
G90 ; use absolute coordinates
M83 ; extruder relative mode
M104 S215 ; set extruder temp
M140 S75 ; set bed temp
M190 S75 ; wait for bed temp
M109 S215 ; wait for extruder temp
G28 W ; home all without mesh bed level
G80 X26.3014 Y8.83538 W197.397 H192.329 ; mesh bed levelling

G1 Z0.2 F720
G1 Y-3 F1000 ; go outside print area
G92 E0
G1 X60 E9 F1000 ; intro line
G1 X100 E12.5 F1000 ; intro line

G92 E0
M221 S95

; Don't change E values below. Excessive value can damage the printer.

M907 E538 ; set extruder motor current
G21 ; set units to millimeters
G90 ; use absolute coordinates
M83 ; use relative distances for extrusion
M900 K0.08 ; Filament gcode LA 1.5
M900 K45 ; Filament gcode LA 1.0

M107
;LAYER_CHANGE
;Z:0.2
;HEIGHT:0.2
;BEFORE_LAYER_CHANGE
G92 E0.0
;0.2


G1 E-.8 F2100
M73 Q0 S229
G1 Z.2 F720
;AFTER_LAYER_CHANGE
;0.2
G1 X29.193 Y11.117 F10800
G1 Z.2 F720
G1 E.8 F2100
M204 S800
;TYPE:Skirt/Brim
;WIDTH:0.42
G1 F1200
G1 X29.786 Y10.273 E.03234
G1 X30.506 Y9.66 E.02965
G1 X31.497 Y9.196 E.03431
G1 X32.631 Y9.024 E.03596
G1 X119.841 Y9.033 E2.73441
G1 X120.941 Y9.25 E.03515
G1 X220.941 Y44.276 E3.3222
G1 X221.746 Y44.677 E.0282
M73 P0 R228
G1 X222.289 Y45.103 E.02164
G1 X222.718 Y45.581 E.02014
G1 X223.08 Y46.156 E.0213
G1 X223.399 Y47.017 E.02879
G1 X223.51 Y47.925 E.02868
G1 X223.51 Y197.099 E4.67725
G1 X223.329 Y198.259 E.03681
G1 X222.866 Y199.235 E.03387
G1 X222.271 Y199.935 E.02881
G1 X221.4 Y200.546 E.03336
G1 X220.539 Y200.865 E.02879
G1 X219.633 Y200.976 E.02862
G1 X30.367 Y200.976 E5.9343
G1 X29.207 Y200.795 E.03681
G1 X28.219 Y200.323 E.03433
G1 X27.555 Y199.764 E.02721
G1 X26.918 Y198.868 E.03447
G1 X26.596 Y197.99 E.02932
G1 X26.49 Y197.099 E.02813
G1 X26.491 Y115.046 E2.57271
G1 X28.755 Y12.848 E3.20513
G1 X28.865 Y11.993 E.02703
G1 X29.172 Y11.173 E.02745
M204 S1000
; printing object newfrontplates.stl id:0 copy 0
;WIPE_START
G1 F8640
G1 X29.193 Y11.117 E-.01381
G1 X29.786 Y10.273 E-.23818
G1 X30.506 Y9.66 E-.21834
G1 X31.497 Y9.196 E-.25266
G1 X31.827 Y9.146 E-.07701
;WIPE_END
G1 Z.6 F720
G1 X120.171 Y95.353 F10800
G1 Z.2 F720
G1 E.8 F2100
M204 S800
;TYPE:Perimeter
;WIDTH:0.419999
G1 F1200
G1 X119.988 Y95.507 E.0075
G1 X119.596 Y95.612 E.01272
G1 X32.765 Y95.612 E2.72252
G1 X32.382 Y95.557 E.01213
G1 X32.179 Y95.439 E.00736
G1 X32.025 Y95.254 E.00755
G1 X31.918 Y94.864 E.01268
G1 X31.918 Y13.035 E2.56569
G1 X31.972 Y12.654 E.01207
G1 X32.095 Y12.446 E.00758
G1 X32.276 Y12.292 E.00745
G1 X32.666 Y12.188 E.01266
G1 X119.5 Y12.188 E2.72261
G1 X119.711 Y12.212 E.00666
G1 X119.986 Y12.302 E.00907
G1 X120.161 Y12.449 E.00717
G1 X120.281 Y12.655 E.00747
G1 X120.346 Y12.976 E.01027
G1 X120.346 Y94.763 E2.56437
G1 X120.291 Y95.147 E.01216
G1 X120.202 Y95.301 E.00558
M204 S1000
G1 X120.464 Y95.599 F10800
M204 S800
;TYPE:External perimeter
G1 F1200
G1 X120.181 Y95.837 E.01159
G1 X119.965 Y95.917 E.00722
G1 X119.613 Y95.989 E.01127
G1 X32.765 Y95.989 E2.72305
G1 X32.25 Y95.917 E.0163
M73 Q0 S228
G1 X31.932 Y95.731 E.01155
G1 X31.694 Y95.446 E.01164
G1 X31.614 Y95.233 E.00713
G1 X31.541 Y94.881 E.01127
G1 X31.541 Y13.035 E2.56622
G1 X31.613 Y12.521 E.01627
G1 X31.802 Y12.2 E.01168
G1 X32.083 Y11.96 E.01159
G1 X32.303 Y11.88 E.00734
G1 X32.649 Y11.811 E.01106
G1 X119.5 Y11.811 E2.72315
G1 X120.013 Y11.882 E.01624
M73 P0 R227
G1 X120.332 Y12.067 E.01156
G1 X120.571 Y12.351 E.01164
G1 X120.703 Y12.711 E.01202
G1 X120.723 Y12.976 E.00833
G1 X120.723 Y94.763 E2.56437
G1 X120.651 Y95.279 E.01634
G1 X120.495 Y95.547 E.00972
M204 S1000
;WIPE_START
G1 F8640
G1 X120.464 Y95.599 E-.01398
G1 X120.181 Y95.837 E-.08538
G1 X119.965 Y95.917 E-.05319
G1 X119.613 Y95.989 E-.08296
G1 X117.168 Y95.989 E-.56449
;WIPE_END
G1 Z.6 F720
G1 X106.787 Y32.887 F10800
G1 Z.2 F720
G1 E.8 F2100
M204 S800
;TYPE:Perimeter
G1 F1200
G1 X106.741 Y32.842 E.00202
G1 X106.521 Y32.515 E.01236
G1 X106.361 Y32.156 E.01232
G1 X106.263 Y31.765 E.01264
G1 X106.241 Y31.291 E.01488
G1 X106.281 Y30.944 E.01095
G1 X106.341 Y30.73 E.00697
G1 X106.547 Y30.247 E.01646
G1 X106.838 Y29.866 E.01503
G1 X107.285 Y29.488 E.01835
G1 X107.738 Y29.256 E.01596
G1 X108.161 Y29.149 E.01368
G1 X108.534 Y29.123 E.01172
G1 X108.982 Y29.167 E.01411
G1 X109.363 Y29.282 E.01248
G1 X109.752 Y29.487 E.01379
G1 X110.201 Y29.864 E.01838
G1 X110.519 Y30.296 E.01682
G1 X110.678 Y30.654 E.01228
G1 X110.777 Y31.046 E.01268
G1 X110.805 Y31.458 E.01295
G1 X110.759 Y31.865 E.01284
G1 X110.645 Y32.247 E.0125
G1 X110.47 Y32.601 E.01238
G1 X110.234 Y32.919 E.01242
G1 X109.914 Y33.211 E.01358
G1 X109.408 Y33.509 E.01841
G1 X108.916 Y33.661 E.01615
G1 X108.355 Y33.683 E.0176
G1 X108.062 Y33.647 E.00926
G1 X107.63 Y33.509 E.01422
G1 X107.123 Y33.211 E.01844
G1 X106.831 Y32.929 E.01273
M204 S1000
G1 X106.971 Y32.512 F10800
M204 S800
;TYPE:External perimeter
G1 F1200
G1 X106.862 Y32.355 E.00599
G1 X106.657 Y31.809 E.01829
G1 X106.617 Y31.324 E.01526
G1 X106.704 Y30.831 E.0157
G1 X106.89 Y30.413 E.01435
G1 X107.082 Y30.154 E.01011
G1 X107.529 Y29.775 E.01838
G1 X107.868 Y29.611 E.01181
G1 X108.195 Y29.524 E.01061
G1 X108.755 Y29.517 E.01756
G1 X109.201 Y29.622 E.01437
G1 X109.509 Y29.775 E.01078
G1 X109.958 Y30.153 E.0184
G1 X110.178 Y30.457 E.01177
G1 X110.315 Y30.755 E.01028
G1 X110.402 Y31.079 E.01052
G1 X110.429 Y31.424 E.01085
G1 X110.396 Y31.765 E.01074
G1 X110.304 Y32.086 E.01047
G1 X110.161 Y32.383 E.01034
G1 X109.969 Y32.651 E.01034
G1 X109.723 Y32.886 E.01067
G1 X109.217 Y33.184 E.01841
G1 X108.847 Y33.29 E.01207
G1 X108.388 Y33.307 E.0144
G1 X107.867 Y33.203 E.01666
G1 X107.314 Y32.886 E.01999
G1 X107.049 Y32.625 E.01166
G1 X107.005 Y32.561 E.00244
M204 S1000
;WIPE_START
G1 F8640
G1 X106.971 Y32.512 E-.01377
G1 X106.862 Y32.355 E-.04413
G1 X106.657 Y31.809 E-.13467
G1 X106.617 Y31.324 E-.11237
G1 X106.704 Y30.831 E-.11559
G1 X106.89 Y30.413 E-.10564
G1 X107.082 Y30.154 E-.07444
G1 X107.529 Y29.775 E-.13532
G1 X107.779 Y29.654 E-.06407
;WIPE_END
G1 Z.6 F720
G1 X100.94 Y35.397 F10800
G1 Z.2 F720
G1 E.8 F2100
M204 S800
;TYPE:Perimeter
G1 F1200
G1 X100.891 Y36.032 E.01997
G1 X100.723 Y36.683 E.02108
G1 X100.443 Y37.29 E.02096
G1 X100.074 Y37.828 E.02046
G1 X99.712 Y38.201 E.0163
G1 X99.143 Y38.641 E.02255
G1 X98.49 Y38.973 E.02297
G1 X97.844 Y39.159 E.02108
G1 X97.159 Y39.229 E.02159
G1 X96.471 Y39.177 E.02163
G1 X95.815 Y39.007 E.02125
G1 X95.212 Y38.73 E.02081
G1 X94.672 Y38.36 E.02052
G1 X94.203 Y37.902 E.02055
G1 X93.819 Y37.371 E.02055
G1 X93.528 Y36.777 E.02074
G1 X93.341 Y36.131 E.02109
G1 X93.274 Y35.466 E.02096
G1 X93.323 Y34.756 E.02231
G1 X93.493 Y34.1 E.02125
G1 X93.77 Y33.496 E.02083
G1 X94.141 Y32.957 E.02052
G1 X94.597 Y32.488 E.02051
G1 X95.129 Y32.103 E.02059
G1 X95.723 Y31.812 E.02074
G1 X96.37 Y31.625 E.02112
G1 X97.06 Y31.555 E.02175
G1 X97.744 Y31.607 E.02151
G1 X98.398 Y31.777 E.02119
G1 X99.003 Y32.054 E.02086
G1 X99.488 Y32.386 E.01843
G1 X100.012 Y32.885 E.02269
G1 X100.394 Y33.412 E.02041
G1 X100.668 Y33.964 E.01932
G1 X100.856 Y34.594 E.02061
G1 X100.944 Y35.337 E.02346
M204 S1000
G1 X100.568 Y35.361 F10800
M204 S800
;TYPE:External perimeter
G1 F1200
G1 X100.569 Y35.374 E.00041
G1 X100.516 Y35.997 E.0196
G1 X100.359 Y36.584 E.01905
G1 X100.103 Y37.127 E.01882
G1 X99.765 Y37.611 E.01851
G1 X99.35 Y38.03 E.01849
G1 X98.926 Y38.333 E.01634
G1 X98.329 Y38.632 E.02093
G1 X97.744 Y38.796 E.01905
G1 X97.126 Y38.853 E.01946
G1 X96.503 Y38.802 E.0196
G1 X95.916 Y38.643 E.01907
G1 X95.374 Y38.389 E.01877
G1 X94.889 Y38.051 E.01854
G1 X94.47 Y37.635 E.01851
G1 X94.127 Y37.154 E.01852
G1 X93.868 Y36.615 E.01875
G1 X93.705 Y36.031 E.01901
G1 X93.649 Y35.434 E.0188
G1 X93.698 Y34.789 E.02028
G1 X93.857 Y34.2 E.01913
G1 X94.111 Y33.658 E.01877
G1 X94.449 Y33.175 E.01848
G1 X94.864 Y32.754 E.01854
G1 X95.346 Y32.411 E.01855
G1 X95.885 Y32.152 E.01875
G1 X96.47 Y31.988 E.01905
G1 X97.093 Y31.931 E.01962
G1 X97.711 Y31.982 E.01944
G1 X98.298 Y32.141 E.01907
G1 X98.842 Y32.395 E.01882
G1 X99.27 Y32.694 E.01637
G1 X99.745 Y33.151 E.02067
G1 X100.087 Y33.63 E.01845
G1 X100.328 Y34.127 E.01732
G1 X100.492 Y34.692 E.01845
G1 X100.561 Y35.301 E.01922
M204 S1000
;WIPE_START
G1 F8640
G1 X100.568 Y35.361 E-.01395
G1 X100.569 Y35.374 E-.00301
G1 X100.516 Y35.997 E-.14437
G1 X100.359 Y36.584 E-.1403
G1 X100.103 Y37.127 E-.13862
G1 X99.765 Y37.611 E-.13631
G1 X99.35 Y38.03 E-.13617
G1 X99.042 Y38.25 E-.08727
;WIPE_END
G1 Z.6 F720
G1 X93.337 Y20.658 F10800
G1 Z.2 F720
G1 E.8 F2100
M204 S800
;TYPE:Perimeter
G1 F1200
G1 X93.493 Y20.061 E.01935
G1 X93.77 Y19.458 E.02081
G1 X94.14 Y18.918 E.02052
G1 X94.598 Y18.449 E.02055
G1 X95.129 Y18.065 E.02055
G1 X95.723 Y17.774 E.02074
G1 X96.37 Y17.587 E.02112
G1 X97.06 Y17.517 E.02175
G1 X97.744 Y17.569 E.02151
G1 X98.398 Y17.739 E.02119
G1 X99.003 Y18.016 E.02086
G1 X99.543 Y18.387 E.02054
G1 X100.011 Y18.844 E.02051
G1 X100.395 Y19.375 E.02055
G1 X100.688 Y19.967 E.02071
G1 X100.874 Y20.615 E.02114
G1 X100.945 Y21.302 E.02166
G1 X100.902 Y21.877 E.01808
G1 X100.724 Y22.644 E.02469
G1 X100.443 Y23.252 E.021
G1 X100.128 Y23.711 E.01745
G1 X99.778 Y24.097 E.01634
G1 X99.352 Y24.456 E.01747
G1 X99.003 Y24.692 E.01321
G1 X98.49 Y24.935 E.0178
G1 X97.845 Y25.121 E.02105
G1 X97.159 Y25.191 E.02162
G1 X96.471 Y25.139 E.02163
G1 X95.815 Y24.969 E.02125
G1 X95.212 Y24.692 E.02081
G1 X94.672 Y24.321 E.02054
G1 X94.202 Y23.861 E.02062
G1 X93.77 Y23.25 E.02346
G1 X93.528 Y22.739 E.01773
G1 X93.341 Y22.091 E.02115
G1 X93.274 Y21.429 E.02086
G1 X93.323 Y20.716 E.02241
M204 S1000
G1 X93.697 Y20.76 F10800
M204 S800
;TYPE:External perimeter
G1 F1200
G1 X93.698 Y20.747 E.00041
G1 X93.857 Y20.161 E.01904
G1 X94.111 Y19.62 E.01874
G1 X94.449 Y19.135 E.01854
G1 X94.865 Y18.716 E.01851
G1 X95.346 Y18.373 E.01852
G1 X95.885 Y18.114 E.01875
G1 X96.47 Y17.95 E.01905
G1 X97.093 Y17.893 E.01962
G1 X97.711 Y17.944 E.01944
G1 X98.298 Y18.103 E.01907
G1 X98.842 Y18.357 E.01882
G1 X99.325 Y18.695 E.01848
G1 X99.744 Y19.111 E.01851
G1 X100.087 Y19.592 E.01852
G1 X100.347 Y20.13 E.01874
G1 X100.51 Y20.714 E.01901
G1 X100.569 Y21.336 E.01959
G1 X100.526 Y21.843 E.01595
G1 X100.36 Y22.546 E.02265
G1 X100.103 Y23.089 E.01884
G1 X99.765 Y23.571 E.01846
G1 X99.35 Y23.992 E.01854
G1 X98.87 Y24.335 E.0185
G1 X98.329 Y24.594 E.01881
G1 X97.744 Y24.758 E.01905
G1 X97.126 Y24.815 E.01946
G1 X96.503 Y24.764 E.0196
G1 X95.916 Y24.605 E.01907
G1 X95.374 Y24.351 E.01877
G1 X94.889 Y24.013 E.01854
G1 X94.469 Y23.595 E.01858
G1 X94.111 Y23.088 E.01946
G1 X93.868 Y22.577 E.01774
G1 X93.705 Y21.991 E.01907
G1 X93.649 Y21.396 E.01874
G1 X93.693 Y20.82 E.01811
M204 S1000
;WIPE_START
G1 F8640
G1 X93.697 Y20.76 E-.01388
G1 X93.698 Y20.747 E-.00301
G1 X93.857 Y20.161 E-.1402
G1 X94.111 Y19.62 E-.138
G1 X94.449 Y19.135 E-.1365
G1 X94.865 Y18.716 E-.13633
G1 X95.346 Y18.373 E-.13641
G1 X95.719 Y18.194 E-.09567
;WIPE_END
G1 Z.6 F720
G1 X79.42 Y21.347 F10800
G1 Z.2 F720
G1 E.8 F2100
M204 S800
;TYPE:Perimeter
G1 F1200
G1 X79.468 Y20.739 E.01912
G1 X79.636 Y20.065 E.02178
G1 X79.902 Y19.487 E.01995
G1 X80.29 Y18.917 E.02162
G1 X80.746 Y18.449 E.02049
G1 X81.277 Y18.065 E.02055
G1 X81.868 Y17.774 E.02065
G1 X82.516 Y17.587 E.02115
G1 X83.204 Y17.517 E.02168
G1 X83.892 Y17.569 E.02163
G1 X84.545 Y17.739 E.02116
G1 X85.148 Y18.016 E.02081
G1 X85.688 Y18.386 E.02052
G1 X86.157 Y18.844 E.02055
G1 X86.489 Y19.301 E.01771
G1 X86.832 Y19.969 E.02354
G1 X87.019 Y20.612 E.021
G1 X87.093 Y21.3 E.0217
G1 X87.039 Y21.967 E.02098
G1 X86.867 Y22.646 E.02196
G1 X86.59 Y23.25 E.02083
G1 X86.219 Y23.789 E.02052
G1 X85.763 Y24.258 E.02051
G1 X85.231 Y24.643 E.02059
G1 X84.637 Y24.934 E.02074
G1 X83.993 Y25.121 E.02103
G1 X83.204 Y25.191 E.02484
G1 X82.616 Y25.139 E.01851
G1 X81.961 Y24.969 E.02122
G1 X81.359 Y24.691 E.02079
G1 X80.82 Y24.321 E.0205
G1 X80.434 Y23.945 E.0169
G1 X79.967 Y23.336 E.02406
G1 X79.672 Y22.74 E.02085
G1 X79.5 Y22.13 E.01987
G1 X79.416 Y21.407 E.02282
M204 S1000
G1 X79.792 Y21.384 F10800
M204 S800
;TYPE:External perimeter
G1 F1200
G1 X79.791 Y21.371 E.00041
G1 X79.844 Y20.775 E.01876
G1 X80 Y20.163 E.0198
G1 X80.242 Y19.65 E.01778
G1 X80.597 Y19.135 E.01961
G1 X81.013 Y18.716 E.01851
G1 X81.494 Y18.373 E.01852
G1 X82.03 Y18.114 E.01867
G1 X82.616 Y17.95 E.01908
G1 X83.237 Y17.893 E.01955
G1 X83.859 Y17.944 E.01957
G1 X84.445 Y18.103 E.01904
G1 X84.986 Y18.357 E.01874
G1 X85.471 Y18.695 E.01854
G1 X85.89 Y19.111 E.01851
G1 X86.181 Y19.518 E.01569
G1 X86.492 Y20.131 E.02155
G1 X86.655 Y20.713 E.01895
G1 X86.717 Y21.335 E.0196
G1 X86.664 Y21.931 E.01876
G1 X86.503 Y22.546 E.01993
G1 X86.249 Y23.088 E.01877
G1 X85.911 Y23.571 E.01848
G1 X85.496 Y23.992 E.01854
G1 X85.014 Y24.335 E.01855
G1 X84.475 Y24.594 E.01875
G1 X83.893 Y24.758 E.01896
G1 X83.237 Y24.815 E.02065
G1 X82.649 Y24.764 E.01851
G1 X82.061 Y24.605 E.0191
G1 X81.522 Y24.351 E.01868
G1 X81.037 Y24.013 E.01854
G1 X80.617 Y23.595 E.01858
G1 X80.274 Y23.117 E.01845
G1 X80.012 Y22.577 E.01882
G1 X79.864 Y22.033 E.01768
G1 X79.799 Y21.444 E.01858
M204 S1000
;WIPE_START
G1 F8640
G1 X79.792 Y21.384 E-.01395
G1 X79.791 Y21.371 E-.00301
G1 X79.844 Y20.775 E-.13816
G1 X80 Y20.163 E-.14583
G1 X80.242 Y19.65 E-.13097
G1 X80.597 Y19.135 E-.14443
G1 X81.013 Y18.716 E-.13633
G1 X81.321 Y18.496 E-.08732
;WIPE_END
G1 Z.6 F720
G1 X83.26 Y31.559 F10800
G1 Z.2 F720
G1 E.8 F2100
M204 S800
;TYPE:Perimeter
G1 F1200
G1 X83.892 Y31.607 E.01987
G1 X84.545 Y31.777 E.02116
G1 X85.148 Y32.054 E.02081
G1 X85.688 Y32.425 E.02054
G1 X86.158 Y32.885 E.02062
G1 X86.541 Y33.412 E.02043
G1 X86.832 Y34.007 E.02077
G1 X87.019 Y34.655 E.02115
G1 X87.093 Y35.337 E.02151
G1 X87.039 Y36.007 E.02108
G1 X86.867 Y36.685 E.02193
G1 X86.59 Y37.288 E.02081
G1 X86.22 Y37.828 E.02052
G1 X85.762 Y38.297 E.02055
G1 X85.231 Y38.681 E.02055
G1 X84.637 Y38.972 E.02074
G1 X83.993 Y39.159 E.02103
G1 X83.302 Y39.229 E.02178
G1 X82.616 Y39.177 E.02157
G1 X81.961 Y39.007 E.02122
G1 X81.359 Y38.729 E.02079
G1 X80.837 Y38.371 E.01985
G1 X80.351 Y37.902 E.02118
G1 X79.966 Y37.373 E.02051
G1 X79.636 Y36.68 E.02407
G1 X79.488 Y36.126 E.01798
G1 X79.415 Y35.444 E.02151
G1 X79.468 Y34.781 E.02085
G1 X79.636 Y34.104 E.02187
G1 X79.902 Y33.525 E.01998
G1 X80.28 Y32.971 E.02103
G1 X80.745 Y32.488 E.02102
G1 X81.277 Y32.103 E.02059
G1 X81.868 Y31.812 E.02065
G1 X82.516 Y31.625 E.02115
G1 X83.2 Y31.556 E.02156
M204 S1000
G1 X83.244 Y31.931 F10800
M204 S800
;TYPE:External perimeter
G1 F1200
G1 X83.859 Y31.982 E.01935
G1 X84.445 Y32.141 E.01904
G1 X84.986 Y32.395 E.01874
G1 X85.471 Y32.733 E.01854
G1 X85.891 Y33.151 E.01858
G1 X86.233 Y33.63 E.01845
G1 X86.492 Y34.169 E.01875
G1 X86.655 Y34.755 E.01907
G1 X86.717 Y35.373 E.01947
G1 X86.664 Y35.971 E.01882
G1 X86.503 Y36.584 E.01987
G1 X86.249 Y37.126 E.01877
G1 X85.911 Y37.611 E.01854
G1 X85.495 Y38.03 E.01851
G1 X85.014 Y38.373 E.01852
G1 X84.475 Y38.632 E.01875
G1 X83.893 Y38.796 E.01896
G1 X83.269 Y38.853 E.01965
G1 X82.649 Y38.802 E.01951
G1 X82.061 Y38.643 E.0191
G1 X81.522 Y38.389 E.01868
G1 X81.054 Y38.063 E.01788
G1 X80.618 Y37.636 E.01913
G1 X80.274 Y37.155 E.01854
G1 X80 Y36.583 E.01989
G1 X79.852 Y36.029 E.01798
G1 X79.791 Y35.409 E.01953
G1 X79.844 Y34.817 E.01864
G1 X80 Y34.201 E.01992
G1 X80.242 Y33.688 E.01778
G1 X80.587 Y33.19 E.019
