; generated by PrusaSlicer 2.7.0+win64 on 2025-03-25 at 13:25:12 UTC


;
;
; 

; external perimeters extrusion width = 0.60mm
; perimeters extrusion width = 0.50mm
; infill extrusion width = 0.50mm
; solid infill extrusion width = 0.50mm
; top infill extrusion width = 0.45mm
; first layer extrusion width = 0.42mm

M73 P0 R67
M73 Q0 S67
M201 X1000 Y1000 Z200 E5000 ; sets maximum accelerations, mm/sec^2
M203 X200 Y200 Z12 E120 ; sets maximum feedrates, mm / sec
M204 S1250 T1250 ; sets acceleration (S) and retract acceleration (R), mm/sec^2
M205 X8.00 Y8.00 Z0.40 E4.50 ; sets the jerk limits, mm/sec
M205 S0 T0 ; sets the minimum extruding and travel feed rate, mm/sec

; printing object orgue.stl id:0 copy 0
; stop printing object orgue.stl id:0 copy 0

;TYPE:Custom
M862.3 P "MK3S" ; printer model check
M862.1 P0.4 ; nozzle diameter check
M115 U3.13.2 ; tell printer latest fw version
G90 ; use absolute coordinates
M83 ; extruder relative mode
M104 S215 ; set extruder temp
M140 S75 ; set bed temp
M190 S75 ; wait for bed temp
M109 S215 ; wait for extruder temp
G28 W ; home all without mesh bed level
G80 X77.434 Y59.9348 W95.1319 H90.1304 ; mesh bed levelling

G1 Z0.2 F720
G1 Y-3 F1000 ; go outside print area
G92 E0
G1 X60 E9 F1000 ; intro line
G1 X100 E12.5 F1000 ; intro line

G92 E0
M221 S95

; Don't change E values below. Excessive value can damage the printer.

M907 E538 ; set extruder motor current
G21 ; set units to millimeters
G90 ; use absolute coordinates
M83 ; use relative distances for extrusion
M900 K0.08 ; Filament gcode LA 1.5
M900 K45 ; Filament gcode LA 1.0

M107
;LAYER_CHANGE
;Z:0.2
;HEIGHT:0.2
;BEFORE_LAYER_CHANGE
G92 E0.0
;0.2


G1 E-.8 F2100
G1 Z.2 F720
;AFTER_LAYER_CHANGE
;0.2
G1 X78.263 Y61.871 F10800
G1 Z.2 F720
G1 E.8 F2100
M204 S800
;TYPE:Skirt/Brim
;WIDTH:0.42
G1 F1200
G1 X78.852 Y61.172 E.02866
G1 X79.37 Y60.764 E.02067
G1 X79.956 Y60.447 E.02089
G1 X80.6 Y60.232 E.02129
G1 X81.499 Y60.123 E.02839
G1 X168.713 Y60.133 E2.73453
G1 X169.4 Y60.232 E.02176
G1 X170.044 Y60.447 E.02129
G1 X170.63 Y60.764 E.02089
G1 X171.329 Y61.353 E.02866
G1 X171.737 Y61.871 E.02067
G1 X172.054 Y62.457 E.02089
G1 X172.268 Y63.101 E.02128
G1 X172.377 Y64 E.02839
G1 X172.377 Y146 E2.57105
G1 X172.268 Y146.899 E.02839
G1 X172.054 Y147.543 E.02128
G1 X171.737 Y148.129 E.02089
G1 X171.148 Y148.828 E.02866
G1 X170.63 Y149.236 E.02067
G1 X170.044 Y149.553 E.02089
G1 X169.4 Y149.768 E.02129
G1 X168.501 Y149.877 E.02839
G1 X81.499 Y149.877 E2.72789
G1 X80.6 Y149.768 E.02839
G1 X79.956 Y149.553 E.02129
G1 X79.37 Y149.236 E.02089
G1 X78.671 Y148.647 E.02866
G1 X78.263 Y148.129 E.02067
G1 X77.946 Y147.543 E.02089
G1 X77.732 Y146.899 E.02128
G1 X77.623 Y146 E.02839
G1 X77.623 Y64 E2.57105
G1 X77.732 Y63.101 E.02839
G1 X77.946 Y62.457 E.02128
G1 X78.235 Y61.924 E.01901
M204 S1000
; printing object orgue.stl id:0 copy 0
;WIPE_START
G1 F8640
G1 X78.263 Y61.871 E-.01384
G1 X78.852 Y61.172 E-.21106
G1 X79.37 Y60.764 E-.15225
G1 X79.956 Y60.447 E-.15384
G1 X80.6 Y60.232 E-.15677
G1 X81.083 Y60.174 E-.11224
;WIPE_END
G1 Z.6 F720
G1 X168.941 Y63.477 F10800
G1 Z.2 F720
G1 E.8 F2100
M204 S800
;TYPE:Perimeter
;WIDTH:0.419999
G1 F1200
G1 X169.029 Y63.551 E.00361
G1 X169.149 Y63.756 E.00745
G1 X169.213 Y64.069 E.01002
G1 X169.213 Y145.866 E2.56468
G1 X169.159 Y146.248 E.0121
G1 X169.039 Y146.453 E.00745
G1 X168.856 Y146.607 E.0075
G1 X168.466 Y146.713 E.01267
G1 X81.633 Y146.713 E2.72258
G1 X81.251 Y146.658 E.0121
G1 X81.046 Y146.538 E.00745
G1 X80.892 Y146.356 E.00748
G1 X80.787 Y145.965 E.01269
G1 X80.787 Y64.134 E2.56575
G1 X80.841 Y63.752 E.0121
G1 X80.961 Y63.547 E.00745
G1 X81.144 Y63.393 E.0075
G1 X81.534 Y63.287 E.01267
G1 X168.367 Y63.287 E2.72258
G1 X168.582 Y63.312 E.00679
M73 P1 R66
M73 Q1 S67
G1 X168.853 Y63.403 E.00896
G1 X168.895 Y63.439 E.00173
M204 S1000
G1 X169.201 Y63.169 F10800
M204 S800
;TYPE:External perimeter
G1 F1200
G1 X169.438 Y63.452 E.01157
G1 X169.572 Y63.812 E.01204
G1 X169.59 Y64.069 E.00808
G1 X169.59 Y145.866 E2.56468
G1 X169.518 Y146.38 E.01627
G1 X169.331 Y146.7 E.01162
G1 X169.049 Y146.938 E.01157
G1 X168.832 Y147.018 E.00725
G1 X168.483 Y147.09 E.01117
G1 X81.633 Y147.09 E2.72312
G1 X81.119 Y147.018 E.01627
G1 X80.799 Y146.831 E.01162
G1 X80.562 Y146.548 E.01157
G1 X80.481 Y146.331 E.00726
G1 X80.41 Y145.982 E.01117
G1 X80.41 Y64.134 E2.56628
G1 X80.482 Y63.62 E.01627
G1 X80.669 Y63.3 E.01162
G1 X80.951 Y63.062 E.01157
G1 X81.168 Y62.982 E.00725
G1 X81.517 Y62.91 E.01117
G1 X168.367 Y62.91 E2.72312
G1 X168.881 Y62.982 E.01627
M73 Q1 S66
G1 X169.149 Y63.139 E.00974
M204 S1000
;WIPE_START
G1 F8640
G1 X169.201 Y63.169 E-.01386
G1 X169.438 Y63.452 E-.08523
G1 X169.572 Y63.812 E-.0887
G1 X169.59 Y64.069 E-.05949
G1 X169.59 Y66.463 E-.55272
;WIPE_END
G1 Z.6 F720
G1 X166.291 Y70.934 F10800
G1 Z.2 F720
G1 E.8 F2100
M204 S800
;TYPE:Perimeter
G1 F1200
G1 X166.342 Y70.949 E.00167
G1 X166.694 Y71.126 E.01235
G1 X167.041 Y71.393 E.01373
G1 X167.418 Y71.841 E.01836
G1 X167.658 Y72.324 E.01691
G1 X167.756 Y72.715 E.01264
G1 X167.784 Y73.125 E.01289
G1 X167.738 Y73.533 E.01287
G1 X167.624 Y73.918 E.01259
G1 X167.447 Y74.27 E.01235
G1 X167.18 Y74.617 E.01373
G1 X166.733 Y74.994 E.01833
G1 X166.249 Y75.234 E.01694
G1 X165.858 Y75.332 E.01264
G1 X165.509 Y75.361 E.01098
G1 X162.988 Y75.361 E.07904
G1 X162.467 Y75.294 E.01647
G1 X162.077 Y75.163 E.0129
G1 X161.735 Y74.976 E.01222
G1 X161.409 Y74.701 E.01337
G1 X161.078 Y74.308 E.01611
G1 X160.842 Y73.837 E.01652
G1 X160.725 Y73.267 E.01824
G1 X160.74 Y72.715 E.01731
G1 X160.872 Y72.231 E.01573
G1 X161.049 Y71.879 E.01235
G1 X161.316 Y71.532 E.01373
G1 X161.764 Y71.155 E.01836
G1 X162.247 Y70.915 E.01691
G1 X162.638 Y70.817 E.01264
G1 X162.988 Y70.788 E.01101
G1 X165.509 Y70.788 E.07904
G1 X165.958 Y70.835 E.01415
G1 X166.233 Y70.917 E.009
M204 S1000
G1 X166.102 Y71.268 F10800
M204 S800
;TYPE:External perimeter
G1 F1200
G1 X166.18 Y71.29 E.00254
G1 X166.477 Y71.434 E.01035
G1 X166.753 Y71.636 E.01072
G1 X167.13 Y72.084 E.01836
G1 X167.295 Y72.424 E.01185
G1 X167.381 Y72.748 E.01051
G1 X167.408 Y73.091 E.01079
G1 X167.375 Y73.433 E.01077
G1 X167.283 Y73.756 E.01053
G1 X167.139 Y74.052 E.01032
G1 X166.937 Y74.328 E.01072
G1 X166.49 Y74.705 E.01833
G1 X166.149 Y74.87 E.01188
G1 X165.825 Y74.956 E.01051
G1 X165.509 Y74.984 E.00995
G1 X162.988 Y74.984 E.07904
G1 X162.567 Y74.931 E.0133
G1 X162.047 Y74.731 E.01747
G1 X161.697 Y74.458 E.01392
G1 X161.367 Y74.065 E.01609
G1 X161.202 Y73.725 E.01185
G1 X161.101 Y73.234 E.01572
G1 X161.119 Y72.729 E.01584
G1 X161.213 Y72.393 E.01094
G1 X161.357 Y72.096 E.01035
G1 X161.559 Y71.821 E.0107
G1 X162.007 Y71.443 E.01838
G1 X162.347 Y71.278 E.01185
G1 X162.672 Y71.193 E.01053
G1 X162.988 Y71.165 E.00995
G1 X165.509 Y71.165 E.07904
G1 X165.858 Y71.199 E.01099
G1 X166.045 Y71.251 E.00609
M204 S1000
;WIPE_START
G1 F8640
G1 X166.102 Y71.268 E-.01373
G1 X166.18 Y71.29 E-.01871
G1 X166.477 Y71.434 E-.07621
G1 X166.753 Y71.636 E-.07897
G1 X167.13 Y72.084 E-.1352
G1 X167.295 Y72.424 E-.08726
G1 X167.381 Y72.748 E-.0774
G1 X167.408 Y73.091 E-.07944
G1 X167.375 Y73.433 E-.07934
G1 X167.283 Y73.756 E-.07755
G1 X167.139 Y74.052 E-.07601
G1 X167.139 Y74.053 E-.00018
;WIPE_END
G1 Z.6 F720
G1 X155.137 Y82.86 F10800
G1 Z.2 F720
G1 E.8 F2100
M204 S800
;TYPE:Perimeter
G1 F1200
G1 X155.126 Y82.813 E.00151
G1 X155.1 Y82.514 E.00941
G1 X155.148 Y82.048 E.01469
G1 X155.263 Y81.663 E.0126
G1 X155.444 Y81.305 E.01258
G1 X155.726 Y80.945 E.01434
G1 X156.156 Y80.586 E.01756
G1 X156.605 Y80.357 E.0158
G1 X157.288 Y80.228 E.02179
G1 X157.846 Y80.267 E.01754
G1 X158.307 Y80.418 E.01521
G1 X158.65 Y80.606 E.01226
G1 X158.977 Y80.882 E.01342
G1 X159.307 Y81.273 E.01604
G1 X159.543 Y81.741 E.01643
G1 X159.645 Y82.147 E.01313
G1 X159.673 Y82.557 E.01289
G1 X159.627 Y82.965 E.01287
G1 X159.513 Y83.35 E.01259
G1 X159.336 Y83.702 E.01235
G1 X159.069 Y84.048 E.0137
G1 X158.621 Y84.426 E.01838
G1 X158.163 Y84.658 E.0161
G1 X157.708 Y84.767 E.01467
G1 X157.337 Y84.792 E.01166
G1 X156.876 Y84.731 E.01458
G1 X156.545 Y84.631 E.01084
G1 X156.131 Y84.412 E.01468
G1 X155.841 Y84.181 E.01162
G1 X155.469 Y83.74 E.01809
G1 X155.231 Y83.265 E.01666
G1 X155.15 Y82.919 E.01114
M204 S1000
G1 X155.518 Y82.851 F10800
M204 S800
;TYPE:External perimeter
G1 F1200
G1 X155.501 Y82.779 E.00232
G1 X155.477 Y82.509 E.0085
G1 X155.563 Y81.963 E.01733
G1 X155.749 Y81.526 E.01489
G1 X155.968 Y81.234 E.01144
G1 X156.398 Y80.875 E.01756
G1 X156.754 Y80.707 E.01234
G1 X157.356 Y80.599 E.01918
G1 X157.816 Y80.65 E.01451
G1 X158.338 Y80.85 E.01753
G1 X158.689 Y81.125 E.01398
G1 X159.018 Y81.516 E.01602
G1 X159.183 Y81.856 E.01185
G1 X159.269 Y82.181 E.01054
G1 X159.297 Y82.523 E.01076
G1 X159.263 Y82.865 E.01078
G1 X159.172 Y83.188 E.01052
G1 X159.028 Y83.484 E.01032
G1 X158.826 Y83.76 E.01072
G1 X158.378 Y84.137 E.01836
G1 X158.038 Y84.302 E.01185
G1 X157.674 Y84.392 E.01176
G1 X157.371 Y84.416 E.00953
G1 X156.976 Y84.368 E.01248
G1 X156.706 Y84.291 E.0088
G1 X156.349 Y84.104 E.01264
G1 X156.129 Y83.938 E.00864
G1 X155.757 Y83.497 E.01809
G1 X155.592 Y83.157 E.01185
G1 X155.533 Y82.91 E.00796
M204 S1000
;WIPE_START
G1 F8640
G1 X155.518 Y82.851 E-.01406
G1 X155.501 Y82.779 E-.01708
G1 X155.477 Y82.509 E-.06259
G1 X155.563 Y81.963 E-.12763
G1 X155.749 Y81.526 E-.10966
G1 X155.968 Y81.234 E-.08428
G1 X156.398 Y80.875 E-.12934
G1 X156.754 Y80.707 E-.09089
G1 X157.356 Y80.599 E-.14122
G1 X157.456 Y80.61 E-.02325
;WIPE_END
G1 Z.6 F720
G1 X155.181 Y94.347 F10800
G1 Z.2 F720
G1 E.8 F2100
M204 S800
;TYPE:Perimeter
G1 F1200
G1 X155.302 Y93.904 E.0144
G1 X155.581 Y93.296 E.02097
G1 X155.876 Y92.864 E.0164
G1 X156.371 Y92.325 E.02295
G1 X156.951 Y91.891 E.02271
G1 X157.482 Y91.63 E.01855
G1 X158.202 Y91.41 E.02361
G1 X158.859 Y91.342 E.02071
G1 X159.474 Y91.383 E.01933
G1 X160.184 Y91.546 E.02284
G1 X160.856 Y91.842 E.02302
G1 X161.401 Y92.217 E.02074
G1 X161.873 Y92.678 E.02069
G1 X162.261 Y93.212 E.0207
G1 X162.554 Y93.811 E.02091
G1 X162.742 Y94.463 E.02128
G1 X162.813 Y95.156 E.02184
G1 X162.76 Y95.851 E.02185
G1 X162.589 Y96.509 E.02132
G1 X162.31 Y97.117 E.02097
G1 X161.935 Y97.662 E.02074
G1 X161.474 Y98.134 E.02069
G1 X160.94 Y98.522 E.0207
G1 X160.341 Y98.815 E.02091
G1 X159.689 Y99.003 E.02128
G1 X158.996 Y99.074 E.02184
G1 X158.301 Y99.021 E.02185
G1 X157.643 Y98.85 E.02132
G1 X157.035 Y98.571 E.02097
G1 X156.49 Y98.196 E.02074
G1 X156.043 Y97.76 E.01958
G1 X155.634 Y97.206 E.02159
G1 X155.364 Y96.66 E.0191
G1 X155.185 Y96.083 E.01894
G1 X155.096 Y95.462 E.01967
G1 X155.09 Y95.021 E.01383
G1 X155.149 Y94.463 E.01759
G1 X155.165 Y94.405 E.00189
M204 S1000
G1 X155.537 Y94.495 F10800
M204 S800
;TYPE:External perimeter
G1 F1200
G1 X155.545 Y94.445 E.00159
G1 X155.735 Y93.851 E.01955
G1 X156.024 Y93.308 E.01929
G1 X156.386 Y92.843 E.01848
G1 X156.796 Y92.463 E.01753
G1 X157.216 Y92.174 E.01599
G1 X157.712 Y91.939 E.01721
G1 X158.302 Y91.773 E.01922
G1 X158.892 Y91.718 E.01858
G1 X159.444 Y91.759 E.01736
G1 X160.085 Y91.91 E.02065
G1 X160.694 Y92.183 E.02093
G1 X161.183 Y92.525 E.01871
G1 X161.606 Y92.944 E.01867
G1 X161.953 Y93.43 E.01872
G1 X162.213 Y93.973 E.01888
G1 X162.379 Y94.563 E.01922
G1 X162.438 Y95.19 E.01975
G1 X162.385 Y95.817 E.01973
G1 X162.225 Y96.409 E.01923
G1 X161.969 Y96.955 E.01891
G1 X161.627 Y97.444 E.01871
G1 X161.208 Y97.867 E.01867
G1 X160.722 Y98.214 E.01872
G1 X160.179 Y98.475 E.01889
G1 X159.589 Y98.64 E.01921
G1 X158.962 Y98.699 E.01975
G1 X158.335 Y98.646 E.01973
G1 X157.743 Y98.486 E.01923
G1 X157.197 Y98.23 E.01891
G1 X156.708 Y97.888 E.01871
G1 X156.309 Y97.493 E.0176
G1 X155.939 Y96.985 E.0197
G1 X155.705 Y96.498 E.01694
G1 X155.549 Y95.983 E.01687
G1 X155.471 Y95.428 E.01757
G1 X155.484 Y94.842 E.01838
G1 X155.528 Y94.554 E.00913
M204 S1000
;WIPE_START
G1 F8640
G1 X155.537 Y94.495 E-.01378
G1 X155.545 Y94.445 E-.01169
G1 X155.735 Y93.851 E-.144
G1 X156.024 Y93.308 E-.14203
G1 X156.386 Y92.843 E-.13607
G1 X156.796 Y92.463 E-.12908
G1 X157.216 Y92.174 E-.11772
G1 X157.629 Y91.978 E-.10563
;WIPE_END
G1 Z.6 F720
G1 X149.512 Y97.08 F10800
G1 Z.2 F720
G1 E.8 F2100
M204 S800
;TYPE:Perimeter
G1 F1200
G1 X148.909 Y96.923 E.01954
G1 X148.301 Y96.644 E.02097
G1 X147.837 Y96.326 E.01764
G1 X147.284 Y95.809 E.02374
G1 X146.897 Y95.274 E.0207
G1 X146.603 Y94.675 E.02092
G1 X146.397 Y93.924 E.02442
G1 X146.344 Y93.33 E.0187
G1 X146.397 Y92.636 E.02182
G1 X146.568 Y91.977 E.02135
G1 X146.847 Y91.369 E.02097
G1 X147.221 Y90.826 E.02067
G1 X147.683 Y90.352 E.02075
G1 X148.217 Y89.964 E.0207
G1 X148.816 Y89.671 E.02091
G1 X149.334 Y89.52 E.01692
G1 X149.621 Y89.46 E.00919
G1 X150.125 Y89.415 E.01587
G1 X150.85 Y89.464 E.02278
G1 X151.514 Y89.636 E.02151
G1 X152.122 Y89.915 E.02097
G1 X152.667 Y90.29 E.02074
G1 X153.114 Y90.726 E.01958
G1 X153.527 Y91.285 E.02179
G1 X153.793 Y91.826 E.0189
G1 X153.972 Y92.403 E.01894
G1 X154.061 Y93.024 E.01967
G1 X154.067 Y93.465 E.01383
G1 X154.008 Y94.023 E.01759
G1 X153.855 Y94.582 E.01817
G1 X153.576 Y95.19 E.02097
G1 X153.281 Y95.622 E.0164
G1 X152.786 Y96.161 E.02295
G1 X152.206 Y96.595 E.02271
G1 X151.607 Y96.888 E.02091
G1 X150.955 Y97.076 E.02128
G1 X150.288 Y97.145 E.02102
G1 X149.571 Y97.094 E.02254
M204 S1000
G1 X149.614 Y96.72 F10800
M204 S800
;TYPE:External perimeter
G1 F1200
G1 X149.601 Y96.719 E.00041
G1 X149.009 Y96.559 E.01923
G1 X148.463 Y96.303 E.01891
G1 X147.974 Y95.961 E.01871
G1 X147.551 Y95.542 E.01867
G1 X147.204 Y95.056 E.01872
G1 X146.944 Y94.513 E.01888
G1 X146.773 Y93.89 E.02026
G1 X146.719 Y93.296 E.0187
G1 X146.773 Y92.669 E.01973
G1 X146.932 Y92.077 E.01922
G1 X147.188 Y91.531 E.01891
G1 X147.529 Y91.044 E.01864
G1 X147.949 Y90.619 E.01873
G1 X148.435 Y90.272 E.01872
G1 X148.978 Y90.012 E.01888
G1 X149.568 Y89.846 E.01922
G1 X150.158 Y89.791 E.01858
G1 X150.82 Y89.84 E.02081
G1 X151.414 Y90 E.01929
G1 X151.96 Y90.256 E.01891
G1 X152.45 Y90.598 E.01874
G1 X152.847 Y90.992 E.01754
G1 X153.219 Y91.503 E.01982
G1 X153.452 Y91.988 E.01687
G1 X153.608 Y92.503 E.01687
G1 X153.686 Y93.058 E.01757
G1 X153.673 Y93.644 E.01838
G1 X153.612 Y94.041 E.01259
G1 X153.422 Y94.636 E.01958
G1 X153.133 Y95.178 E.01926
G1 X152.771 Y95.643 E.01848
G1 X152.361 Y96.023 E.01753
G1 X151.883 Y96.34 E.01798
G1 X151.42 Y96.558 E.01605
G1 X150.855 Y96.713 E.01837
G1 X150.254 Y96.77 E.01893
G1 X149.673 Y96.724 E.01827
M204 S1000
;WIPE_START
G1 F8640
G1 X149.614 Y96.72 E-.01365
G1 X149.601 Y96.719 E-.00301
G1 X149.009 Y96.559 E-.1416
G1 X148.463 Y96.303 E-.13924
G1 X147.974 Y95.961 E-.13779
G1 X147.551 Y95.542 E-.13748
G1 X147.204 Y95.056 E-.13789
G1 X147.037 Y94.707 E-.08934
;WIPE_END
G1 Z.6 F720
G1 X141.598 Y103.715 F10800
G1 Z.2 F720
G1 E.8 F2100
M204 S800
;TYPE:Perimeter
G1 F1200
G1 X141.65 Y103.702 E.00168
G1 X142.419 Y103.633 E.02421
G1 X143.372 Y103.702 E.02996
G1 X144.146 Y103.904 E.02508
G1 X144.735 Y104.155 E.02007
G1 X145.124 Y104.349 E.01363
G1 X145.756 Y104.795 E.02425
G1 X146.325 Y105.353 E.02499
G1 X146.765 Y105.941 E.02303
G1 X146.947 Y106.223 E.01052
G1 X147.267 Y106.897 E.02339
G1 X147.512 Y107.755 E.02798
G1 X147.602 Y108.668 E.02877
G1 X147.512 Y109.681 E.03189
G1 X147.301 Y110.447 E.02491
G1 X146.98 Y111.144 E.02406
G1 X146.618 Y111.703 E.02088
G1 X146.375 Y112.034 E.01287
G1 X145.829 Y112.579 E.02419
G1 X145.124 Y113.088 E.02726
G1 X144.335 Y113.472 E.02751
G1 X143.59 Y113.685 E.02429
G1 X142.823 Y113.784 E.02425
G1 X142.463 Y113.807 E.01131
G1 X141.65 Y113.734 E.02559
G1 X140.785 Y113.506 E.02805
G1 X139.987 Y113.137 E.02757
G1 X139.271 Y112.641 E.02731
G1 X138.652 Y112.034 E.02718
G1 X138.144 Y111.329 E.02725
G1 X137.76 Y110.54 E.02751
G1 X137.515 Y109.681 E.02801
G1 X137.424 Y108.769 E.02874
G1 X137.497 Y107.855 E.02875
G1 X137.726 Y106.99 E.02806
G1 X138.125 Y106.137 E.02953
G1 X138.525 Y105.568 E.02181
G1 X139.147 Y104.907 E.02846
G1 X139.903 Y104.349 E.02946
G1 X140.692 Y103.965 E.02751
G1 X141.334 Y103.78 E.02095
G1 X141.54 Y103.729 E.00665
M204 S1000
G1 X141.692 Y104.077 F10800
M204 S800
;TYPE:External perimeter
G1 F1200
G1 X142.453 Y104.009 E.02396
G1 X143.341 Y104.078 E.02793
G1 X144.046 Y104.268 E.02289
