; generated by PrusaSlicer 2.7.0+win64 on 2024-04-29 at 09:44:22 UTC


;
;
; 

; external perimeters extrusion width = 0.45mm
; perimeters extrusion width = 0.45mm
; infill extrusion width = 0.45mm
; solid infill extrusion width = 0.45mm
; top infill extrusion width = 0.40mm
; first layer extrusion width = 0.42mm

M73 P0 R111
M73 Q0 S112
M201 X1000 Y1000 Z200 E5000 ; sets maximum accelerations, mm/sec^2
M203 X200 Y200 Z12 E120 ; sets maximum feedrates, mm / sec
M204 S1250 T1250 ; sets acceleration (S) and retract acceleration (R), mm/sec^2
M205 X8.00 Y8.00 Z0.40 E4.50 ; sets the jerk limits, mm/sec
M205 S0 T0 ; sets the minimum extruding and travel feed rate, mm/sec

; printing object NDSLStand.stl id:0 copy 0
; stop printing object NDSLStand.stl id:0 copy 0

;TYPE:Custom
M862.3 P "MK3S" ; printer model check
M862.1 P0.4 ; nozzle diameter check
M115 U3.13.2 ; tell printer latest fw version
G90 ; use absolute coordinates
M83 ; extruder relative mode
M104 S240 ; set extruder temp
M140 S85 ; set bed temp
M190 S85 ; wait for bed temp
M109 S240 ; wait for extruder temp
G28 W ; home all without mesh bed level
G80 X70.0381 Y56.5258 W101.262 H95.0972 ; mesh bed levelling

G1 Z0.2 F720
G1 Y-3 F1000 ; go outside print area
G92 E0
G1 X60 E9 F1000 ; intro line
G1 X100 E12.5 F1000 ; intro line

G92 E0
M221 S95

; Don't change E values below. Excessive value can damage the printer.

M907 E538 ; set extruder motor current
G21 ; set units to millimeters
G90 ; use absolute coordinates
M83 ; use relative distances for extrusion
M900 K0.08 ; Filament gcode LA 1.5
M900 K45 ; Filament gcode LA 1.0

M107
;LAYER_CHANGE
;Z:0.2
;HEIGHT:0.2
;BEFORE_LAYER_CHANGE
G92 E0.0
;0.2


G1 E-1 F2100
G1 Z.2 F720
;AFTER_LAYER_CHANGE
;0.2
G1 X72.766 Y66.303 F10800
G1 Z.2 F720
G1 E1 F2100
M204 S800
;TYPE:Skirt/Brim
;WIDTH:0.42
G1 F1200
G1 X73.624 Y65.424 E.03851
G1 X74.863 Y64.601 E.04664
G1 X76.093 Y64.152 E.04105
G1 X125.294 Y56.764 E1.55996
G1 X126.134 Y56.715 E.02638
G1 X127.239 Y56.874 E.035
G1 X128.314 Y57.336 E.03669
G1 X131.05 Y59.396 E.10738
G1 X131.654 Y60.065 E.02826
G1 X170.608 Y120.946 E2.26618
G1 X170.884 Y121.469 E.01854
G1 X171.116 Y122.191 E.02378
G1 X171.01 Y123.563 E.04315
G1 X170.438 Y124.501 E.03445
G1 X164.06 Y130.936 E.28408
G1 X161.898 Y132.494 E.08356
G1 X160.508 Y133.11 E.04767
G1 X144.777 Y138.136 E.5178
G1 X73.036 Y151.438 E2.28773
G1 X71.68 Y151.291 E.04277
G1 X70.628 Y150.422 E.04278
G1 X70.227 Y149.1 E.04332
G1 X70.227 Y76.008 E2.29175
G1 X70.325 Y73.588 E.07594
G1 X70.619 Y71.398 E.06928
G1 X71.128 Y69.408 E.0644
G1 X71.891 Y67.62 E.06095
G1 X72.733 Y66.353 E.0477
M204 S1000
; printing object NDSLStand.stl id:0 copy 0
;WIPE_START
G1 F8640
G1 X72.766 Y66.303 E-.01383
G1 X73.624 Y65.424 E-.28363
G1 X74.863 Y64.601 E-.34345
G1 X76.093 Y64.152 E-.30234
G1 X76.336 Y64.116 E-.05675
;WIPE_END
G1 Z.4 F720
G1 X143.471 Y128.131 F10800
G1 Z.2 F720
G1 E1 F2100
M204 S800
;TYPE:Perimeter
;WIDTH:0.419999
G1 F1200
G1 X143.526 Y128.081 E.00233
G1 X144.325 Y126.932 E.04388
G1 X144.402 Y126.774 E.00551
G1 X144.821 Y125.401 E.04501
G1 X144.846 Y125.231 E.00539
G1 X144.834 Y123.857 E.04308
G1 X144.809 Y123.694 E.00517
G1 X144.428 Y122.465 E.04034
G1 X144.37 Y122.338 E.00438
G1 X113.624 Y71.881 E1.85262
G1 X113.049 Y70.784 E.03883
G1 X112.788 Y69.653 E.03639
G1 X112.821 Y68.491 E.03645
G1 X113.147 Y67.376 E.03642
G1 X113.745 Y66.38 E.03643
G1 X114.564 Y65.579 E.03592
G1 X122.307 Y61.563 E.27349
;WIDTH:0.464368
G1 X122.406 Y61.537 E.00359
;WIDTH:0.508737
G1 X122.504 Y61.511 E.00393
;WIDTH:0.553106
G1 X122.603 Y61.485 E.00434
;WIDTH:0.597475
G1 X122.702 Y61.459 E.00472
G1 X123.226 Y61.16 E.02782
;WIDTH:0.549377
G1 X123.749 Y60.861 E.02537
;WIDTH:0.501279
G1 X124.273 Y60.563 E.02297
;WIDTH:0.453181
G1 X124.359 Y60.51 E.00345
;WIDTH:0.448535
G1 X125.002 Y60.134 E.02512
G1 X125.635 Y59.922 E.02251
;WIDTH:0.430273
G1 X125.919 Y59.9 E.00917
;WIDTH:0.405123
G1 X126.202 Y59.878 E.00855
;WIDTH:0.379972
G1 X126.581 Y59.97 E.01093
;WIDTH:0.376599
G1 X126.897 Y60.22 E.01118
G1 X126.667 Y60.195 E.00642
;WIDTH:0.387393
G1 X126.166 Y60.219 E.01437
;WIDTH:0.428746
G1 X125.581 Y60.34 E.01916
;WIDTH:0.441666
G1 X125.018 Y60.579 E.02028
;WIDTH:0.453181
G1 X124.49 Y60.909 E.02124
;WIDTH:0.501279
G1 X123.991 Y61.249 E.02301
;WIDTH:0.549377
G1 X123.493 Y61.588 E.02537
;WIDTH:0.597475
G1 X122.995 Y61.928 E.02781
G1 X122.928 Y62.005 E.00471
;WIDTH:0.553106
G1 X122.861 Y62.082 E.00433
;WIDTH:0.508737
G1 X122.794 Y62.159 E.00395
;WIDTH:0.464368
G1 X122.727 Y62.236 E.00358
;WIDTH:0.419999
G1 X118.024 Y65.728 E.18366
G1 X117.172 Y66.562 E.03738
G1 X117.082 Y66.675 E.00453
G1 X116.404 Y67.841 E.04229
G1 X116.044 Y69.14 E.04226
G1 X116.009 Y70.345 E.0378
G1 X116.12 Y70.909 E.01802
G1 X116.345 Y71.798 E.02875
G1 X116.935 Y72.914 E.03958
G1 X154.362 Y126.365 E2.04592
G1 X155.231 Y127.321 E.04051
M73 P0 R110
G1 X155.344 Y127.416 E.00463
G1 X156.384 Y128.078 E.03865
G1 X156.518 Y128.14 E.00463
G1 X157.694 Y128.511 E.03866
G1 X157.839 Y128.537 E.00462
G1 X159.074 Y128.591 E.03876
G1 X159.234 Y128.575 E.00504
G1 X160.451 Y128.263 E.03939
G1 X161.702 Y127.662 E.04352
G1 X165.468 Y125.024 E.14417
G1 X161.856 Y128.664 E.16078
G1 X160.51 Y129.649 E.0523
G1 X159.501 Y130.111 E.0348
G1 X143.886 Y135.099 E.51397
G1 X139.638 Y135.595 E.1341
G1 X135.841 Y134.843 E.12136
G1 X135.318 Y134.666 E.01731
G1 X134.494 Y134.309 E.02816
G1 X133.846 Y133.974 E.02287
G1 X132.966 Y133.448 E.03214
G1 X131.947 Y132.729 E.0391
G1 X131.072 Y131.979 E.03613
G1 X85.445 Y86.479 E2.02036
G1 X84.972 Y86.033 E.02038
M73 Q0 S111
G1 X84.509 Y85.634 E.01916
G1 X84.046 Y85.274 E.01839
G1 X83.584 Y84.954 E.01762
G1 X83.102 Y84.667 E.01759
G1 X82.171 Y84.242 E.03209
G1 X81.244 Y84.013 E.02994
G1 X80.487 Y83.99 E.02375
G1 X80.016 Y84.059 E.01493
G1 X79.597 Y84.189 E.01376
G1 X79.2 Y84.38 E.01381
G1 X78.745 Y84.702 E.01748
G1 X78.147 Y85.351 E.02767
G1 X77.687 Y86.153 E.02899
G1 X77.354 Y87.089 E.03115
G1 X77.146 Y88.087 E.03196
G1 X77.071 Y88.711 E.01971
G1 X77.031 Y89.314 E.01895
G1 X77.018 Y89.929 E.01929
G1 X77.083 Y145.705 E1.74882
G1 X73.391 Y147.761 E.1325
G1 X73.391 Y77.206 E2.2122
G1 X73.392 Y75.955 E.03922
G1 X73.419 Y74.804 E.0361
G1 X73.487 Y73.776 E.0323
G1 X73.596 Y72.809 E.03051
G1 X73.746 Y71.907 E.02867
G1 X73.936 Y71.076 E.02673
G1 X74.164 Y70.318 E.02482
G1 X74.429 Y69.638 E.02288
G1 X74.726 Y69.04 E.02093
G1 X75.054 Y68.526 E.01912
G1 X75.405 Y68.099 E.01733
G1 X75.812 Y67.73 E.01723
G1 X76.356 Y67.391 E.0201
G1 X76.974 Y67.204 E.02024
G1 X77.637 Y67.148 E.02086
G1 X78.321 Y67.243 E.02165
G1 X78.837 Y67.385 E.01678
G1 X79.387 Y67.598 E.01849
G1 X79.97 Y67.885 E.02037
G1 X80.581 Y68.25 E.02232
G1 X81.216 Y68.693 E.02428
G1 X81.873 Y69.213 E.02627
G1 X82.547 Y69.81 E.02823
G1 X83.234 Y70.482 E.03013
G1 X83.931 Y71.226 E.03197
G1 X84.587 Y71.979 E.03131
G1 X136.127 Y126.884 E2.36115
G1 X136.735 Y127.497 E.02707
G1 X137.178 Y127.885 E.01846
G1 X137.655 Y128.213 E.01815
G1 X138.33 Y128.579 E.02408
G1 X138.798 Y128.762 E.01576
G1 X140.273 Y129.148 E.0478
G1 X140.482 Y129.163 E.00657
G1 X141.959 Y128.988 E.04663
G1 X142.173 Y128.917 E.00707
G1 X143.342 Y128.25 E.0422
G1 X143.427 Y128.172 E.00362
M204 S1000
G1 X143.236 Y127.837 F10800
M204 S800
;TYPE:External perimeter
G1 F1200
G1 X144.016 Y126.717 E.04279
G1 X144.469 Y125.234 E.04862
G1 X144.457 Y123.86 E.04308
G1 X144.048 Y122.534 E.04351
G1 X113.296 Y72.066 E1.85301
G1 X112.693 Y70.917 E.04069
G1 X112.409 Y69.69 E.03949
G1 X112.446 Y68.432 E.03946
G1 X112.799 Y67.224 E.03946
G1 X113.447 Y66.145 E.03946
G1 X114.34 Y65.27 E.0392
G1 X124.092 Y60.213 E.34443
G1 X124.819 Y59.782 E.0265
G1 X125.328 Y59.616 E.01679
G1 X125.814 Y59.512 E.01558
G1 X126.218 Y59.521 E.01267
G1 X126.668 Y59.625 E.01448
G1 X126.973 Y59.803 E.01107
;WIDTH:0.444847
G1 X127.516 Y60.335 E.02541
G1 X127.92 Y60.653 E.01718
;WIDTH:0.427486
G1 X128.667 Y61.283 E.03125
;WIDTH:0.461387
G1 X129.22 Y61.62 E.02253
G1 X129.088 Y62.031 E.01502
G1 X128.783 Y61.847 E.01239
;WIDTH:0.460766
G1 X128.168 Y61.37 E.02704
;WIDTH:0.427409
G1 X127.676 Y60.933 E.02104
;WIDTH:0.439134
G1 X127.25 Y60.661 E.01665
G1 X126.628 Y60.549 E.02082
;WIDTH:0.419999
G1 X126.247 Y60.57 E.01196
G1 X125.729 Y60.692 E.01669
G1 X125.224 Y60.907 E.01721
G1 X124.765 Y61.195 E.01699
G1 X118.307 Y65.981 E.25203
G1 X117.436 Y66.831 E.03816
G1 X116.766 Y67.947 E.04081
G1 X116.42 Y69.151 E.03928
G1 X116.387 Y70.306 E.03623
G1 X116.488 Y70.824 E.01655
G1 X116.679 Y71.623 E.02576
G1 X117.244 Y72.698 E.03808
G1 X154.686 Y126.168 E2.04668
G1 X155.547 Y127.097 E.03971
G1 X156.587 Y127.76 E.03867
G1 X157.856 Y128.16 E.04172
G1 X159.144 Y128.209 E.04041
G1 X160.29 Y127.922 E.03704
G1 X161.485 Y127.353 E.0415
;WIDTH:0.463311
G1 X163.847 Y125.725 E.10028
;WIDTH:0.506622
G1 X166.213 Y124.094 E.1108
;WIDTH:0.505815
G1 X166.683 Y123.721 E.02309
;WIDTH:0.458408
G1 X167.083 Y123.399 E.01774
;WIDTH:0.43419
G1 X167.712 Y122.858 E.02699
;WIDTH:0.453795
G1 X168.155 Y122.435 E.02093
G1 X168.285 Y122.19 E.00948
G1 X168.481 Y122.485 E.0121
G1 X168.512 Y122.619 E.0047
G1 X168.434 Y122.737 E.00483
G1 X167.956 Y123.162 E.02185
;WIDTH:0.434323
G1 X167.333 Y123.7 E.02679
;WIDTH:0.458408
G1 X166.954 Y124.034 E.01745
;WIDTH:0.506622
G1 X166.507 Y124.45 E.02354
G1 X164.502 Y126.502 E.11062
;WIDTH:0.463311
G1 X162.497 Y128.554 E.10029
;WIDTH:0.419999
G1 X162.103 Y128.951 E.01754
G1 X160.702 Y129.976 E.05443
G1 X159.637 Y130.463 E.03672
G1 X143.966 Y135.469 E.51581
G1 X139.623 Y135.976 E.1371
G1 X135.744 Y135.208 E.12398
G1 X135.182 Y135.019 E.01859
G1 X134.332 Y134.65 E.02905
G1 X133.662 Y134.303 E.02366
G1 X132.763 Y133.766 E.03283
G1 X132.115 Y133.325 E.02458
G1 X131.711 Y133.023 E.01582
G1 X130.816 Y132.256 E.03696
G1 X85.178 Y86.746 E2.02083
G1 X84.726 Y86.318 E.01952
G1 X84.277 Y85.932 E.01857
G1 X83.831 Y85.584 E.01774
G1 X83.388 Y85.277 E.0169
G1 X82.942 Y85.008 E.01633
G1 X82.075 Y84.607 E.02995
G1 X81.232 Y84.39 E.02729
G1 X80.475 Y84.367 E.02375
G1 X80.08 Y84.431 E.01255
G1 X79.713 Y84.548 E.01208
G1 X79.368 Y84.717 E.01205
G1 X79.018 Y84.962 E.0134
G1 X78.472 Y85.542 E.02498
G1 X78.042 Y86.282 E.02683
G1 X77.723 Y87.166 E.02947
G1 X77.513 Y88.18 E.03247
G1 X77.447 Y88.736 E.01756
G1 X77.408 Y89.322 E.01841
G1 X77.395 Y89.929 E.01904
G1 X77.46 Y145.926 E1.75574
G1 X73.014 Y148.403 E.15958
M73 P1 R110
M73 Q1 S111
G1 X73.014 Y76.012 E2.26977
G1 X73.035 Y74.912 E.0345
G1 X73.097 Y73.873 E.03264
G1 X73.201 Y72.893 E.0309
G1 X73.345 Y71.977 E.02907
G1 X73.529 Y71.128 E.02724
G1 X73.751 Y70.349 E.0254
G1 X73.947 Y69.816 E.01781
G1 X74.221 Y69.192 E.02137
G1 X74.523 Y68.643 E.01965
G1 X74.851 Y68.168 E.0181
G1 X75.203 Y67.766 E.01675
G1 X75.581 Y67.432 E.01582
G1 X76.199 Y67.047 E.02283
G1 X76.654 Y66.882 E.01518
G1 X77.374 Y66.78 E.0228
G1 X77.878 Y66.793 E.01581
G1 X78.407 Y66.876 E.01679
G1 X78.963 Y67.029 E.01808
G1 X79.547 Y67.256 E.01965
G1 X80.158 Y67.559 E.02138
G1 X80.792 Y67.938 E.02316
G1 X81.448 Y68.395 E.02507
G1 X82.121 Y68.929 E.02694
G1 X82.809 Y69.539 E.02883
G1 X83.508 Y70.223 E.03066
G1 X84.215 Y70.979 E.03245
G1 X84.862 Y71.721 E.03087
G1 X136.402 Y126.626 E2.36115
G1 X136.985 Y127.215 E.02598
G1 X137.394 Y127.576 E.0171
G1 X137.832 Y127.88 E.01672
G1 X138.344 Y128.157 E.01825
G1 X138.893 Y128.397 E.01879
G1 X140.438 Y128.789 E.04998
G1 X141.915 Y128.613 E.04664
G1 X141.986 Y128.59 E.00234
G1 X143.155 Y127.922 E.04222
G1 X143.198 Y127.883 E.00182
M204 S1000
;WIPE_START
G1 F8640
G1 X143.236 Y127.837 E-.01378
G1 X144.016 Y126.717 E-.31515
G1 X144.469 Y125.234 E-.35805
G1 X144.457 Y123.878 E-.31302
;WIPE_END
G1 Z.4 F720
G1 X93.103 Y81.299 F10800
G1 Z.2 F720
G1 E1 F2100
M204 S800
;TYPE:Solid infill
;WIDTH:0.420778
G1 F1200
G1 X80.232 Y68.428 E.5719
G1 X79.668 Y68.104 E.02044
G1 X79.114 Y67.844 E.01923
G1 X97.49 Y86.221 E.81653
G1 X105.676 Y94.941 E.37578
G1 X78.328 Y67.593 E1.21516
G1 X78.075 Y67.534 E.00816
G1 X77.696 Y67.495 E.01197
G1 X113.861 Y103.66 E1.60693
G1 X122.047 Y112.38 E.37578
G1 X77.032 Y67.366 E2.00014
M204 S1000
;WIPE_START
G1 F8640
G1 X80.094 Y70.428 E-1
;WIPE_END
G1 Z.4 F720
G1 X122.228 Y61.796 F10800
G1 Z.2 F720
G1 E1 F2100
M204 S800
G1 F1200
G1 X122.451 Y62.019 E.00991
G1 X122.144 Y62.247 E.01201
G1 X122.002 Y62.104 E.00633
G1 X121.65 Y62.287 E.01246
G1 X121.837 Y62.474 E.00831
G1 X121.531 Y62.702 E.01199
G1 X121.298 Y62.469 E.01035
G1 X120.946 Y62.652 E.01246
G1 X121.224 Y62.93 E.01235
G1 X120.918 Y63.158 E.01199
G1 X120.594 Y62.834 E.0144
G1 X120.242 Y63.017 E.01246
G1 X120.611 Y63.385 E.01637
G1 X120.305 Y63.613 E.01199
G1 X119.89 Y63.199 E.01842
G1 X119.538 Y63.382 E.01246
G1 X119.998 Y63.841 E.02042
G1 X119.691 Y64.069 E.01201
G1 X119.187 Y63.564 E.02242
G1 X118.835 Y63.747 E.01246
G1 X119.385 Y64.297 E.02444
G1 X119.078 Y64.524 E.012
G1 X118.483 Y63.929 E.02644
G1 X118.131 Y64.111 E.01245
M73 P1 R109
G1 X118.772 Y64.752 E.02848
G1 X118.465 Y64.98 E.01201
G1 X117.779 Y64.294 E.03048
G1 X117.427 Y64.476 E.01245
G1 X118.158 Y65.208 E.0325
G1 X117.852 Y65.435 E.01197
G1 X117.075 Y64.659 E.0345
G1 X116.723 Y64.841 E.01245
G1 X117.575 Y65.693 E.03786
G1 X117.305 Y65.957 E.01186
G1 X116.371 Y65.024 E.04148
G1 X116.02 Y65.206 E.01242
G1 X117.035 Y66.221 E.0451
G1 X116.928 Y66.326 E.00471
G1 X116.787 Y66.508 E.00723
G1 X115.668 Y65.389 E.04972
G1 X115.316 Y65.571 E.01245
G1 X116.586 Y66.842 E.05645
G1 X116.386 Y67.176 E.01223
G1 X114.964 Y65.754 E.06318
G1 X114.765 Y65.857 E.00704
G1 X114.648 Y65.972 E.00515
G1 X116.186 Y67.51 E.06834
G1 X116.081 Y67.736 E.00783
G1 X116.036 Y67.894 E.00516
G1 X114.378 Y66.236 E.07367
G1 X114.107 Y66.501 E.01191
G1 X115.916 Y68.309 E.08036
G1 X115.796 Y68.723 E.01354
G1 X113.883 Y66.81 E.085
G1 X113.682 Y67.144 E.01225
G1 X115.711 Y69.173 E.09015
G1 X115.693 Y69.689 E.01622
G1 X113.482 Y67.478 E.09824
G1 X113.353 Y67.883 E.01335
G1 X115.674 Y70.205 E.10315
G1 X115.69 Y70.555 E.01101
G1 X115.75 Y70.815 E.00838
G1 X113.232 Y68.297 E.11188
G1 X113.159 Y68.545 E.00812
G1 X113.153 Y68.752 E.00651
G1 X115.911 Y71.51 E.12255
G1 X115.966 Y71.748 E.00767
G1 X116.04 Y71.947 E.00667
G1 X116.291 Y72.425 E.01696
G1 X113.138 Y69.272 E.1401
G1 X113.128 Y69.619 E.01091
G1 X113.182 Y69.85 E.00745
G1 X117.169 Y73.837 E.17716
G1 X118.418 Y75.621 E.06842
G1 X113.342 Y70.545 E.22554
G1 X113.37 Y70.666 E.0039
G1 X113.857 Y71.594 E.03293
G1 X119.667 Y77.404 E.25816
G1 X120.916 Y79.187 E.0684
M73 Q1 S110
G1 X114.664 Y72.935 E.2778
G1 X115.498 Y74.303 E.05034
G1 X122.165 Y80.97 E.29624
G1 X123.413 Y82.753 E.06838
G1 X116.331 Y75.671 E.31468
G1 X117.165 Y77.039 E.05034
G1 X124.662 Y84.536 E.33312
G1 X125.911 Y86.319 E.0684
G1 X117.998 Y78.407 E.35158
G1 X118.832 Y79.775 E.05034
G1 X127.16 Y88.103 E.37004
G1 X128.408 Y89.886 E.06838
G1 X119.665 Y81.143 E.38848
G1 X120.499 Y82.511 E.05034
G1 X129.657 Y91.669 E.40692
G1 X130.906 Y93.452 E.0684
G1 X121.333 Y83.879 E.42536
G1 X122.166 Y85.247 E.05032
G1 X132.155 Y95.235 E.44382
G1 X133.403 Y97.018 E.06838
G1 X123 Y86.614 E.46226
G1 X123.833 Y87.982 E.05032
G1 X134.652 Y98.801 E.48072
G1 X135.901 Y100.585 E.06842
G1 X124.667 Y89.35 E.49918
G1 X125.5 Y90.718 E.05032
G1 X137.15 Y102.368 E.51765
G1 X138.399 Y104.151 E.0684
G1 X126.334 Y92.086 E.53609
G1 X127.167 Y93.454 E.05032
G1 X139.647 Y105.934 E.55453
G1 X140.896 Y107.717 E.0684
G1 X128.001 Y94.822 E.57297
G1 X128.834 Y96.19 E.05032
G1 X142.145 Y109.5 E.59143
G1 X143.394 Y111.283 E.0684
G1 X129.668 Y97.558 E.60987
G1 X130.501 Y98.926 E.05032
G1 X144.642 Y113.067 E.62833
G1 X145.891 Y114.85 E.0684
G1 X131.335 Y100.294 E.64677
G1 X132.168 Y101.661 E.0503
G1 X147.14 Y116.633 E.66525
G1 X148.389 Y118.416 E.0684
G1 X133.002 Y103.029 E.68369
G1 X133.836 Y104.397 E.05034
G1 X149.637 Y120.199 E.70211
G1 X150.886 Y121.982 E.0684
G1 X134.669 Y105.765 E.72057
G1 X135.503 Y107.133 E.05034
G1 X152.826 Y124.457 E.76974
M204 S1000
;WIPE_START
G1 F8640
G1 X149.764 Y121.395 E-1
;WIPE_END
G1 Z.4 F720
G1 X162.254 Y127.472 F10800
G1 Z.2 F720
G1 E1 F2100
M204 S800
G1 F1200
G1 X162.408 Y127.626 E.00684
G1 X162.142 Y127.894 E.01186
G1 X162.061 Y127.813 E.0036
G1 X161.741 Y128.028 E.01211
G1 X161.876 Y128.163 E.006
